;FLAVOR:Marlin
;TIME:1105
;Filament used: 0.463332m
;Layer height: 0.1
;Generated with Cura_SteamEngine 3.0.3
M190 S60
M104 S210
M109 S210
M82 ; absolute extrusion mode
G28 ;Home all axes
G1 Z0.2 F1200 ;Raise nozzle
G92 E0 ;reset extrusion distance
G1 X100 Y0 E12 F600 ;purge nozzle
G92 E0 ;reset extrusion distance
;LAYER_COUNT:63
;LAYER:0
M107
G0 F3600 X52.008 Y29.781 Z0.3
;TYPE:WALL-INNER
G1 F1770 X53.19 Y28.354 E0.09244
G1 X54.619 Y27.193 E0.1843
G1 X56.27 Y26.319 E0.2775
G1 X58.053 Y25.783 E0.37039
G1 X59.903 Y25.603 E0.46312
G1 X61.753 Y25.783 E0.55585
G1 X63.536 Y26.319 E0.64874
G1 X65.187 Y27.193 E0.74194
G1 X66.616 Y28.354 E0.83379
G1 X67.798 Y29.781 E0.92624
G1 X68.676 Y31.408 E1.01847
G1 X69.215 Y33.165 E1.11016
G1 X69.397 Y35 E1.20216
G1 X69.215 Y36.835 E1.29416
G1 X68.676 Y38.592 E1.38585
G1 X67.798 Y40.219 E1.47808
G1 X66.616 Y41.646 E1.57053
G1 X65.187 Y42.807 E1.66239
G1 X63.536 Y43.681 E1.75558
G1 X61.753 Y44.217 E1.84847
G1 X61.068 Y44.284 E1.88281
G1 X60.719 Y44.317 E1.9003
G1 X60.283 Y44.36 E1.92216
G1 X60.111 Y44.377 E1.93078
G1 X60.28 Y44.331
G1 X60.7 Y44.12 E1.93826
G1 X60.977 Y43.905 E1.95149
G1 X61.072 Y43.832 E1.95747
G1 X61.381 Y43.476 E1.98098
G1 X61.614 Y43.067 E2.00447
G1 X61.764 Y42.621 E2.02794
G1 X61.823 Y42.152 E2.05153
G1 X61.789 Y41.682 E2.07504
G1 X61.665 Y41.228 E2.09852
G1 X61.454 Y40.807 E2.12201
G1 X61.166 Y40.436 E2.14544
G1 X60.811 Y40.126 E2.16896
G1 X60.401 Y39.892 E2.19251
G1 X59.981 Y39.753 E2.21458
G1 X57.585 Y39.208 E2.33717
G1 X57.146 Y39.152 E2.35925
G1 X56.676 Y39.186 E2.38276
G1 X56.223 Y39.309 E2.40618
G1 X55.801 Y39.52 E2.42972
G1 X55.429 Y39.809 E2.45322
G1 X55.12 Y40.164 E2.4767
G1 X54.886 Y40.574 E2.50025
G1 X54.738 Y41.02 E2.52369
G1 X54.678 Y41.487 E2.54718
G1 X54.712 Y41.957 E2.57069
G1 X54.836 Y42.413 E2.59427
G1 X54.92 Y42.58 E2.6036
G1 X54.95 Y42.639 E2.6069
G1 X55.047 Y42.833 E2.61772
G1 X55.31 Y43.173 E2.63916
G1 X54.964 Y42.99 E2.63999
G1 X54.619 Y42.807 E2.65396
G1 X54.567 Y42.765 E2.65718
G1 X53.19 Y41.646 E2.7457
G1 X52.008 Y40.219 E2.83814
G1 X51.13 Y38.592 E2.93038
G1 X50.888 Y37.805 E2.97146
G1 X50.81 Y37.548 E2.98486
G1 X51.078 Y37.548 E2.99285
G1 X51.079 Y37.548 E2.9929
G1 X53.713 Y37.538 E3.12431
G1 X53.713 Y32.462 E3.37756
G1 X51.079 Y32.452 E3.50897
G1 X51.078 Y32.452 E3.50902
G1 X50.81 Y32.452 E3.52239
G1 X50.888 Y32.195 E3.5304
G1 X51.13 Y31.408 E3.57148
G1 X52.008 Y29.781 E3.66371
G0 F3600 X52.09 Y29.836
G0 X53.741 Y32.434
G0 X53.813 Y37.139
G0 X53.313 Y37.139
;TYPE:WALL-OUTER
G1 F1770 X53.313 Y32.861 E3.87714
G1 X50.539 Y32.85 E4.01554
G1 X50.538 Y32.85 E4.01559
G1 X50.27 Y32.85 E4.02896
G1 X50.348 Y32.593 E4.03697
G1 X50.76 Y31.251 E4.10701
G1 X51.674 Y29.557 E4.20304
G1 X52.906 Y28.07 E4.29938
G1 X54.401 Y26.855 E4.39549
G1 X56.115 Y25.948 E4.49224
G1 X57.975 Y25.389 E4.58914
G1 X59.903 Y25.201 E4.68578
G1 X61.831 Y25.389 E4.78242
G1 X63.691 Y25.948 E4.87932
G1 X65.405 Y26.855 E4.97607
G1 X66.9 Y28.07 E5.07218
G1 X68.132 Y29.557 E5.16852
G1 X69.046 Y31.251 E5.26455
G1 X69.609 Y33.088 E5.36041
G1 X69.799 Y35 E5.45627
G1 X69.609 Y36.912 E5.55213
G1 X69.046 Y38.749 E5.64798
G1 X68.132 Y40.443 E5.74401
G1 X66.9 Y41.93 E5.84035
G1 X65.405 Y43.145 E5.93647
G1 X63.691 Y44.052 E6.03321
G1 X61.831 Y44.611 E6.13011
G1 X59.903 Y44.799 E6.22675
G1 X57.975 Y44.611 E6.3234
G1 X56.115 Y44.052 E6.42029
G1 X54.401 Y43.145 E6.51704
G1 X52.906 Y41.93 E6.61315
G1 X51.674 Y40.443 E6.70949
G1 X50.76 Y38.749 E6.80552
G1 X50.348 Y37.407 E6.87556
G1 X50.27 Y37.15 E6.88896
G1 X50.538 Y37.15 E6.89695
G1 X50.539 Y37.15 E6.897
G1 X53.313 Y37.139 E7.0354
G0 F3600 X53.313 Y36.939
G0 X53.813 Y36.939
G0 X56.708 Y39.084
G0 X56.744 Y39.582
G1 F1770 X56.366 Y39.685 E7.05495
G1 X56.015 Y39.86 E7.07451
G1 X55.705 Y40.101 E7.0941
G1 X55.448 Y40.397 E7.11366
G1 X55.253 Y40.738 E7.13326
G1 X55.13 Y41.109 E7.15276
G1 X55.08 Y41.498 E7.17233
G1 X55.108 Y41.89 E7.19193
G1 X55.211 Y42.269 E7.21153
G1 X55.387 Y42.619 E7.23107
G1 X55.627 Y42.929 E7.25063
G1 X55.924 Y43.187 E7.27026
G1 X56.264 Y43.38 E7.28976
G1 X56.627 Y43.502 E7.30887
G1 X58.986 Y44.039 E7.42957
G1 X59.366 Y44.087 E7.44868
G1 X59.757 Y44.059 E7.46824
G1 X60.136 Y43.956 E7.48783
G1 X60.486 Y43.78 E7.50738
G1 X60.796 Y43.54 E7.52693
G1 X61.053 Y43.244 E7.54649
G1 X61.247 Y42.903 E7.56606
G1 X61.372 Y42.531 E7.58564
G1 X61.421 Y42.141 E7.60525
G1 X61.393 Y41.75 E7.62481
G1 X61.29 Y41.372 E7.64436
G1 X61.114 Y41.021 E7.66395
G1 X60.874 Y40.712 E7.68347
G1 X60.578 Y40.454 E7.70306
G1 X60.237 Y40.259 E7.72265
G1 X59.874 Y40.139 E7.74173
G1 X57.515 Y39.602 E7.86243
G1 X57.135 Y39.554 E7.88154
G1 X56.744 Y39.582 E7.9011
G0 F3600 X56.551 Y39.634
G0 X56.421 Y39.152
G0 X56.079 Y38.933
;TYPE:WALL-INNER
G1 F1770 X55.587 Y39.18 E7.92856
G1 X55.153 Y39.517 E7.95597
G1 X54.792 Y39.932 E7.98342
G1 X54.518 Y40.41 E8.0109
G1 X54.346 Y40.93 E8.03823
G1 X54.276 Y41.475 E8.06564
G1 X54.323 Y42.052 E8.09452
G1 X53.476 Y41.364 E8.14897
G1 X52.34 Y39.993 E8.23779
G1 X51.5 Y38.436 E8.32606
G1 X51.35 Y37.946 E8.35162
G1 X54.113 Y37.936 E8.48947
G1 X54.113 Y32.064 E8.78243
G1 X51.35 Y32.054 E8.92027
G1 X51.5 Y31.564 E8.94584
G1 X52.34 Y30.007 E9.0341
G1 X53.476 Y28.636 E9.12293
G1 X54.835 Y27.533 E9.21025
G1 X56.422 Y26.693 E9.29984
G1 X58.137 Y26.177 E9.38919
G1 X59.903 Y26.005 E9.47771
G1 X61.669 Y26.177 E9.56623
G1 X63.384 Y26.693 E9.65558
G1 X64.971 Y27.533 E9.74517
G1 X66.33 Y28.636 E9.83249
G1 X67.466 Y30.007 E9.92132
G1 X68.306 Y31.564 E10.00958
G1 X68.821 Y33.243 E10.0972
G1 X68.995 Y35 E10.18528
G1 X68.821 Y36.757 E10.27337
G1 X68.306 Y38.436 E10.36099
G1 X67.466 Y39.993 E10.44925
G1 X66.33 Y41.364 E10.53808
G1 X64.971 Y42.467 E10.6254
G1 X63.384 Y43.307 E10.71498
G1 X61.669 Y43.823 E10.80433
G1 X61.603 Y43.83 E10.80764
G1 X61.709 Y43.708 E10.81571
G1 X61.98 Y43.231 E10.84308
G1 X62.156 Y42.711 E10.87047
G1 X62.225 Y42.162 E10.89807
G1 X62.185 Y41.614 E10.92548
G1 X62.041 Y41.084 E10.95288
G1 X61.794 Y40.593 E10.98031
G1 X61.458 Y40.16 E11.00765
G1 X61.044 Y39.798 E11.03509
G1 X60.565 Y39.524 E11.06262
G1 X60.089 Y39.367 E11.08762
G1 X57.655 Y38.814 E11.21215
G1 X57.156 Y38.75 E11.23725
G1 X56.608 Y38.79 E11.26466
G1 X56.079 Y38.933 E11.292
G0 F3600 X54.015 Y41.57
;TYPE:SKIN
G1 F1770 X53.227 Y40.782 E11.3476
G1 X53.157 Y40.712
G0 F3600 X54.138 Y41.128
G1 F1770 X52.003 Y38.992 E11.49827
G1 X51.933 Y38.922
G0 F3600 X52.265 Y38.122
G1 F1770 X54.397 Y40.255 E11.64873
G1 X54.467 Y40.325
G0 F3600 X54.604 Y39.896
G1 F1770 X52.828 Y38.12 E11.77404
G1 X52.758 Y38.05
G0 F3600 X53.392 Y38.118
G1 F1770 X54.856 Y39.583 E11.87736
G1 X54.926 Y39.653
G0 F3600 X55.138 Y39.298
G1 F1770 X53.955 Y38.116 E11.9608
G1 X53.885 Y38.046
G0 F3600 X54.292 Y37.887
G1 F1770 X55.456 Y39.052 E12.04296
G1 X55.526 Y39.122
G0 F3600 X55.827 Y38.856
G1 F1770 X54.292 Y37.321 E12.15126
G1 X54.222 Y37.251
G0 F3600 X54.292 Y36.756
G1 F1770 X56.238 Y38.702 E12.28856
G1 X56.308 Y38.772
G0 F3600 X56.704 Y38.602
G1 F1770 X54.292 Y36.19 E12.45874
G1 X54.222 Y36.12
G0 F3600 X54.292 Y35.624
G1 F1770 X57.247 Y38.579 E12.66723
G1 X57.317 Y38.649
G0 F3600 X57.924 Y38.69
G1 F1770 X54.292 Y35.059 E12.92345
G1 X54.222 Y34.989
G0 F3600 X54.292 Y34.493
G1 F1770 X58.656 Y38.857 E13.23136
G1 X58.726 Y38.927
G0 F3600 X59.388 Y39.023
G1 F1770 X54.292 Y33.927 E13.59091
G1 X54.222 Y33.857
G0 F3600 X54.292 Y33.362
G1 F1770 X60.12 Y39.189 E14.00207
G1 X60.19 Y39.259
G0 F3600 X61.14 Y39.644
G1 F1770 X54.292 Y32.796 E14.48523
G1 X54.222 Y32.726
G0 F3600 X54.292 Y32.23
G1 F1770 X64.547 Y42.485 E15.20878
G1 X64.617 Y42.555
G0 F3600 X64.91 Y42.282
G1 F1770 X52.6 Y29.972 E16.07732
G1 X52.53 Y29.902
G0 F3600 X52.856 Y29.663
G1 F1770 X65.222 Y42.029 E16.9498
G1 X65.292 Y42.099
G0 F3600 X65.535 Y41.776
G1 F1770 X53.112 Y29.354 E17.82628
G1 X53.042 Y29.284
G0 F3600 X53.369 Y29.045
G1 F1770 X65.847 Y41.522 E18.70663
G1 X65.917 Y41.592
G0 F3600 X66.159 Y41.269
G1 F1770 X53.631 Y28.741 E19.59055
G1 X53.561 Y28.671
G0 F3600 X53.943 Y28.487
G1 F1770 X66.424 Y40.968 E20.47115
G1 X66.494 Y41.038
G0 F3600 X66.68 Y40.658
G1 F1770 X54.255 Y28.234 E21.34777
G1 X54.185 Y28.164
G0 F3600 X54.568 Y27.98
G1 F1770 X66.936 Y40.349 E22.22043
G1 X67.006 Y40.419
G0 F3600 X67.193 Y40.04
G1 F1770 X54.88 Y27.727 E23.08918
G1 X54.81 Y27.657
G0 F3600 X55.241 Y27.522
G1 F1770 X67.419 Y39.701 E23.94844
G1 X67.489 Y39.771
G0 F3600 X67.617 Y39.333
G1 F1770 X55.611 Y27.326 E24.79556
G1 X55.541 Y27.256
G0 F3600 X55.98 Y27.13
G1 F1770 X67.816 Y38.966 E25.63066
G1 X67.886 Y39.036
G0 F3600 X68.014 Y38.598
G1 F1770 X56.35 Y26.935 E26.45358
G1 X56.28 Y26.865
G0 F3600 X56.761 Y26.78
G1 F1770 X68.188 Y38.207 E27.25982
G1 X68.258 Y38.277
G0 F3600 X68.321 Y37.774
G1 F1770 X57.196 Y26.649 E28.04475
G1 X57.126 Y26.579
G0 F3600 X57.631 Y26.518
G1 F1770 X68.454 Y37.341 E28.80837
G1 X68.524 Y37.411
G0 F3600 X68.587 Y36.908
G1 F1770 X58.066 Y26.387 E29.55068
G1 X57.996 Y26.317
G0 F3600 X58.561 Y26.317
G1 F1770 X68.672 Y36.428 E30.26407
G1 X68.742 Y36.498
G0 F3600 X68.723 Y35.913
G1 F1770 X59.076 Y26.266 E30.94471
G1 X59.006 Y26.196
G0 F3600 X59.592 Y26.216
G1 F1770 X68.774 Y35.399 E31.59259
G1 X68.844 Y35.469
G0 F3600 X68.8 Y34.858
G1 F1770 X60.152 Y26.211 E32.20272
G1 X60.082 Y26.141
G0 F3600 X60.778 Y26.271
G1 F1770 X68.737 Y34.231 E32.7643
G1 X68.807 Y34.301
G0 F3600 X68.675 Y33.603
G1 F1770 X61.405 Y26.332 E33.27728
G1 X61.335 Y26.262
G0 F3600 X62.148 Y26.51
G1 F1770 X68.522 Y32.884 E33.727
G1 X68.592 Y32.954
G0 F3600 X68.272 Y32.068
G1 F1770 X62.957 Y26.753 E34.102
G1 X62.887 Y26.683
G0 F3600 X63.986 Y27.216
G1 F1770 X67.829 Y31.06 E34.37318
G1 X67.899 Y31.13
G0 F3600 X66.696 Y29.361
G1 F1770 X65.66 Y28.325 E34.44627
G1 X65.59 Y28.255
G0 F3600 X53.945 Y31.884
G1 F1770 X52.376 Y30.315 E34.55697
G1 X52.306 Y30.245
G0 F3600 X52.178 Y30.682
G1 F1770 X53.377 Y31.881 E34.64157
G1 X53.447 Y31.951
G0 F3600 X52.809 Y31.879
G1 F1770 X51.98 Y31.049 E34.7001
G1 X51.91 Y30.979
G0 F3600 X52.011 Y31.646
G1 F1770 X51.641 Y31.842 E34.71858
G0 F3600 X51.61 Y31.811
G0 X53.741 Y32.434
G0 X53.741 Y37.566
G0 X51.701 Y38.125
G1 F1770 X54.242 Y40.666 E34.89786
G1 X54.312 Y40.736
G0 F3600 X55.78 Y39.487
G0 X56.209 Y39.272
G0 X56.67 Y39.147
G0 X57.147 Y39.113
G0 X59.991 Y39.715
G0 X61.785 Y40.289
G1 F1770 X64.177 Y42.681 E35.06663
G1 X64.247 Y42.751
G0 F3600 X63.807 Y42.877
G1 F1770 X62.306 Y41.376 E35.17254
G1 X62.236 Y41.306
G0 F3600 X62.395 Y42.03
G1 F1770 X63.438 Y43.073 E35.24613
G1 X63.508 Y43.143
G0 F3600 X63.025 Y43.226
G1 F1770 X62.355 Y42.556 E35.2934
G1 X62.285 Y42.486
G0 F3600 X62.416 Y43.182
G1 F1770 X62.117 Y43.45 E35.30822
G0 F3600 X62.081 Y43.414
G0 X60.721 Y44.153
G0 X60.294 Y44.368
G0 X60.214 Y44.356
G0 X60.209 Y44.36
G0 X59.865 Y44.309
G1 F1770 X59.708 Y44.435 E35.31618
G1 X59.41 Y44.419 E35.32724
G1 X59.09 Y44.382 E35.338
G1 X58.75 Y44.325 E35.34996
G1 X58.41 Y44.268 E35.36376
G1 X58.071 Y44.212 E35.3794
G1 X57.728 Y44.152 E35.39682
G1 X57.343 Y44.049 E35.41431
G1 X56.958 Y43.947 E35.43051
G1 X56.556 Y43.828 E35.44599
G1 X56.021 Y43.576 E35.46598
G1 X55.652 Y43.49 E35.48554
G1 F1500 E28.98554
G0 F3600 X55.234 Y43.109
G0 X55.295 Y43.161
G0 X54.702 Y44.284
G0 X57.278 Y49.703
G0 X57.644 Y50.912
G0 X58.088 Y50.881
G0 X58.069 Y50.783
;TYPE:WALL-INNER
G1 F1500 E35.48554
G1 F1770 X59.903 Y50.603 E35.57748
G1 X61.737 Y50.783 E35.66942
G1 X63.499 Y51.317 E35.76127
G1 X65.122 Y52.186 E35.85312
G1 X66.548 Y53.355 E35.94511
G1 X67.717 Y54.781 E36.03711
G1 X68.586 Y56.404 E36.12895
G1 X69.12 Y58.166 E36.22081
G1 X69.3 Y60 E36.31275
G1 X69.12 Y61.834 E36.40469
G1 X68.586 Y63.596 E36.49654
G1 X67.717 Y65.219 E36.58839
G1 X66.548 Y66.645 E36.68038
G1 X65.122 Y67.814 E36.77238
G1 X63.499 Y68.683 E36.86422
G1 X61.737 Y69.217 E36.95608
G1 X59.903 Y69.397 E37.04802
G1 X58.069 Y69.217 E37.13996
G1 X56.307 Y68.683 E37.23181
G1 X54.684 Y67.814 E37.32366
G1 X53.258 Y66.645 E37.41565
G1 X52.089 Y65.219 E37.50765
G1 X51.22 Y63.596 E37.59949
G1 X50.98 Y62.803 E37.64083
G1 X50.903 Y62.547 E37.65417
G1 X51.17 Y62.547 E37.66215
G1 X51.171 Y62.547 E37.6622
G1 X53.777 Y62.538 E37.79221
G1 X53.778 Y57.462 E38.04546
G1 X51.171 Y57.452 E38.17552
G1 X51.17 Y57.452 E38.17557
G1 X50.903 Y57.452 E38.18889
G1 X50.98 Y57.196 E38.19688
G1 X51.22 Y56.404 E38.23817
G1 X52.089 Y54.781 E38.33002
G1 X53.258 Y53.355 E38.42201
G1 X54.684 Y52.186 E38.51401
G1 X56.307 Y51.317 E38.60585
G1 X58.069 Y50.783 E38.69771
G0 F3600 X58.088 Y50.881
G0 X53.877 Y62.14
G0 X53.377 Y62.139
;TYPE:WALL-OUTER
G1 F1770 X53.378 Y57.861 E38.91114
G1 X50.632 Y57.85 E39.04814
G1 X50.631 Y57.85 E39.04819
G1 X50.364 Y57.85 E39.06151
G1 X50.441 Y57.594 E39.0695
G1 X50.849 Y56.249 E39.13962
G1 X51.753 Y54.559 E39.23524
G1 X52.974 Y53.071 E39.33127
G1 X54.462 Y51.85 E39.4273
G1 X56.152 Y50.946 E39.52292
G1 X57.989 Y50.389 E39.61869
G1 X59.903 Y50.201 E39.71464
G1 X61.817 Y50.389 E39.81059
G1 X63.654 Y50.946 E39.90636
G1 X65.344 Y51.85 E40.00198
G1 X66.832 Y53.071 E40.09801
G1 X68.053 Y54.559 E40.19404
G1 X68.957 Y56.249 E40.28966
G1 X69.514 Y58.086 E40.38542
G1 X69.702 Y60 E40.48137
G1 X69.514 Y61.914 E40.57732
G1 X68.957 Y63.751 E40.67309
G1 X68.053 Y65.441 E40.76871
G1 X66.832 Y66.929 E40.86474
G1 X65.344 Y68.15 E40.96077
G1 X63.654 Y69.054 E41.05639
G1 X61.817 Y69.611 E41.15216
G1 X59.903 Y69.799 E41.24811
G1 X57.989 Y69.611 E41.34406
G1 X56.152 Y69.054 E41.43983
G1 X54.462 Y68.15 E41.53545
G1 X52.974 Y66.929 E41.63148
G1 X51.753 Y65.441 E41.72751
G1 X50.849 Y63.751 E41.82313
G1 X50.441 Y62.405 E41.8933
G1 X50.364 Y62.149 E41.90663
G1 X50.631 Y62.149 E41.91461
G1 X50.632 Y62.149 E41.91466
G1 X53.377 Y62.139 E42.05161
G0 F3600 X53.377 Y61.939
G0 X53.877 Y61.94
G0 X54.177 Y62.936
;TYPE:WALL-INNER
G1 F1770 X54.178 Y57.064 E42.34457
G1 X51.44 Y57.054 E42.48117
G1 X51.59 Y56.556 E42.50712
G1 X52.419 Y55.011 E42.59459
G1 X53.542 Y53.639 E42.68305
G1 X54.914 Y52.516 E42.7715
G1 X56.459 Y51.687 E42.85898
G1 X58.144 Y51.177 E42.94681
G1 X59.903 Y51.005 E43.03499
G1 X61.662 Y51.177 E43.12316
G1 X63.347 Y51.687 E43.21099
G1 X64.892 Y52.516 E43.29847
G1 X66.264 Y53.639 E43.38692
G1 X67.387 Y55.011 E43.47538
G1 X68.216 Y56.556 E43.56285
G1 X68.726 Y58.241 E43.65068
G1 X68.898 Y60 E43.73886
G1 X68.726 Y61.759 E43.82703
G1 X68.216 Y63.444 E43.91487
G1 X67.387 Y64.989 E44.00234
G1 X66.264 Y66.361 E44.0908
G1 X64.892 Y67.484 E44.17925
G1 X63.347 Y68.313 E44.26673
G1 X61.662 Y68.823 E44.35456
G1 X59.903 Y68.995 E44.44273
G1 X58.144 Y68.823 E44.53091
G1 X56.459 Y68.313 E44.61874
G1 X54.914 Y67.484 E44.70622
G1 X53.542 Y66.361 E44.79467
G1 X52.419 Y64.989 E44.88313
G1 X51.593 Y63.448 E44.97035
G1 X51.441 Y62.945 E44.99657
G1 X54.177 Y62.936 E45.13307
G0 F3600 X54.315 Y66.76
;TYPE:SKIN
G1 F1770 X53.14 Y65.585 E45.21597
G1 X53.07 Y65.515
G0 F3600 X52.058 Y63.938
G1 F1770 X55.961 Y67.841 E45.49135
G1 X56.031 Y67.911
G0 F3600 X56.963 Y68.276
G1 F1770 X51.809 Y63.123 E45.85496
G1 X51.739 Y63.053
G0 F3600 X52.373 Y63.121
G1 F1770 X57.774 Y68.522 E46.23603
G1 X57.844 Y68.592
G0 F3600 X58.493 Y68.675
G1 F1770 X52.936 Y63.119 E46.62807
G1 X52.866 Y63.049
G0 F3600 X53.501 Y63.117
G1 F1770 X59.12 Y68.737 E47.02456
G1 X59.19 Y68.807
G0 F3600 X59.746 Y68.797
G1 F1770 X54.064 Y63.115 E47.42545
G1 X53.994 Y63.045
G0 F3600 X54.357 Y62.842
G1 F1770 X60.29 Y68.775 E47.84406
G1 X60.36 Y68.845
G0 F3600 X60.805 Y68.725
G1 F1770 X54.357 Y62.277 E48.299
G1 X54.287 Y62.207
G0 F3600 X54.357 Y61.711
G1 F1770 X61.321 Y68.674 E48.79031
G1 X61.391 Y68.744
G0 F3600 X61.803 Y68.591
G1 F1770 X54.357 Y61.145 E49.31567
G1 X54.287 Y61.075
G0 F3600 X54.357 Y60.579
G1 F1770 X62.237 Y68.459 E49.87164
G1 X62.307 Y68.529
G0 F3600 X62.672 Y68.329
G1 F1770 X54.357 Y60.014 E50.45831
G1 X54.287 Y59.944
G0 F3600 X54.357 Y59.448
G1 F1770 X63.106 Y68.197 E51.0756
G1 X63.176 Y68.267
G0 F3600 X63.5 Y68.025
G1 F1770 X54.357 Y58.882 E51.72069
G1 X54.287 Y58.812
G0 F3600 X54.357 Y58.317
G1 F1770 X63.868 Y67.828 E52.39174
G1 X63.938 Y67.898
G0 F3600 X64.236 Y67.63
G1 F1770 X54.357 Y57.751 E53.08876
G1 X54.287 Y57.681
G0 F3600 X54.357 Y57.185
G1 F1770 X64.604 Y67.433 E53.81177
G1 X64.674 Y67.503
G0 F3600 X64.944 Y67.206
G1 F1770 X52.694 Y54.957 E54.67604
G1 X52.624 Y54.887
