;FLAVOR:Marlin
;TIME:528
;Filament used: 0.405961m
;Layer height: 0.175
;Generated with Cura_SteamEngine 3.0.3
M190 S60
M104 S210
M109 S210
M82 ; absolute extrusion mode
G28 ;Home all axes
G1 Z0.2 F1200 ;Raise nozzle
G92 E0 ;reset extrusion distance
G1 X100 Y0 E12 F600 ;purge nozzle
G92 E0 ;reset extrusion distance
;LAYER_COUNT:16
;LAYER:0
M107
G0 F4500 X48.498 Y48.921 Z0.3
;TYPE:SKIRT
G1 F1500 X49.045 Y48.377 E0.03849
G1 X50.82 Y46.925 E0.1529
G1 X51.471 Y46.492 E0.1919
G1 X53.528 Y45.395 E0.30821
G1 X54.249 Y45.096 E0.34715
G1 X56.497 Y44.414 E0.46435
G1 X57.263 Y44.262 E0.50331
G1 X59.599 Y44.03 E0.62043
G1 X60.388 Y44.029 E0.65979
G1 X62.751 Y44.263 E0.77826
G1 X63.518 Y44.416 E0.81728
G1 X65.733 Y45.088 E0.93276
G1 X66.457 Y45.388 E0.97186
G1 X68.552 Y46.507 E1.09036
G1 X69.205 Y46.943 E1.12953
G1 X71.006 Y48.421 E1.24576
G1 X71.557 Y48.972 E1.28464
G1 X73.059 Y50.798 E1.4026
G1 X73.498 Y51.454 E1.44198
G1 X74.603 Y53.522 E1.55896
G1 X74.903 Y54.246 E1.59806
G1 X75.586 Y56.497 E1.71541
G1 X75.738 Y57.262 E1.75433
G1 X75.97 Y59.591 E1.8711
G1 X75.971 Y60.38 E1.91046
G1 X75.737 Y62.749 E2.02922
G1 X75.584 Y63.517 E2.06829
G1 X74.912 Y65.733 E2.18382
G1 X74.613 Y66.455 E2.22281
G1 X73.495 Y68.55 E2.34128
G1 X73.044 Y69.222 E2.38166
G1 X71.5 Y71.082 E2.50226
G1 X70.954 Y71.623 E2.54061
G1 X69.18 Y73.074 E2.65495
G1 X68.523 Y73.512 E2.69434
G1 X66.425 Y74.625 E2.81283
G1 X65.691 Y74.925 E2.85239
G1 X63.419 Y75.601 E2.97065
G1 X62.668 Y75.748 E3.00883
G1 X60.393 Y75.971 E3.12287
G1 X59.611 Y75.971 E3.16188
G1 X57.277 Y75.741 E3.27889
G1 X56.503 Y75.586 E3.31827
G1 X54.213 Y74.888 E3.43771
G1 X53.49 Y74.588 E3.47676
G1 X51.444 Y73.492 E3.59256
G1 X50.778 Y73.044 E3.63261
G1 X48.918 Y71.5 E3.75321
G1 X48.374 Y70.951 E3.79177
G1 X46.92 Y69.169 E3.90651
G1 X46.486 Y68.516 E3.94563
G1 X45.376 Y66.426 E4.06369
G1 X45.075 Y65.691 E4.10332
G1 X44.399 Y63.419 E4.22158
G1 X44.252 Y62.667 E4.25981
G1 X44.029 Y60.384 E4.37425
G1 X44.029 Y59.602 E4.41326
G1 X44.259 Y57.275 E4.52992
G1 X44.414 Y56.503 E4.56921
G1 X45.109 Y54.221 E4.68822
G1 X45.408 Y53.498 E4.72725
G1 X46.502 Y51.454 E4.84292
G1 X46.949 Y50.79 E4.88285
G1 X48.498 Y48.921 E5.00396
G0 F4500 X48.806 Y49.176
G1 F1500 X49.299 Y48.687 E5.0386
G1 X51.074 Y47.235 E5.15301
G1 X51.659 Y46.844 E5.18811
G1 X53.716 Y45.747 E5.30442
G1 X54.365 Y45.479 E5.33945
G1 X56.613 Y44.797 E5.45665
G1 X57.302 Y44.66 E5.4917
G1 X59.638 Y44.428 E5.60882
G1 X60.349 Y44.428 E5.64429
G1 X62.712 Y44.662 E5.76275
G1 X63.402 Y44.799 E5.79785
G1 X65.617 Y45.471 E5.91333
G1 X66.268 Y45.741 E5.94849
G1 X68.363 Y46.86 E6.06699
G1 X68.951 Y47.252 E6.10224
G1 X70.752 Y48.73 E6.21848
G1 X71.248 Y49.226 E6.25348
G1 X72.75 Y51.052 E6.37143
G1 X73.145 Y51.642 E6.40686
G1 X74.25 Y53.71 E6.52384
G1 X74.52 Y54.362 E6.55904
G1 X75.203 Y56.613 E6.6764
G1 X75.34 Y57.301 E6.7114
G1 X75.572 Y59.63 E6.82817
G1 X75.573 Y60.341 E6.86364
G1 X75.339 Y62.71 E6.98241
G1 X75.201 Y63.401 E7.01756
G1 X74.529 Y65.617 E7.13309
G1 X74.26 Y66.267 E7.16818
G1 X73.142 Y68.362 E7.28666
G1 X72.736 Y68.966 E7.32297
G1 X71.192 Y70.826 E7.44357
G1 X70.701 Y71.314 E7.4781
G1 X68.927 Y72.765 E7.59244
G1 X68.335 Y73.158 E7.62789
G1 X66.237 Y74.271 E7.74638
G1 X65.577 Y74.542 E7.78198
G1 X63.305 Y75.218 E7.90024
G1 X62.629 Y75.35 E7.9346
G1 X60.354 Y75.573 E8.04864
G1 X59.65 Y75.573 E8.08377
G1 X57.316 Y75.343 E8.20077
G1 X56.619 Y75.204 E8.23623
G1 X54.329 Y74.506 E8.35567
G1 X53.679 Y74.235 E8.3908
G1 X51.633 Y73.139 E8.5066
G1 X51.034 Y72.736 E8.54262
G1 X49.174 Y71.192 E8.66322
G1 X48.684 Y70.698 E8.69794
G1 X47.23 Y68.916 E8.81268
G1 X46.84 Y68.329 E8.84784
G1 X45.73 Y66.239 E8.9659
G1 X45.458 Y65.577 E9.00161
G1 X44.782 Y63.305 E9.11987
G1 X44.65 Y62.628 E9.15428
G1 X44.427 Y60.345 E9.26873
G1 X44.427 Y59.641 E9.30385
G1 X44.657 Y57.314 E9.42051
G1 X44.796 Y56.619 E9.45587
G1 X45.491 Y54.337 E9.57488
G1 X45.761 Y53.687 E9.61
G1 X46.855 Y51.643 E9.72566
G1 X47.257 Y51.045 E9.76161
G1 X48.806 Y49.176 E9.88271
G0 F4500 X49.114 Y49.431
G1 F1500 X49.552 Y48.996 E9.91351
G1 X51.327 Y47.544 E10.02792
G1 X51.847 Y47.197 E10.05911
G1 X53.904 Y46.1 E10.17542
G1 X54.481 Y45.862 E10.20656
G1 X56.729 Y45.18 E10.32376
G1 X57.342 Y45.058 E10.35494
G1 X59.678 Y44.826 E10.47206
G1 X60.309 Y44.826 E10.50354
G1 X62.672 Y45.06 E10.622
G1 X63.286 Y45.182 E10.65324
G1 X65.501 Y45.854 E10.76872
G1 X66.08 Y46.093 E10.79997
G1 X68.175 Y47.212 E10.91846
G1 X68.697 Y47.561 E10.94979
G1 X70.498 Y49.039 E11.06602
G1 X70.939 Y49.48 E11.09714
G1 X72.441 Y51.306 E11.2151
G1 X72.792 Y51.831 E11.24661
G1 X73.897 Y53.899 E11.36358
G1 X74.137 Y54.478 E11.39485
G1 X74.82 Y56.729 E11.51221
G1 X74.942 Y57.341 E11.54335
G1 X75.174 Y59.67 E11.66011
G1 X75.175 Y60.302 E11.69165
G1 X74.941 Y62.671 E11.81041
G1 X74.818 Y63.285 E11.84165
G1 X74.146 Y65.501 E11.95718
G1 X73.907 Y66.079 E11.98838
G1 X72.789 Y68.174 E12.10686
G1 X72.428 Y68.711 E12.13914
G1 X70.884 Y70.571 E12.25974
G1 X70.448 Y71.004 E12.2904
G1 X68.674 Y72.455 E12.40474
G1 X68.148 Y72.805 E12.43626
G1 X66.05 Y73.918 E12.55474
G1 X65.463 Y74.158 E12.58638
G1 X63.191 Y74.834 E12.70464
G1 X62.59 Y74.952 E12.7352
G1 X60.315 Y75.175 E12.84924
G1 X59.689 Y75.175 E12.88048
G1 X57.355 Y74.945 E12.99748
G1 X56.736 Y74.821 E13.02898
G1 X54.446 Y74.123 E13.14842
G1 X53.868 Y73.883 E13.17964
G1 X51.822 Y72.787 E13.29544
G1 X51.289 Y72.428 E13.3275
G1 X49.429 Y70.884 E13.4481
G1 X48.994 Y70.445 E13.47893
G1 X47.54 Y68.663 E13.59368
G1 X47.193 Y68.141 E13.62495
G1 X46.083 Y66.051 E13.74301
G1 X45.842 Y65.463 E13.77472
G1 X45.166 Y63.191 E13.89298
G1 X45.048 Y62.589 E13.92358
G1 X44.825 Y60.306 E14.03803
G1 X44.826 Y59.68 E14.06926
G1 X45.056 Y57.353 E14.18592
G1 X45.179 Y56.736 E14.2173
G1 X45.874 Y54.454 E14.33632
G1 X46.114 Y53.876 E14.36754
G1 X47.208 Y51.832 E14.4832
G1 X47.565 Y51.3 E14.51517
G1 X49.114 Y49.431 E14.63627
G1 F2400 E10.63627
G0 F4500 X50.963 Y51.141
G0 X51.955 Y51.955
G0 X52.011 Y52.011
G0 X51.941 Y51.941
;TYPE:WALL-INNER
G1 F2400 E14.63627
G1 F1500 X53.67 Y50.523 E14.74783
G1 X55.639 Y49.469 E14.85926
G1 X57.776 Y48.822 E14.97065
G1 X60 Y48.603 E15.08214
G1 X62.224 Y48.822 E15.19364
G1 X64.361 Y49.469 E15.30503
G1 X66.33 Y50.523 E15.41645
G1 X68.059 Y51.941 E15.52801
G1 X69.477 Y53.67 E15.63957
G1 X70.531 Y55.639 E15.751
G1 X71.178 Y57.776 E15.86239
G1 X71.397 Y60 E15.97388
G1 X71.178 Y62.224 E16.08537
G1 X70.531 Y64.361 E16.19677
G1 X69.477 Y66.33 E16.30819
G1 X68.059 Y68.059 E16.41975
G1 X66.33 Y69.477 E16.53131
G1 X64.361 Y70.531 E16.64273
G1 X62.224 Y71.178 E16.75413
G1 X60 Y71.397 E16.86562
G1 X57.776 Y71.178 E16.97711
G1 X55.639 Y70.531 E17.08851
G1 X53.67 Y69.477 E17.19993
G1 X51.941 Y68.059 E17.31149
G1 X50.523 Y66.33 E17.42305
G1 X49.469 Y64.361 E17.53447
G1 X48.822 Y62.224 E17.64587
G1 X48.603 Y60 E17.75736
G1 X48.822 Y57.776 E17.86885
G1 X49.469 Y55.639 E17.98025
G1 X50.523 Y53.67 E18.09167
G1 X51.941 Y51.941 E18.20323
G0 F4500 X52.011 Y52.011
G0 X62.205 Y48.92
G0 X62.304 Y48.428
;TYPE:WALL-OUTER
G1 F1500 X64.516 Y49.098 E18.31854
G1 X66.552 Y50.187 E18.43373
G1 X68.343 Y51.657 E18.54933
G1 X69.813 Y53.448 E18.66492
G1 X70.902 Y55.484 E18.78012
G1 X71.572 Y57.696 E18.89543
G1 X71.799 Y60 E19.01093
G1 X71.572 Y62.304 E19.12643
G1 X70.902 Y64.516 E19.24174
G1 X69.813 Y66.552 E19.35694
G1 X68.343 Y68.343 E19.47253
G1 X66.552 Y69.813 E19.58813
G1 X64.516 Y70.902 E19.70332
G1 X62.304 Y71.572 E19.81863
G1 X60 Y71.799 E19.93413
G1 X57.696 Y71.572 E20.04964
G1 X55.484 Y70.902 E20.16495
G1 X53.448 Y69.813 E20.28014
G1 X51.657 Y68.343 E20.39574
G1 X50.187 Y66.552 E20.51133
G1 X49.098 Y64.516 E20.62653
G1 X48.428 Y62.304 E20.74184
G1 X48.201 Y60 E20.85734
G1 X48.428 Y57.696 E20.97284
G1 X49.098 Y55.484 E21.08815
G1 X50.187 Y53.448 E21.20334
G1 X51.657 Y51.657 E21.31894
G1 X53.448 Y50.187 E21.43454
G1 X55.484 Y49.098 E21.54973
G1 X57.696 Y48.428 E21.66504
G1 X60 Y48.201 E21.78054
G1 X62.304 Y48.428 E21.89605
G0 F4500 X62.495 Y48.485
G0 X62.35 Y48.963
G0 X62.15 Y49.216
;TYPE:WALL-INNER
G1 F1500 X64.209 Y49.839 E22.00337
G1 X66.1 Y50.853 E22.11042
G1 X67.775 Y52.225 E22.21844
G1 X69.147 Y53.9 E22.32646
G1 X70.161 Y55.791 E22.43351
G1 X70.784 Y57.85 E22.54084
G1 X70.995 Y60 E22.64862
G1 X70.784 Y62.15 E22.75639
G1 X70.161 Y64.209 E22.86372
G1 X69.147 Y66.1 E22.97077
G1 X67.775 Y67.775 E23.07879
G1 X66.1 Y69.147 E23.18681
G1 X64.209 Y70.161 E23.29386
G1 X62.15 Y70.784 E23.40118
G1 X60 Y70.995 E23.50896
G1 X57.85 Y70.784 E23.61674
G1 X55.791 Y70.161 E23.72407
G1 X53.9 Y69.147 E23.83111
G1 X52.225 Y67.775 E23.93914
G1 X50.853 Y66.1 E24.04716
G1 X49.839 Y64.209 E24.15421
G1 X49.216 Y62.15 E24.26153
G1 X49.005 Y60 E24.36931
G1 X49.216 Y57.85 E24.47709
G1 X49.839 Y55.791 E24.58441
G1 X50.853 Y53.9 E24.69146
G1 X52.225 Y52.225 E24.79948
G1 X53.9 Y50.853 E24.90751
G1 X55.791 Y49.839 E25.01456
G1 X57.85 Y49.216 E25.12188
G1 X60 Y49.005 E25.22966
G1 X62.15 Y49.216 E25.33744
G0 F4500 X67.735 Y52.462
;TYPE:SKIN
G1 F1500 X67.537 Y52.263 E25.35144
G0 F4500 X65.378 Y50.67
G1 F1500 X69.329 Y54.621 E25.63021
G1 X69.399 Y54.691
G0 F4500 X69.983 Y55.84
G1 F1500 X64.159 Y50.017 E26.04109
G1 X64.089 Y49.947
G0 F4500 X63.34 Y49.764
G1 F1500 X70.236 Y56.659 E26.5276
G1 X70.306 Y56.729
G0 F4500 X70.482 Y57.471
G1 F1500 X62.528 Y49.517 E27.0888
G1 X62.458 Y49.447
G0 F4500 X61.808 Y49.363
G1 F1500 X70.637 Y58.192 E27.71173
G1 X70.707 Y58.262
G0 F4500 X70.698 Y58.819
G1 F1500 X61.181 Y49.301 E28.38324
G1 X61.111 Y49.231
G0 F4500 X60.554 Y49.24
G1 F1500 X70.759 Y59.445 E29.10326
G1 X70.829 Y59.515
G0 F4500 X70.807 Y60.059
G1 F1500 X59.94 Y49.192 E29.86999
G1 X59.87 Y49.122
G0 F4500 X59.425 Y49.242
G1 F1500 X70.757 Y60.575 E30.66956
G1 X70.827 Y60.645
G0 F4500 X70.707 Y61.09
G1 F1500 X58.909 Y49.293 E31.50193
G1 X58.839 Y49.223
G0 F4500 X58.394 Y49.343
G1 F1500 X70.656 Y61.605 E32.36708
G1 X70.726 Y61.675
G0 F4500 X70.606 Y62.12
G1 F1500 X57.879 Y49.394 E33.26501
G1 X57.809 Y49.324
G0 F4500 X57.445 Y49.525
G1 F1500 X70.474 Y62.554 E34.18427
G1 X70.544 Y62.624
G0 F4500 X70.342 Y62.989
G1 F1500 X57.011 Y49.657 E35.12488
G1 X56.941 Y49.587
G0 F4500 X56.577 Y49.788
G1 F1500 X70.211 Y63.423 E36.08687
G1 X70.281 Y63.493
G0 F4500 X70.079 Y63.857
G1 F1500 X56.142 Y49.92 E37.0702
G1 X56.072 Y49.85
G0 F4500 X55.732 Y50.075
G1 F1500 X69.925 Y64.268 E38.07159
G1 X69.995 Y64.338
G0 F4500 X69.727 Y64.636
G1 F1500 X55.363 Y50.272 E39.08505
G1 X55.293 Y50.202
G0 F4500 X54.995 Y50.469
G1 F1500 X69.53 Y65.005 E40.11061
G1 X69.6 Y65.075
G0 F4500 X69.332 Y65.372
G1 F1500 X54.627 Y50.667 E41.14813
G1 X54.557 Y50.597
G0 F4500 X54.259 Y50.865
G1 F1500 X69.135 Y65.741 E42.19771
G1 X69.205 Y65.811
G0 F4500 X68.92 Y66.092
G1 F1500 X53.907 Y51.079 E43.25696
G1 X53.837 Y51.009
G0 F4500 X53.597 Y51.334
G1 F1500 X68.665 Y66.402 E44.32009
G1 X68.735 Y66.472
G0 F4500 X68.411 Y66.714
G1 F1500 X53.286 Y51.589 E45.38724
G1 X53.216 Y51.519
G0 F4500 X52.975 Y51.843
G1 F1500 X68.156 Y67.025 E46.45837
G1 X68.226 Y67.095
G0 F4500 X67.902 Y67.336
G1 F1500 X52.663 Y52.098 E47.53353
G1 X52.593 Y52.028
G0 F4500 X52.352 Y52.352
G1 F1500 X67.646 Y67.646 E48.61261
G1 X67.716 Y67.716
G0 F4500 X67.335 Y67.901
G1 F1500 X52.097 Y52.663 E49.68773
G1 X52.027 Y52.593
G0 F4500 X51.842 Y52.974
G1 F1500 X67.024 Y68.155 E50.75887
G1 X67.094 Y68.225
G0 F4500 X66.713 Y68.41
G1 F1500 X51.588 Y53.285 E51.82602
G1 X51.518 Y53.215
G0 F4500 X51.333 Y53.596
G1 F1500 X66.402 Y68.665 E52.88922
G1 X66.472 Y68.735
G0 F4500 X66.091 Y68.92
G1 F1500 X51.078 Y53.906 E53.9485
G1 X51.008 Y53.836
G0 F4500 X50.864 Y54.258
G1 F1500 X65.74 Y69.134 E54.99808
G1 X65.81 Y69.204
G0 F4500 X65.372 Y69.331
G1 F1500 X50.667 Y54.626 E56.0356
G1 X50.597 Y54.556
G0 F4500 X50.469 Y54.994
G1 F1500 X65.004 Y69.529 E57.06112
G1 X65.074 Y69.599
G0 F4500 X64.635 Y69.727
G1 F1500 X50.271 Y55.362 E58.07461
G1 X50.201 Y55.292
G0 F4500 X50.074 Y55.731
G1 F1500 X64.267 Y69.924 E59.07601
G1 X64.337 Y69.994
G0 F4500 X63.856 Y70.079
G1 F1500 X49.919 Y56.142 E60.05934
G1 X49.849 Y56.072
G0 F4500 X49.788 Y56.576
G1 F1500 X63.422 Y70.21 E61.02129
G1 X63.492 Y70.28
G0 F4500 X62.988 Y70.342
G1 F1500 X49.656 Y57.01 E61.96193
G1 X49.586 Y56.94
G0 F4500 X49.525 Y57.444
G1 F1500 X62.554 Y70.473 E62.8812
G1 X62.624 Y70.543
G0 F4500 X62.12 Y70.605
G1 F1500 X49.393 Y57.878 E63.77916
G1 X49.323 Y57.808
G0 F4500 X49.342 Y58.393
G1 F1500 X61.605 Y70.656 E64.64438
G1 X61.675 Y70.726
G0 F4500 X61.089 Y70.706
G1 F1500 X49.292 Y58.909 E65.47672
G1 X49.222 Y58.839
G0 F4500 X49.242 Y59.424
G1 F1500 X60.574 Y70.756 E66.27626
G1 X60.644 Y70.826
G0 F4500 X60.058 Y70.806
G1 F1500 X49.192 Y59.94 E67.04291
G1 X49.122 Y59.87
G0 F4500 X49.24 Y60.553
G1 F1500 X59.445 Y70.758 E67.76293
G1 X59.515 Y70.828
G0 F4500 X58.818 Y70.697
G1 F1500 X49.3 Y61.18 E68.43444
G1 X49.23 Y61.11
G0 F4500 X49.362 Y61.807
G1 F1500 X58.191 Y70.636 E69.05737
G1 X58.261 Y70.706
G0 F4500 X57.47 Y70.481
G1 F1500 X49.517 Y62.528 E69.6185
G1 X49.447 Y62.458
G0 F4500 X49.763 Y63.339
G1 F1500 X56.659 Y70.235 E70.10505
G1 X56.729 Y70.305
G0 F4500 X55.84 Y69.982
G1 F1500 X50.016 Y64.158 E70.51597
G1 X49.946 Y64.088
G0 F4500 X50.669 Y65.377
G1 F1500 X54.621 Y69.328 E70.79476
G1 X54.691 Y69.398
G0 F4500 X52.461 Y67.735
G1 F1500 X52.262 Y67.536 E70.80881
G0 F4500 X52.011 Y52.011
G0 X51.941 Y51.941
;TIME_ELAPSED:59.858152
;LAYER:1
M140 S60
M106 S255
G0 F6750 X51.941 Y51.941 Z0.475
;TYPE:WALL-INNER
G1 F2250 X53.67 Y50.523 E70.87388
G1 X55.639 Y49.469 E70.93888
G1 X57.776 Y48.822 E71.00386
G1 X60 Y48.603 E71.0689
G1 X62.224 Y48.822 E71.13393
G1 X64.361 Y49.469 E71.19891
G1 X66.33 Y50.523 E71.26391
G1 X68.059 Y51.941 E71.32899
G1 X69.477 Y53.67 E71.39406
G1 X70.531 Y55.639 E71.45906
G1 X71.178 Y57.776 E71.52404
G1 X71.397 Y60 E71.58908
G1 X71.178 Y62.224 E71.65411
G1 X70.531 Y64.361 E71.71909
G1 X69.477 Y66.33 E71.78409
G1 X68.059 Y68.059 E71.84917
G1 X66.33 Y69.477 E71.91424
G1 X64.361 Y70.531 E71.97924
G1 X62.224 Y71.178 E72.04422
G1 X60 Y71.397 E72.10926
G1 X57.776 Y71.178 E72.1743
G1 X55.639 Y70.531 E72.23928
G1 X53.67 Y69.477 E72.30427
G1 X51.941 Y68.059 E72.36935
G1 X50.523 Y66.33 E72.43442
G1 X49.469 Y64.361 E72.49942
G1 X48.822 Y62.224 E72.5644
G1 X48.603 Y60 E72.62944
G1 X48.822 Y57.776 E72.69448
G1 X49.469 Y55.639 E72.75946
G1 X50.523 Y53.67 E72.82445
G1 X51.941 Y51.941 E72.88953
G0 F6750 X52.011 Y52.011
G0 X62.205 Y48.92
G0 X62.304 Y48.428
;TYPE:WALL-OUTER
G1 F1500 X64.516 Y49.098 E72.95679
G1 X66.552 Y50.187 E73.02399
G1 X68.343 Y51.657 E73.09142
G1 X69.813 Y53.448 E73.15885
G1 X70.902 Y55.484 E73.22605
G1 X71.572 Y57.696 E73.29331
G1 X71.799 Y60 E73.36069
G1 X71.572 Y62.304 E73.42807
G1 X70.902 Y64.516 E73.49533
G1 X69.813 Y66.552 E73.56252
G1 X68.343 Y68.343 E73.62996
G1 X66.552 Y69.813 E73.69739
G1 X64.516 Y70.902 E73.76458
G1 X62.304 Y71.572 E73.83185
G1 X60 Y71.799 E73.89922
G1 X57.696 Y71.572 E73.9666
G1 X55.484 Y70.902 E74.03386
G1 X53.448 Y69.813 E74.10106
G1 X51.657 Y68.343 E74.16849
G1 X50.187 Y66.552 E74.23592
G1 X49.098 Y64.516 E74.30312
G1 X48.428 Y62.304 E74.37038
G1 X48.201 Y60 E74.43776
G1 X48.428 Y57.696 E74.50514
G1 X49.098 Y55.484 E74.5724
G1 X50.187 Y53.448 E74.6396
G1 X51.657 Y51.657 E74.70703
G1 X53.448 Y50.187 E74.77446
G1 X55.484 Y49.098 E74.84166
G1 X57.696 Y48.428 E74.90892
G1 X60 Y48.201 E74.9763
G1 X62.304 Y48.428 E75.04367
G0 F6750 X62.495 Y48.485
G0 X62.35 Y48.963
G0 X62.15 Y49.216
;TYPE:WALL-INNER
G1 F2250 X64.209 Y49.839 E75.10628
G1 X66.1 Y50.853 E75.16872
G1 X67.775 Y52.225 E75.23174
G1 X69.147 Y53.9 E75.29475
G1 X70.161 Y55.791 E75.35719
G1 X70.784 Y57.85 E75.4198
G1 X70.995 Y60 E75.48267
G1 X70.784 Y62.15 E75.54554
G1 X70.161 Y64.209 E75.60815
G1 X69.147 Y66.1 E75.67059
G1 X67.775 Y67.775 E75.73361
G1 X66.1 Y69.147 E75.79662
G1 X64.209 Y70.161 E75.85906
G1 X62.15 Y70.784 E75.92167
G1 X60 Y70.995 E75.98454
G1 X57.85 Y70.784 E76.04741
G1 X55.791 Y70.161 E76.11002
G1 X53.9 Y69.147 E76.17246
G1 X52.225 Y67.775 E76.23547
G1 X50.853 Y66.1 E76.29849
G1 X49.839 Y64.209 E76.36093
G1 X49.216 Y62.15 E76.42354
G1 X49.005 Y60 E76.48641
G1 X49.216 Y57.85 E76.54928
G1 X49.839 Y55.791 E76.61189
G1 X50.853 Y53.9 E76.67433
G1 X52.225 Y52.225 E76.73734
