;FLAVOR:Marlin
;TIME:1724
;Filament used: 0.777236m
;Layer height: 0.13125
;Generated with Cura_SteamEngine 4.0.0
M140 S65
M105
M190 S65
M104 S205
M105
M109 S205
M82 ;absolute extrusion mode
G21;(metric values)
G90;(absolute positioning)
M82;(set extruder to absolute mode)
M107;(start with the fan off)
G28;(Home the printer)
G92 E0;(Reset the extruder to 0)
G0 Z5 E5 F500;(Move up and prime the nozzle)
G0 X-1 Z0;(Move outside the printable area)
G1 Y60 E8 F500;(Draw a priming/wiping line to the rear)
G1 X-1;(Move a little closer to the print area)
G1 Y10 E16 F500;(draw more priming/wiping)
G1 E15 F250;(Small retract)
G92 E0;(Zero the extruder)
G92 E0
G1 F2400 E-2.5
;LAYER_COUNT:54
;LAYER:0
M107
G0 F4320 X42.438 Y42.597 Z0.263
;TYPE:SKIRT
G1 F2400 E0
G1 F1800 X42.829 Y42.239 E0.02029
G1 X43.27 Y41.943 E0.04061
G1 X43.75 Y41.717 E0.06092
G1 X44.258 Y41.565 E0.08121
G1 X45.009 Y41.484 E0.11012
G1 X74.991 Y41.485 E1.25753
G1 X75.52 Y41.525 E1.27783
G1 X76.037 Y41.644 E1.29813
G1 X76.531 Y41.839 E1.31846
G1 X76.989 Y42.106 E1.33875
G1 X77.403 Y42.439 E1.35908
G1 X77.761 Y42.83 E1.37937
G1 X78.057 Y43.271 E1.39969
G1 X78.283 Y43.751 E1.42
G1 X78.435 Y44.259 E1.44029
G1 X78.516 Y45.01 E1.4692
G1 X78.516 Y74.991 E2.61657
G1 X78.476 Y75.52 E2.63687
G1 X78.357 Y76.037 E2.65718
G1 X78.162 Y76.531 E2.6775
G1 X77.895 Y76.989 E2.69779
G1 X77.562 Y77.403 E2.71812
G1 X77.171 Y77.761 E2.73841
G1 X76.73 Y78.057 E2.75874
G1 X76.25 Y78.283 E2.77904
G1 X75.742 Y78.435 E2.79933
G1 X74.991 Y78.516 E2.82824
G1 X45.009 Y78.516 E3.97565
G1 X44.48 Y78.476 E3.99595
G1 X43.963 Y78.357 E4.01626
G1 X43.469 Y78.162 E4.03658
G1 X43.011 Y77.895 E4.05687
G1 X42.597 Y77.562 E4.0772
G1 X42.239 Y77.171 E4.09749
G1 X41.943 Y76.73 E4.11782
G1 X41.717 Y76.25 E4.13812
G1 X41.565 Y75.742 E4.15841
G1 X41.484 Y74.991 E4.18732
G1 X41.484 Y45.009 E5.33473
G1 X41.524 Y44.48 E5.35503
G1 X41.643 Y43.963 E5.37534
G1 X41.838 Y43.469 E5.39566
G1 X42.023 Y43.151 E5.40974
G0 F1620 X42.105 Y43.011
G0 X42.438 Y42.597
G0 F4320 X42.783 Y42.745
G1 F2400 E5.4363
G1 F1800 X43.169 Y42.422 E5.45556
G1 X43.601 Y42.163 E5.47484
G1 X44.069 Y41.976 E5.49412
G1 X44.56 Y41.866 E5.51338
G1 X45.009 Y41.834 E5.53061
G1 X74.991 Y41.835 E6.67802
G1 X75.493 Y41.875 E6.69729
G1 X75.982 Y41.994 E6.71655
G1 X76.447 Y42.188 E6.73583
G1 X76.875 Y42.454 E6.75512
G1 X77.255 Y42.784 E6.77438
G1 X77.579 Y43.17 E6.79366
G1 X77.837 Y43.602 E6.81292
G1 X78.024 Y44.07 E6.83221
G1 X78.134 Y44.561 E6.85146
G1 X78.166 Y45.01 E6.86869
G1 X78.166 Y74.991 E8.01606
G1 X78.126 Y75.493 E8.03533
G1 X78.007 Y75.982 E8.05459
G1 X77.813 Y76.447 E8.07388
G1 X77.547 Y76.875 E8.09316
G1 X77.217 Y77.255 E8.11242
G1 X76.831 Y77.578 E8.13168
G1 X76.399 Y77.837 E8.15096
G1 X75.931 Y78.024 E8.17025
G1 X75.44 Y78.134 E8.1895
G1 X74.991 Y78.166 E8.20673
G1 X45.009 Y78.166 E9.35414
G1 X44.507 Y78.126 E9.37341
G1 X44.018 Y78.007 E9.39267
G1 X43.553 Y77.813 E9.41196
G1 X43.125 Y77.547 E9.43124
G1 X42.745 Y77.217 E9.4505
G1 X42.422 Y76.831 E9.46976
G1 X42.163 Y76.399 E9.48904
G1 X41.976 Y75.931 E9.50833
G1 X41.866 Y75.44 E9.52758
G1 X41.834 Y74.991 E9.54481
G1 X41.834 Y45.009 E10.69222
G1 X41.874 Y44.507 E10.71149
G1 X41.993 Y44.018 E10.73075
G1 X42.187 Y43.553 E10.75003
G1 X42.352 Y43.287 E10.76201
G0 F1620 X42.453 Y43.125
G0 X42.783 Y42.745
G1 F2400 E8.26201
;MESH:femto-beacon-esp32coin_r1.0.0_JIG-Cube.stl
G0 F4320 X45.389 Y44.335
G0 X45.389 Y45.389
G0 X46.032 Y73.968
G0 X74.125 Y74.125
;TYPE:WALL-INNER
G1 F2400 E10.78857
G1 F1800 X45.875 Y74.125 E11.8697
G1 X45.875 Y45.875 E12.95082
G1 X74.125 Y45.875 E14.03195
G1 X74.125 Y73.431 E15.08652
G0 F1620 X74.125 Y74.125
G0 F4320 X74.475 Y74.475
G1 F2400 E15.11308
G1 F1800 X45.525 Y74.475 E16.22099
G1 X45.525 Y45.525 E17.32891
G1 X74.475 Y45.525 E18.43682
G1 X74.475 Y73.781 E19.51818
G0 F1620 X74.475 Y74.475
G0 F4320 X74.8 Y74.8
;TYPE:WALL-OUTER
G1 F2400 E19.54474
G1 F1800 X45.2 Y74.8 E20.67753
G1 X45.2 Y45.2 E21.81032
G1 X74.8 Y45.2 E22.94311
G1 X74.8 Y74.106 E24.04934
G0 F1620 X74.8 Y74.8
G0 F4320 X74.6 Y74.8
G0 X74.6 Y74.525
G0 X74.04 Y73.785
G0 X73.785 Y73.785
;TYPE:SKIN
G1 F2400 E24.0759
G1 F1800 X46.215 Y73.785 E25.131
G1 X46.215 Y46.215 E26.1861
G1 X73.785 Y46.215 E27.2412
G1 X73.785 Y73.091 E28.26975
G0 F1620 X73.785 Y73.785
G0 F4320 X74.04 Y73.785
G0 X74.04 Y46.898
G0 X73.627 Y46.898
G1 F2400 E28.29631
G1 F1800 X73.1 Y46.372 E28.3248
G0 F4320 X72.605 Y46.372
G1 F1800 X73.627 Y47.393 E28.38009
G0 F4320 X73.627 Y47.888
G1 F1800 X72.11 Y46.372 E28.46216
G0 F4320 X71.615 Y46.372
G1 F1800 X73.627 Y48.383 E28.57103
G0 F4320 X73.627 Y48.878
G1 F1800 X71.12 Y46.372 E28.70668
G0 F4320 X70.625 Y46.372
G1 F1800 X73.627 Y49.373 E28.86913
G0 F4320 X73.627 Y49.868
G1 F1800 X70.13 Y46.372 E29.05837
G0 F4320 X69.635 Y46.372
G1 F1800 X73.627 Y50.363 E29.2744
G0 F4320 X73.627 Y50.858
G1 F1800 X69.14 Y46.372 E29.51721
G0 F4320 X68.645 Y46.372
G1 F1800 X73.627 Y51.353 E29.78682
G0 F4320 X73.627 Y51.848
G1 F1800 X68.15 Y46.372 E30.08322
G0 F4320 X67.655 Y46.372
G1 F1800 X73.627 Y52.343 E30.40641
G0 F4320 X73.627 Y52.838
G1 F1800 X67.161 Y46.372 E30.75636
G0 F4320 X66.666 Y46.372
G1 F1800 X73.627 Y53.333 E31.1331
G0 F4320 X73.627 Y53.828
G1 F1800 X66.171 Y46.372 E31.53664
G0 F4320 X65.676 Y46.372
G1 F1800 X73.627 Y54.323 E31.96696
G0 F4320 X73.627 Y54.818
G1 F1800 X65.181 Y46.372 E32.42407
G0 F4320 X64.686 Y46.372
G1 F1800 X73.627 Y55.313 E32.90798
G0 F4320 X73.627 Y55.808
G1 F1800 X64.191 Y46.372 E33.41867
G0 F4320 X63.696 Y46.372
G1 F1800 X73.627 Y56.303 E33.95615
G0 F4320 X73.627 Y56.798
G1 F1800 X63.201 Y46.372 E34.52043
G0 F4320 X62.706 Y46.372
G1 F1800 X73.627 Y57.293 E35.11149
G0 F4320 X73.627 Y57.788
G1 F1800 X62.211 Y46.372 E35.72935
G0 F4320 X61.716 Y46.372
G1 F1800 X73.627 Y58.283 E36.374
G0 F4320 X73.627 Y58.778
G1 F1800 X61.221 Y46.372 E37.04543
G0 F4320 X60.726 Y46.372
G1 F1800 X73.627 Y59.273 E37.74366
G0 F4320 X73.627 Y59.768
G1 F1800 X60.231 Y46.372 E38.46867
G0 F4320 X59.736 Y46.372
G1 F1800 X73.627 Y60.263 E39.22048
G0 F4320 X73.627 Y60.758
G1 F1800 X59.241 Y46.372 E39.99908
G0 F4320 X58.746 Y46.372
G1 F1800 X73.627 Y61.253 E40.80447
G0 F4320 X73.627 Y61.748
G1 F1800 X58.251 Y46.372 E41.63664
G0 F4320 X57.756 Y46.372
G1 F1800 X73.627 Y62.243 E42.49561
G0 F4320 X73.627 Y62.738
G1 F1800 X57.261 Y46.372 E43.38137
G0 F4320 X56.766 Y46.372
G1 F1800 X73.627 Y63.233 E44.29392
G0 F4320 X73.627 Y63.727
G1 F1800 X56.271 Y46.372 E45.23323
G0 F4320 X55.776 Y46.372
G1 F1800 X73.627 Y64.222 E46.19933
G0 F4320 X73.627 Y64.717
G1 F1800 X55.281 Y46.372 E47.19223
G0 F4320 X54.786 Y46.372
G1 F1800 X73.627 Y65.212 E48.21191
G0 F4320 X73.627 Y65.707
G1 F1800 X54.291 Y46.372 E49.25838
G0 F4320 X53.796 Y46.372
G1 F1800 X73.627 Y66.202 E50.33165
G0 F4320 X73.627 Y66.697
G1 F1800 X53.301 Y46.372 E51.4317
G0 F4320 X52.806 Y46.372
G1 F1800 X73.627 Y67.192 E52.55855
G0 F4320 X73.627 Y67.687
G1 F1800 X52.311 Y46.372 E53.71218
G0 F4320 X51.816 Y46.372
G1 F1800 X73.627 Y68.182 E54.89261
G0 F4320 X73.627 Y68.677
G1 F1800 X51.321 Y46.372 E56.09982
G0 F4320 X50.826 Y46.372
G1 F1800 X73.627 Y69.172 E57.33383
G0 F4320 X73.627 Y69.667
G1 F1800 X50.331 Y46.372 E58.59462
G0 F4320 X49.836 Y46.372
G1 F1800 X73.627 Y70.162 E59.88221
G0 F4320 X73.627 Y70.657
G1 F1800 X49.341 Y46.372 E61.19659
G0 F4320 X48.846 Y46.372
G1 F1800 X73.627 Y71.152 E62.53775
G0 F4320 X73.627 Y71.647
G1 F1800 X48.351 Y46.372 E63.90571
G0 F4320 X47.856 Y46.372
G1 F1800 X73.627 Y72.142 E65.30046
G0 F4320 X73.627 Y72.637
G1 F1800 X47.362 Y46.372 E66.72197
G0 F4320 X46.867 Y46.372
G1 F1800 X73.627 Y73.132 E68.17027
G0 F4320 X73.627 Y73.627
G1 F1800 X46.371 Y46.371 E69.64542
G0 F4320 X46.371 Y46.866
G1 F1800 X73.131 Y73.626 E71.09372
G0 F4320 X72.636 Y73.626
G1 F1800 X46.371 Y47.361 E72.51523
G0 F4320 X46.371 Y47.856
G1 F1800 X72.141 Y73.626 E73.90995
G0 F4320 X71.646 Y73.626
G1 F1800 X46.371 Y48.351 E75.27788
G0 F4320 X46.371 Y48.846
G1 F1800 X71.151 Y73.626 E76.61902
G0 F4320 X70.656 Y73.626
G1 F1800 X46.371 Y49.341 E77.93337
G0 F4320 X46.371 Y49.836
G1 F1800 X70.161 Y73.626 E79.22093
G0 F4320 X69.666 Y73.626
G1 F1800 X46.371 Y50.331 E80.4817
G0 F4320 X46.371 Y50.826
G1 F1800 X69.172 Y73.626 E81.7157
G0 F4320 X68.677 Y73.626
G1 F1800 X46.371 Y51.321 E82.92292
G0 F4320 X46.371 Y51.816
G1 F1800 X68.182 Y73.626 E84.10334
G0 F4320 X67.687 Y73.626
G1 F1800 X46.371 Y52.311 E85.25698
G0 F4320 X46.371 Y52.806
G1 F1800 X67.192 Y73.626 E86.38382
G0 F4320 X66.697 Y73.626
G1 F1800 X46.371 Y53.301 E87.48388
G0 F4320 X46.371 Y53.795
G1 F1800 X66.202 Y73.626 E88.55717
G0 F4320 X65.707 Y73.626
G1 F1800 X46.371 Y54.29 E89.60367
G0 F4320 X46.371 Y54.785
G1 F1800 X65.212 Y73.626 E90.62338
G0 F4320 X64.717 Y73.626
G1 F1800 X46.371 Y55.28 E91.6163
G0 F4320 X46.371 Y55.775
G1 F1800 X64.222 Y73.626 E92.58243
G0 F4320 X63.727 Y73.626
G1 F1800 X46.371 Y56.27 E93.52177
G0 F4320 X46.371 Y56.765
G1 F1800 X63.232 Y73.626 E94.43432
G0 F4320 X62.737 Y73.626
G1 F1800 X46.371 Y57.26 E95.32007
G0 F4320 X46.371 Y57.755
G1 F1800 X62.242 Y73.626 E96.17904
G0 F4320 X61.747 Y73.626
G1 F1800 X46.371 Y58.25 E97.01122
G0 F4320 X46.371 Y58.745
G1 F1800 X61.252 Y73.626 E97.81661
G0 F4320 X60.757 Y73.626
G1 F1800 X46.371 Y59.24 E98.59521
G0 F4320 X46.371 Y59.735
G1 F1800 X60.262 Y73.626 E99.34701
G0 F4320 X59.767 Y73.626
G1 F1800 X46.371 Y60.23 E100.07203
G0 F4320 X46.371 Y60.725
G1 F1800 X59.272 Y73.626 E100.77026
G0 F4320 X58.777 Y73.626
G1 F1800 X46.371 Y61.22 E101.44169
G0 F4320 X46.371 Y61.715
G1 F1800 X58.282 Y73.626 E102.08634
G0 F4320 X57.787 Y73.626
G1 F1800 X46.371 Y62.21 E102.70419
G0 F4320 X46.371 Y62.705
G1 F1800 X57.292 Y73.626 E103.29526
G0 F4320 X56.797 Y73.626
G1 F1800 X46.371 Y63.2 E103.85953
G0 F4320 X46.371 Y63.695
G1 F1800 X56.302 Y73.626 E104.39702
G0 F4320 X55.807 Y73.626
G1 F1800 X46.371 Y64.19 E104.90771
G0 F4320 X46.371 Y64.685
G1 F1800 X55.312 Y73.626 E105.39161
G0 F4320 X54.817 Y73.626
G1 F1800 X46.371 Y65.18 E105.84873
G0 F4320 X46.371 Y65.675
G1 F1800 X54.322 Y73.626 E106.27905
G0 F4320 X53.827 Y73.626
G1 F1800 X46.371 Y66.17 E106.68258
G0 F4320 X46.371 Y66.665
G1 F1800 X53.332 Y73.626 E107.05933
G0 F4320 X52.837 Y73.626
G1 F1800 X46.371 Y67.16 E107.40928
G0 F4320 X46.371 Y67.655
G1 F1800 X52.342 Y73.626 E107.73244
G0 F4320 X51.847 Y73.626
G1 F1800 X46.371 Y68.15 E108.02881
G0 F4320 X46.371 Y68.645
G1 F1800 X51.352 Y73.626 E108.29839
G0 F4320 X50.857 Y73.626
M104 S200
G1 F1800 X46.371 Y69.14 E108.54118
G0 F4320 X46.371 Y69.635
G1 F1800 X50.362 Y73.626 E108.75718
G0 F4320 X49.867 Y73.626
G1 F1800 X46.371 Y70.13 E108.94639
G0 F4320 X46.371 Y70.625
G1 F1800 X49.373 Y73.626 E109.10884
G0 F4320 X48.878 Y73.626
G1 F1800 X46.371 Y71.12 E109.2445
G0 F4320 X46.371 Y71.615
G1 F1800 X48.383 Y73.626 E109.35336
G0 F4320 X47.888 Y73.626
G1 F1800 X46.371 Y72.11 E109.43544
G0 F4320 X46.371 Y72.605
G1 F1800 X47.393 Y73.626 E109.49072
G0 F4320 X46.898 Y73.626
G1 F1800 X46.371 Y73.099 E109.51925
G1 X46.309 Y73.037
G0 F4320 X45.725 Y73.037
;MESH:NONMESH
G0 X46.032 Y73.968
G0 X74.125 Y74.125
;TIME_ELAPSED:128.970261
;LAYER:1
M140 S60
M106 S255
;MESH:femto-beacon-esp32coin_r1.0.0_JIG-Cube.stl
G0 F5760 X74.125 Y74.125 Z0.394
;TYPE:WALL-INNER
G1 F2400 X45.875 Y74.125 E110.05775
G1 X45.875 Y45.875 E110.59626
G1 X74.125 Y45.875 E111.13477
G1 X74.125 Y72.731 E111.6467
G0 F2160 X74.125 Y74.125
G0 F5760 X74.475 Y74.475
G1 F2400 E111.67328
G1 X45.525 Y74.475 E112.22513
G1 X45.525 Y45.525 E112.77698
G1 X74.475 Y45.525 E113.32883
G1 X74.475 Y73.081 E113.85411
G0 F2160 X74.475 Y74.475
G0 F5760 X74.8 Y74.8
;TYPE:WALL-OUTER
G1 F2400 E113.88068
G1 F2025 X45.2 Y74.8 E114.44492
G1 X45.2 Y45.2 E115.00916
G1 X74.8 Y45.2 E115.57341
G1 X74.8 Y73.406 E116.11107
G0 F1822.5 X74.8 Y74.8
G0 F5760 X74.6 Y74.8
G0 X74.6 Y74.525
G0 X74.04 Y73.785
G0 X73.785 Y73.785
;TYPE:SKIN
G1 F2400 E116.13765
G1 F1500 X46.215 Y73.785 E116.66319
G1 X46.215 Y46.215 E117.18874
G1 X73.785 Y46.215 E117.71428
G1 X73.785 Y72.391 E118.21325
G0 F1350 X73.785 Y73.785
G0 F5760 X73.626 Y73.38
G1 F2400 E118.23983
G1 F1500 X73.38 Y73.627 E118.24647
G0 F5760 X72.885 Y73.627
G1 F1500 X73.626 Y72.885 E118.26646
G0 F5760 X73.626 Y72.39
G1 F1500 X72.39 Y73.627 E118.2998
G0 F5760 X71.895 Y73.627
G1 F1500 X73.626 Y71.895 E118.34647
G0 F5760 X73.626 Y71.4
G1 F1500 X71.4 Y73.627 E118.4065
G0 F5760 X70.905 Y73.627
G1 F1500 X73.626 Y70.905 E118.47986
G0 F5760 X73.626 Y70.41
G1 F1500 X70.41 Y73.627 E118.56657
G0 F5760 X69.915 Y73.627
G1 F1500 X73.626 Y69.915 E118.66663
G0 F5760 X73.626 Y69.42
G1 F1500 X69.42 Y73.627 E118.78003
G0 F5760 X68.925 Y73.627
G1 F1500 X73.626 Y68.925 E118.90677
G0 F5760 X73.626 Y68.43
G1 F1500 X68.43 Y73.627 E119.04686
G0 F5760 X67.935 Y73.627
G1 F1500 X73.626 Y67.935 E119.20029
G0 F5760 X73.626 Y67.441
G1 F1500 X67.44 Y73.627 E119.36705
G0 F5760 X66.945 Y73.627
G1 F1500 X73.626 Y66.946 E119.54716
G0 F5760 X73.626 Y66.451
G1 F1500 X66.45 Y73.627 E119.74061
G0 F5760 X65.955 Y73.627
G1 F1500 X73.626 Y65.956 E119.9474
G0 F5760 X73.626 Y65.461
G1 F1500 X65.46 Y73.627 E120.16754
G0 F5760 X64.965 Y73.627
G1 F1500 X73.626 Y64.966 E120.40103
G0 F5760 X73.626 Y64.471
G1 F1500 X64.47 Y73.627 E120.64785
G0 F5760 X63.975 Y73.627
G1 F1500 X73.626 Y63.976 E120.90803
G0 F5760 X73.626 Y63.481
G1 F1500 X63.48 Y73.627 E121.18154
G0 F5760 X62.985 Y73.627
G1 F1500 X73.626 Y62.986 E121.4684
G0 F5760 X73.626 Y62.491
G1 F1500 X62.49 Y73.627 E121.76861
G0 F5760 X61.995 Y73.627
G1 F1500 X73.626 Y61.996 E122.08216
G0 F5760 X73.626 Y61.501
G1 F1500 X61.5 Y73.627 E122.40905
G0 F5760 X61.005 Y73.627
G1 F1500 X73.626 Y61.006 E122.74929
G0 F5760 X73.626 Y60.511
G1 F1500 X60.51 Y73.627 E123.10287
G0 F5760 X60.015 Y73.627
G1 F1500 X73.626 Y60.016 E123.4698
G0 F5760 X73.626 Y59.521
G1 F1500 X59.52 Y73.627 E123.85007
G0 F5760 X59.025 Y73.627
G1 F1500 X73.626 Y59.026 E124.24368
G0 F5760 X73.626 Y58.531
G1 F1500 X58.53 Y73.627 E124.65064
G0 F5760 X58.035 Y73.627
G1 F1500 X73.626 Y58.036 E125.07094
G0 F5760 X73.626 Y57.541
G1 F1500 X57.54 Y73.627 E125.50459
G0 F5760 X57.045 Y73.627
G1 F1500 X73.626 Y57.046 E125.95158
G0 F5760 X73.626 Y56.551
G1 F1500 X56.55 Y73.627 E126.41192
G0 F5760 X56.055 Y73.627
G1 F1500 X73.626 Y56.056 E126.8856
G0 F5760 X73.626 Y55.561
G1 F1500 X55.56 Y73.627 E127.37262
G0 F5760 X55.065 Y73.627
G1 F1500 X73.626 Y55.066 E127.87299
G0 F5760 X73.626 Y54.571
G1 F1500 X54.57 Y73.627 E128.3867
G0 F5760 X54.075 Y73.627
G1 F1500 X73.626 Y54.076 E128.91376
G0 F5760 X73.626 Y53.581
G1 F1500 X53.581 Y73.627 E129.45414
G0 F5760 X53.086 Y73.627
G1 F1500 X73.626 Y53.086 E130.00788
G0 F5760 X73.626 Y52.591
G1 F1500 X52.591 Y73.627 E130.57495
G0 F5760 X52.096 Y73.627
G1 F1500 X73.626 Y52.096 E131.15537
G0 F5760 X73.626 Y51.601
G1 F1500 X51.601 Y73.627 E131.74914
G0 F5760 X51.106 Y73.627
G1 F1500 X73.626 Y51.106 E132.35625
G0 F5760 X73.626 Y50.611
G1 F1500 X50.611 Y73.627 E132.9767
G0 F5760 X50.116 Y73.627
G1 F1500 X73.626 Y50.116 E133.61049
G0 F5760 X73.626 Y49.621
G1 F1500 X49.621 Y73.627 E134.25764
G0 F5760 X49.126 Y73.627
G1 F1500 X73.626 Y49.126 E134.91812
G0 F5760 X73.626 Y48.631
G1 F1500 X48.631 Y73.627 E135.59195
G0 F5760 X48.136 Y73.627
G1 F1500 X73.626 Y48.137 E136.27911
G0 F5760 X73.626 Y47.642
G1 F1500 X47.641 Y73.627 E136.97962
G0 F5760 X47.146 Y73.627
G1 F1500 X73.626 Y47.147 E137.69347
G0 F5760 X73.626 Y46.652
G1 F1500 X46.651 Y73.627 E138.42066
G0 F5760 X46.372 Y73.411
G1 F1500 X73.412 Y46.371 E139.1496
G0 F5760 X72.917 Y46.371
G1 F1500 X46.372 Y72.916 E139.86521
G0 F5760 X46.372 Y72.421
G1 F1500 X72.422 Y46.371 E140.56746
G0 F5760 X71.927 Y46.371
G1 F1500 X46.372 Y71.926 E141.25638
G0 F5760 X46.372 Y71.431
G1 F1500 X71.432 Y46.371 E141.93194
G0 F5760 X70.937 Y46.371
G1 F1500 X46.372 Y70.936 E142.59417
G0 F5760 X46.372 Y70.441
G1 F1500 X70.442 Y46.371 E143.24305
G0 F5760 X69.947 Y46.371
G1 F1500 X46.372 Y69.947 E143.8786
G0 F5760 X46.372 Y69.452
G1 F1500 X69.452 Y46.371 E144.5008
G0 F5760 X68.957 Y46.371
G1 F1500 X46.372 Y68.957 E145.10966
G0 F5760 X46.372 Y68.462
G1 F1500 X68.462 Y46.371 E145.70518
G0 F5760 X67.967 Y46.371
G1 F1500 X46.372 Y67.967 E146.28735
G0 F5760 X46.372 Y67.472
