;FLAVOR:Marlin
;TIME:3830
;Filament used: 2.02216m
;Layer height: 0.1
;Generated with Cura_SteamEngine 3.0.3
M190 S60
M104 S200
M109 S200
M82 ; absolute extrusion mode
G28 ;Home all axes
G1 Z0.2 F1200 ;Raise nozzle
G92 E0 ;reset extrusion distance
G1 X100 Y0 E12 F600 ;purge nozzle
G92 E0 ;reset extrusion distance
;LAYER_COUNT:68
;LAYER:0
M107
G0 F3600 X35.6 Y35.6 Z0.3
;TYPE:WALL-INNER
G1 F1770 X84.4 Y35.6 E2.43464
G1 X84.4 Y84.4 E4.86928
G1 X35.6 Y84.4 E7.30393
G1 X35.6 Y35.6 E9.73857
G0 F3600 X35.67 Y35.67
G0 X84.33 Y84.33
G0 X84.8 Y84.8
;TYPE:WALL-OUTER
G1 F1770 X35.2 Y84.8 E12.21312
G1 X35.2 Y35.2 E14.68768
G1 X84.8 Y35.2 E17.16223
G1 X84.8 Y84.8 E19.63678
G0 F3600 X84.6 Y84.8
G0 X84.33 Y84.33
G0 X84 Y84
;TYPE:WALL-INNER
G1 F1770 X36 Y84 E22.03151
G1 X36 Y36 E24.42624
G1 X84 Y36 E26.82097
G1 X84 Y84 E29.2157
G0 F3600 X83.819 Y36.302
G0 X83.758 Y36.24
G1 F1770 X83.475 Y36.523 E29.24431
;TYPE:SKIN
G1 X83.889 Y36.937
G0 F3600 X83.819 Y37.433
G1 F1770 X82.566 Y36.179 E29.33275
G1 X82.496 Y36.109
G0 F3600 X82 Y36.179
G1 F1770 X83.819 Y37.999 E29.46112
G1 X83.889 Y38.069
G0 F3600 X83.819 Y38.564
G1 F1770 X81.434 Y36.179 E29.6294
G1 X81.364 Y36.109
G0 F3600 X80.868 Y36.179
G1 F1770 X83.819 Y39.13 E29.83761
G1 X83.889 Y39.2
G0 F3600 X83.819 Y39.696
G1 F1770 X80.303 Y36.179 E30.08571
G1 X80.233 Y36.109
G0 F3600 X79.737 Y36.179
G1 F1770 X83.819 Y40.261 E30.37372
G1 X83.889 Y40.331
G0 F3600 X83.819 Y40.827
G1 F1770 X79.171 Y36.179 E30.70166
G1 X79.101 Y36.109
G0 F3600 X78.606 Y36.179
G1 F1770 X83.819 Y41.393 E31.0695
G1 X83.889 Y41.463
G0 F3600 X83.819 Y41.959
G1 F1770 X78.04 Y36.179 E31.47728
G1 X77.97 Y36.109
G0 F3600 X77.474 Y36.179
G1 F1770 X83.819 Y42.524 E31.92495
G1 X83.889 Y42.594
G0 F3600 X83.819 Y43.09
G1 F1770 X76.909 Y36.179 E32.41253
G1 X76.839 Y36.109
G0 F3600 X76.343 Y36.179
G1 F1770 X83.819 Y43.656 E32.94003
G1 X83.889 Y43.726
G0 F3600 X83.819 Y44.221
G1 F1770 X75.777 Y36.179 E33.50744
G1 X75.707 Y36.109
G0 F3600 X75.212 Y36.179
G1 F1770 X83.819 Y44.787 E34.11474
G1 X83.889 Y44.857
G0 F3600 X83.819 Y45.353
G1 F1770 X74.646 Y36.179 E34.76198
G1 X74.576 Y36.109
G0 F3600 X74.08 Y36.179
G1 F1770 X83.819 Y45.918 E35.44912
G1 X83.889 Y45.988
G0 F3600 X83.819 Y46.484
G1 F1770 X73.515 Y36.179 E36.17616
G1 X73.445 Y36.109
G0 F3600 X72.949 Y36.179
G1 F1770 X83.819 Y47.05 E36.94313
G1 X83.889 Y47.12
G0 F3600 X83.819 Y47.615
G1 F1770 X72.383 Y36.179 E37.75001
G1 X72.313 Y36.109
G0 F3600 X71.818 Y36.179
G1 F1770 X83.819 Y48.181 E38.59678
G1 X83.889 Y48.251
G0 F3600 X83.819 Y48.747
G1 F1770 X71.252 Y36.179 E39.48348
G1 X71.182 Y36.109
G0 F3600 X70.686 Y36.179
G1 F1770 X83.819 Y49.312 E40.41009
G1 X83.889 Y49.382
G0 F3600 X83.819 Y49.878
G1 F1770 X70.12 Y36.179 E41.37662
G1 X70.05 Y36.109
G0 F3600 X69.555 Y36.179
G1 F1770 X83.819 Y50.444 E42.38306
G1 X83.889 Y50.514
G0 F3600 X83.819 Y51.009
G1 F1770 X68.989 Y36.179 E43.4294
G1 X68.919 Y36.109
G0 F3600 X68.423 Y36.179
G1 F1770 X83.819 Y51.575 E44.51567
G1 X83.889 Y51.645
G0 F3600 X83.819 Y52.141
G1 F1770 X67.858 Y36.179 E45.64184
G1 X67.788 Y36.109
G0 F3600 X67.292 Y36.179
G1 F1770 X83.819 Y52.707 E46.80794
G1 X83.889 Y52.777
G0 F3600 X83.819 Y53.272
G1 F1770 X66.726 Y36.179 E48.01395
G1 X66.656 Y36.109
G0 F3600 X66.161 Y36.179
G1 F1770 X83.819 Y53.838 E49.25985
G1 X83.889 Y53.908
G0 F3600 X83.819 Y54.404
G1 F1770 X65.595 Y36.179 E50.54569
G1 X65.525 Y36.109
G0 F3600 X65.029 Y36.179
G1 F1770 X83.819 Y54.969 E51.87142
G1 X83.889 Y55.039
G0 F3600 X83.819 Y55.535
G1 F1770 X64.464 Y36.179 E53.23706
G1 X64.394 Y36.109
G0 F3600 X63.898 Y36.179
G1 F1770 X83.819 Y56.101 E54.64263
G1 X83.889 Y56.171
G0 F3600 X83.819 Y56.666
G1 F1770 X63.332 Y36.179 E56.0881
G1 X63.262 Y36.109
G0 F3600 X62.767 Y36.179
G1 F1770 X83.819 Y57.232 E57.57346
G1 X83.889 Y57.302
G0 F3600 X83.819 Y57.798
G1 F1770 X62.201 Y36.179 E59.09877
G1 X62.131 Y36.109
G0 F3600 X61.635 Y36.179
G1 F1770 X83.819 Y58.363 E60.66397
G1 X83.889 Y58.433
G0 F3600 X83.819 Y58.929
G1 F1770 X61.069 Y36.179 E62.2691
G1 X60.999 Y36.109
G0 F3600 X60.504 Y36.179
G1 F1770 X83.819 Y59.495 E63.91414
G1 X83.889 Y59.565
G0 F3600 X83.819 Y60.06
G1 F1770 X59.938 Y36.179 E65.59907
G1 X59.868 Y36.109
G0 F3600 X59.372 Y36.179
G1 F1770 X83.819 Y60.626 E67.32394
G1 X83.889 Y60.696
G0 F3600 X83.819 Y61.192
G1 F1770 X58.807 Y36.179 E69.0887
G1 X58.737 Y36.109
G0 F3600 X58.241 Y36.179
G1 F1770 X83.819 Y61.757 E70.89337
G1 X83.889 Y61.827
G0 F3600 X83.819 Y62.323
G1 F1770 X57.675 Y36.179 E72.73797
G1 X57.605 Y36.109
G0 F3600 X57.11 Y36.179
G1 F1770 X83.819 Y62.889 E74.62247
G1 X83.889 Y62.959
G0 F3600 X83.819 Y63.455
G1 F1770 X56.544 Y36.179 E76.5469
G1 X56.474 Y36.109
G0 F3600 X55.978 Y36.179
G1 F1770 X83.819 Y64.02 E78.51124
G1 X83.889 Y64.09
G0 F3600 X83.819 Y64.586
G1 F1770 X55.413 Y36.179 E80.51547
G1 X55.343 Y36.109
G0 F3600 X54.847 Y36.179
G1 F1770 X83.819 Y65.152 E82.55964
G1 X83.889 Y65.222
G0 F3600 X83.819 Y65.717
G1 F1770 X54.281 Y36.179 E84.6437
G1 X54.211 Y36.109
G0 F3600 X53.716 Y36.179
G1 F1770 X83.819 Y66.283 E86.76767
G1 X83.889 Y66.353
G0 F3600 X83.819 Y66.849
G1 F1770 X53.15 Y36.179 E88.93156
G1 X53.08 Y36.109
G0 F3600 X52.584 Y36.179
G1 F1770 X83.819 Y67.414 E91.13536
G1 X83.889 Y67.484
G0 F3600 X83.819 Y67.98
G1 F1770 X52.019 Y36.179 E93.37906
G1 X51.949 Y36.109
G0 F3600 X51.453 Y36.179
G1 F1770 X83.819 Y68.546 E95.66269
G1 X83.889 Y68.616
G0 F3600 X83.819 Y69.111
G1 F1770 X50.887 Y36.179 E97.98622
G1 X50.817 Y36.109
G0 F3600 X50.321 Y36.179
G1 F1770 X83.819 Y69.677 E100.34969
G1 X83.889 Y69.747
G0 F3600 X83.819 Y70.243
G1 F1770 X49.756 Y36.179 E102.75305
G1 X49.686 Y36.109
G0 F3600 X49.19 Y36.179
G1 F1770 X83.819 Y70.808 E105.19631
G1 X83.889 Y70.878
G0 F3600 X83.819 Y71.374
G1 F1770 X48.624 Y36.179 E107.67951
G1 X48.554 Y36.109
G0 F3600 X48.059 Y36.179
G1 F1770 X83.819 Y71.94 E110.20261
G1 X83.889 Y72.01
G0 F3600 X83.819 Y72.506
G1 F1770 X47.493 Y36.179 E112.76564
G1 X47.423 Y36.109
G0 F3600 X46.927 Y36.179
G1 F1770 X83.819 Y73.071 E115.36857
G1 X83.889 Y73.141
G0 F3600 X83.819 Y73.637
G1 F1770 X46.362 Y36.179 E118.0114
G1 X46.292 Y36.109
G0 F3600 X45.796 Y36.179
G1 F1770 X83.819 Y74.203 E120.69416
G1 X83.889 Y74.273
G0 F3600 X83.819 Y74.768
G1 F1770 X45.23 Y36.179 E123.41682
G1 X45.16 Y36.109
G0 F3600 X44.665 Y36.179
G1 F1770 X83.819 Y75.334 E126.17938
G1 X83.889 Y75.404
G0 F3600 X83.819 Y75.9
G1 F1770 X44.099 Y36.179 E128.98188
G1 X44.029 Y36.109
G0 F3600 X43.533 Y36.179
G1 F1770 X83.819 Y76.465 E131.82427
G1 X83.889 Y76.535
G0 F3600 X83.819 Y77.031
G1 F1770 X42.968 Y36.179 E134.70657
G1 X42.898 Y36.109
G0 F3600 X42.402 Y36.179
G1 F1770 X83.819 Y77.597 E137.6288
G1 X83.889 Y77.667
G0 F3600 X83.819 Y78.162
G1 F1770 X41.836 Y36.179 E140.59092
G1 X41.766 Y36.109
G0 F3600 X41.27 Y36.179
G1 F1770 X83.819 Y78.728 E143.59299
G1 X83.889 Y78.798
G0 F3600 X83.819 Y79.294
G1 F1770 X40.705 Y36.179 E146.63495
G1 X40.635 Y36.109
G0 F3600 X40.139 Y36.179
G1 F1770 X83.819 Y79.859 E149.71681
G1 X83.889 Y79.929
G0 F3600 X83.819 Y80.425
G1 F1770 X39.573 Y36.179 E152.8386
G1 X39.503 Y36.109
G0 F3600 X39.008 Y36.179
G1 F1770 X83.819 Y80.991 E156.00029
G1 X83.889 Y81.061
G0 F3600 X83.819 Y81.556
G1 F1770 X38.442 Y36.179 E159.20189
G1 X38.372 Y36.109
G0 F3600 X37.876 Y36.179
G1 F1770 X83.819 Y82.122 E162.44341
G1 X83.889 Y82.192
G0 F3600 X83.819 Y82.688
G1 F1770 X37.311 Y36.179 E165.72484
G1 X37.241 Y36.109
G0 F3600 X36.745 Y36.179
G1 F1770 X83.819 Y83.254 E169.0462
G1 X83.889 Y83.324
G0 F3600 X83.819 Y83.819
G1 F1770 X36.179 Y36.179 E172.40746
G1 X36.109 Y36.109
G0 F3600 X36.179 Y36.745
G1 F1770 X83.253 Y83.819 E175.72878
G1 X83.323 Y83.889
G0 F3600 X82.687 Y83.819
G1 F1770 X36.179 Y37.311 E179.01017
G1 X36.109 Y37.241
G0 F3600 X36.179 Y37.876
G1 F1770 X82.121 Y83.819 E182.25167
G1 X82.191 Y83.889
G0 F3600 X81.556 Y83.819
G1 F1770 X36.179 Y38.442 E185.45326
G1 X36.109 Y38.372
G0 F3600 X36.179 Y39.008
G1 F1770 X80.99 Y83.819 E188.61492
G1 X81.06 Y83.889
G0 F3600 X80.424 Y83.819
G1 F1770 X36.179 Y39.573 E191.73668
G1 X36.109 Y39.503
G0 F3600 X36.179 Y40.139
G1 F1770 X79.859 Y83.819 E194.81854
G1 X79.929 Y83.889
G0 F3600 X79.293 Y83.819
G1 F1770 X36.179 Y40.705 E197.86046
G1 X36.109 Y40.635
G0 F3600 X36.179 Y41.27
G1 F1770 X78.727 Y83.819 E200.86249
G1 X78.797 Y83.889
G0 F3600 X78.162 Y83.819
G1 F1770 X36.179 Y41.836 E203.82461
G1 X36.109 Y41.766
G0 F3600 X36.179 Y42.402
G1 F1770 X77.596 Y83.819 E206.74681
G1 X77.666 Y83.889
G0 F3600 X77.03 Y83.819
G1 F1770 X36.179 Y42.968 E209.62907
G1 X36.109 Y42.898
G0 F3600 X36.179 Y43.533
G1 F1770 X76.465 Y83.819 E212.47146
G1 X76.535 Y83.889
G0 F3600 X75.899 Y83.819
G1 F1770 X36.179 Y44.099 E215.27392
G1 X36.109 Y44.029
G0 F3600 X36.179 Y44.665
G1 F1770 X75.333 Y83.819 E218.03645
G1 X75.403 Y83.889
G0 F3600 X74.768 Y83.819
G1 F1770 X36.179 Y45.23 E220.75911
G1 X36.109 Y45.16
G0 F3600 X36.179 Y45.796
G1 F1770 X74.202 Y83.819 E223.44184
G1 X74.272 Y83.889
G0 F3600 X73.636 Y83.819
G1 F1770 X36.179 Y46.362 E226.08463
G1 X36.109 Y46.292
G0 F3600 X36.179 Y46.927
G1 F1770 X73.071 Y83.819 E228.68756
G1 X73.141 Y83.889
G0 F3600 X72.505 Y83.819
G1 F1770 X36.179 Y47.493 E231.25056
G1 X36.109 Y47.423
G0 F3600 X36.179 Y48.059
G1 F1770 X71.939 Y83.819 E233.77362
G1 X72.009 Y83.889
G0 F3600 X71.373 Y83.819
G1 F1770 X36.179 Y48.624 E236.25678
G1 X36.109 Y48.554
G0 F3600 X36.179 Y49.19
G1 F1770 X70.808 Y83.819 E238.70004
G1 X70.878 Y83.889
G0 F3600 X70.242 Y83.819
G1 F1770 X36.179 Y49.756 E241.10337
G1 X36.109 Y49.686
G0 F3600 X36.179 Y50.321
G1 F1770 X69.676 Y83.819 E243.4668
G1 X69.746 Y83.889
G0 F3600 X69.111 Y83.819
G1 F1770 X36.179 Y50.887 E245.79033
G1 X36.109 Y50.817
G0 F3600 X36.179 Y51.453
G1 F1770 X68.545 Y83.819 E248.07393
G1 X68.615 Y83.889
G0 F3600 X67.979 Y83.819
G1 F1770 X36.179 Y52.019 E250.31759
G1 X36.109 Y51.949
G0 F3600 X36.179 Y52.584
G1 F1770 X67.414 Y83.819 E252.52139
G1 X67.484 Y83.889
G0 F3600 X66.848 Y83.819
G1 F1770 X36.179 Y53.15 E254.68525
G1 X36.109 Y53.08
G0 F3600 X36.179 Y53.716
G1 F1770 X66.282 Y83.819 E256.80918
G1 X66.352 Y83.889
G0 F3600 X65.717 Y83.819
G1 F1770 X36.179 Y54.281 E258.89325
G1 X36.109 Y54.211
G0 F3600 X36.179 Y54.847
G1 F1770 X65.151 Y83.819 E260.93738
G1 X65.221 Y83.889
G0 F3600 X64.585 Y83.819
G1 F1770 X36.179 Y55.413 E262.94157
G1 X36.109 Y55.343
G0 F3600 X36.179 Y55.978
G1 F1770 X64.02 Y83.819 E264.90591
G1 X64.09 Y83.889
G0 F3600 X63.454 Y83.819
G1 F1770 X36.179 Y56.544 E266.83031
G1 X36.109 Y56.474
G0 F3600 X36.179 Y57.11
G1 F1770 X62.888 Y83.819 E268.71477
G1 X62.958 Y83.889
G0 F3600 X62.322 Y83.819
G1 F1770 X36.179 Y57.675 E270.55933
G1 X36.109 Y57.605
G0 F3600 X36.179 Y58.241
G1 F1770 X61.757 Y83.819 E272.364
G1 X61.827 Y83.889
G0 F3600 X61.191 Y83.819
G1 F1770 X36.179 Y58.807 E274.12873
G1 X36.109 Y58.737
G0 F3600 X36.179 Y59.372
G1 F1770 X60.625 Y83.819 E275.85357
G1 X60.695 Y83.889
G0 F3600 X60.06 Y83.819
G1 F1770 X36.179 Y59.938 E277.5385
G1 X36.109 Y59.868
G0 F3600 X36.179 Y60.504
G1 F1770 X59.494 Y83.819 E279.1835
G1 X59.564 Y83.889
G0 F3600 X58.928 Y83.819
G1 F1770 X36.179 Y61.069 E280.7886
G1 X36.109 Y60.999
G0 F3600 X36.179 Y61.635
G1 F1770 X58.363 Y83.819 E282.3538
G1 X58.433 Y83.889
G0 F3600 X57.797 Y83.819
G1 F1770 X36.179 Y62.201 E283.87907
G1 X36.109 Y62.131
G0 F3600 X36.179 Y62.767
G1 F1770 X57.231 Y83.819 E285.3644
G1 X57.301 Y83.889
G0 F3600 X56.666 Y83.819
G1 F1770 X36.179 Y63.332 E286.80987
G1 X36.109 Y63.262
G0 F3600 X36.179 Y63.898
G1 F1770 X56.1 Y83.819 E288.2154
G1 X56.17 Y83.889
G0 F3600 X55.534 Y83.819
G1 F1770 X36.179 Y64.464 E289.581
G1 X36.109 Y64.394
G0 F3600 X36.179 Y65.029
G1 F1770 X54.969 Y83.819 E290.90674
G1 X55.039 Y83.889
G0 F3600 X54.403 Y83.819
G1 F1770 X36.179 Y65.595 E292.19254
G1 X36.109 Y65.525
G0 F3600 X36.179 Y66.161
G1 F1770 X53.837 Y83.819 E293.43841
G1 X53.907 Y83.889
G0 F3600 X53.272 Y83.819
G1 F1770 X36.179 Y66.726 E294.64441
G1 X36.109 Y66.656
G0 F3600 X36.179 Y67.292
G1 F1770 X52.706 Y83.819 E295.81048
G1 X52.776 Y83.889
G0 F3600 X52.14 Y83.819
G1 F1770 X36.179 Y67.858 E296.93661
G1 X36.109 Y67.788
G0 F3600 X36.179 Y68.423
G1 F1770 X51.574 Y83.819 E298.02285
G1 X51.644 Y83.889
G0 F3600 X51.009 Y83.819
G1 F1770 X36.179 Y68.989 E299.06918
G1 X36.109 Y68.919
G0 F3600 X36.179 Y69.555
G1 F1770 X50.443 Y83.819 E300.07559
G1 X50.513 Y83.889
G0 F3600 X49.877 Y83.819
G1 F1770 X36.179 Y70.12 E301.04209
G1 X36.109 Y70.05
G0 F3600 X36.179 Y70.686
G1 F1770 X49.312 Y83.819 E301.96869
G1 X49.382 Y83.889
G0 F3600 X48.746 Y83.819
G1 F1770 X36.179 Y71.252 E302.85536
G1 X36.109 Y71.182
G0 F3600 X36.179 Y71.818
G1 F1770 X48.18 Y83.819 E303.7021
G1 X48.25 Y83.889
G0 F3600 X47.615 Y83.819
G1 F1770 X36.179 Y72.383 E304.50897
G1 X36.109 Y72.313
G0 F3600 X36.179 Y72.949
G1 F1770 X47.049 Y83.819 E305.27591
G1 X47.119 Y83.889
G0 F3600 X46.483 Y83.819
G1 F1770 X36.179 Y73.515 E306.00291
G1 X36.109 Y73.445
G0 F3600 X36.179 Y74.08
G1 F1770 X45.918 Y83.819 E306.69005
G1 X45.988 Y83.889
G0 F3600 X45.352 Y83.819
G1 F1770 X36.179 Y74.646 E307.33725
G1 X36.109 Y74.576
G0 F3600 X36.179 Y75.212
G1 F1770 X44.786 Y83.819 E307.94453
G1 X44.856 Y83.889
G0 F3600 X44.221 Y83.819
G1 F1770 X36.179 Y75.777 E308.51193
G1 X36.109 Y75.707
G0 F3600 X36.179 Y76.343
G1 F1770 X43.655 Y83.819 E309.0394
G1 X43.725 Y83.889
G0 F3600 X43.089 Y83.819
G1 F1770 X36.179 Y76.909 E309.52694
G1 X36.109 Y76.839
G0 F3600 X36.179 Y77.474
G1 F1770 X42.523 Y83.819 E309.97458
G1 X42.593 Y83.889
G0 F3600 X41.958 Y83.819
G1 F1770 X36.179 Y78.04 E310.38232
G1 X36.109 Y77.97
G0 F3600 X36.179 Y78.606
G1 F1770 X41.392 Y83.819 E310.75013
G1 X41.462 Y83.889
G0 F3600 X40.826 Y83.819
G1 F1770 X36.179 Y79.171 E311.07803
G1 X36.109 Y79.101
G0 F3600 X36.179 Y79.737
G1 F1770 X40.261 Y83.819 E311.36604
G1 X40.331 Y83.889
G0 F3600 X39.695 Y83.819
G1 F1770 X36.179 Y80.303 E311.61411
G1 X36.109 Y80.233
G0 F3600 X36.179 Y80.868
G1 F1770 X39.129 Y83.819 E311.82229
G1 X39.199 Y83.889
G0 F3600 X38.564 Y83.819
G1 F1770 X36.179 Y81.434 E311.99056
G1 X36.109 Y81.364
G0 F3600 X36.179 Y82
G1 F1770 X37.998 Y83.819 E312.1189
G1 X38.068 Y83.889
G0 F3600 X37.432 Y83.819
G1 F1770 X36.179 Y82.566 E312.20731
G1 X36.109 Y82.496
G0 F3600 X36.179 Y83.131
G1 F1770 X36.867 Y83.819 E312.25585
G1 X36.937 Y83.889
G0 F3600 X36.301 Y83.819
G1 F1770 X36.179 Y83.697 E312.26446
G0 F3600 X35.67 Y35.67
G0 X35.6 Y35.6
;TIME_ELAPSED:219.741701
;LAYER:1
M140 S60
M106 S255
G0 F5400 X35.6 Y35.6 Z0.4
;TYPE:WALL-INNER
G1 F2655 X84.4 Y35.6 E313.076
G1 X84.4 Y84.4 E313.88755
G1 X35.6 Y84.4 E314.6991
G1 X35.6 Y35.6 E315.51065
G0 F5400 X35.67 Y35.67
G0 X84.33 Y84.33
G0 X84.8 Y84.8
;TYPE:WALL-OUTER
G1 F1770 X35.2 Y84.8 E316.3355
G1 X35.2 Y35.2 E317.16035
G1 X84.8 Y35.2 E317.9852
G1 X84.8 Y84.8 E318.81005
G0 F5400 X84.6 Y84.8
G0 X84.33 Y84.33
G0 X84 Y84
;TYPE:WALL-INNER
G1 F2655 X36 Y84 E319.60829
G1 X36 Y36 E320.40654
G1 X84 Y36 E321.20478
G1 X84 Y84 E322.00302
G0 F5400 X83.623 Y83.819
;TYPE:SKIN
G1 F1770 X83.819 Y83.623 E322.00763
G0 F5400 X83.819 Y83.058
G1 F1770 X83.057 Y83.819 E322.02554
G1 X82.987 Y83.889
G0 F5400 X82.491 Y83.819
G1 F1770 X83.819 Y82.492 E322.05676
G1 X83.889 Y82.422
G0 F5400 X83.819 Y81.926
G1 F1770 X81.926 Y83.819 E322.10128
G1 X81.856 Y83.889
G0 F5400 X81.36 Y83.819
G1 F1770 X83.819 Y81.361 E322.1591
G1 X83.889 Y81.291
G0 F5400 X83.819 Y80.795
G1 F1770 X80.794 Y83.819 E322.23024
G1 X80.724 Y83.889
G0 F5400 X80.229 Y83.819
G1 F1770 X83.819 Y80.229 E322.31467
G1 X83.889 Y80.159
G0 F5400 X83.819 Y79.664
G1 F1770 X79.663 Y83.819 E322.4124
G1 X79.593 Y83.889
G0 F5400 X79.097 Y83.819
G1 F1770 X83.819 Y79.098 E322.52344
G1 X83.889 Y79.028
G0 F5400 X83.819 Y78.532
G1 F1770 X78.531 Y83.819 E322.64779
G1 X78.461 Y83.889
G0 F5400 X77.966 Y83.819
G1 F1770 X83.819 Y77.967 E322.78544
G1 X83.889 Y77.897
G0 F5400 X83.819 Y77.401
G1 F1770 X77.4 Y83.819 E322.93639
G1 X77.33 Y83.889
G0 F5400 X76.834 Y83.819
G1 F1770 X83.819 Y76.835 E323.10065
G1 X83.889 Y76.765
G0 F5400 X83.819 Y76.269
G1 F1770 X76.269 Y83.819 E323.27822
G1 X76.199 Y83.889
G0 F5400 X75.703 Y83.819
G1 F1770 X83.819 Y75.704 E323.46908
G1 X83.889 Y75.634
G0 F5400 X83.819 Y75.138
G1 F1770 X75.137 Y83.819 E323.67326
G1 X75.067 Y83.889
