;FLAVOR:Marlin
;TIME:6479
;Filament used: 4.14999m
;Layer height: 0.1
;Generated with Cura_SteamEngine 3.0.3
M190 S60
M104 S200
M109 S200
M82 ; absolute extrusion mode
G28 ;Home all axes
G1 Z0.2 F1200 ;Raise nozzle
G92 E0 ;reset extrusion distance
G1 X100 Y0 E12 F600 ;purge nozzle
G92 E0 ;reset extrusion distance
;LAYER_COUNT:138
;LAYER:0
M107
G0 F3600 X29.623 Y29.349 Z0.3
;TYPE:SKIRT
G1 F1800 X30.222 Y28.834 E0.03941
G1 X30.87 Y28.383 E0.0788
G1 X31.561 Y27.999 E0.11824
G1 X32.286 Y27.687 E0.15762
G1 X33.039 Y27.45 E0.197
G1 X33.813 Y27.291 E0.23642
G1 X34.598 Y27.21 E0.27579
G1 X35 Y27.2 E0.29586
G1 X85 Y27.2 E2.79037
G1 X85.789 Y27.24 E2.82978
G1 X86.569 Y27.359 E2.86914
G1 X87.334 Y27.557 E2.90857
G1 X88.074 Y27.831 E2.94794
G1 X88.783 Y28.179 E2.98734
G1 X89.454 Y28.597 E3.02678
G1 X90.078 Y29.08 E3.06615
G1 X90.651 Y29.623 E3.10553
G1 X91.166 Y30.222 E3.14494
G1 X91.617 Y30.87 E3.18433
G1 X92.001 Y31.561 E3.22377
G1 X92.313 Y32.286 E3.26315
G1 X92.55 Y33.039 E3.30253
G1 X92.709 Y33.813 E3.34195
G1 X92.79 Y34.598 E3.38133
G1 X92.8 Y35 E3.40139
G1 X92.8 Y85 E5.8959
G1 X92.76 Y85.789 E5.93531
G1 X92.641 Y86.569 E5.97468
G1 X92.443 Y87.334 E6.0141
G1 X92.169 Y88.074 E6.05347
G1 X91.821 Y88.783 E6.09287
G1 X91.403 Y89.454 E6.13231
G1 X90.92 Y90.078 E6.17168
G1 X90.377 Y90.651 E6.21106
G1 X89.778 Y91.166 E6.25048
G1 X89.13 Y91.617 E6.28986
G1 X88.439 Y92.001 E6.3293
G1 X87.714 Y92.313 E6.36868
G1 X86.961 Y92.55 E6.40806
G1 X86.187 Y92.709 E6.44749
G1 X85.402 Y92.79 E6.48686
G1 X85 Y92.8 E6.50692
G1 X35 Y92.8 E9.00143
G1 X34.211 Y92.76 E9.04084
G1 X33.431 Y92.641 E9.08021
G1 X32.666 Y92.443 E9.11963
G1 X31.926 Y92.169 E9.159
G1 X31.217 Y91.821 E9.1984
G1 X30.546 Y91.403 E9.23784
G1 X29.922 Y90.92 E9.27721
G1 X29.349 Y90.377 E9.3166
G1 X28.834 Y89.778 E9.35601
G1 X28.383 Y89.13 E9.3954
G1 X27.999 Y88.439 E9.43484
G1 X27.687 Y87.714 E9.47421
G1 X27.45 Y86.961 E9.5136
G1 X27.291 Y86.187 E9.55302
G1 X27.21 Y85.402 E9.59239
G1 X27.2 Y85 E9.61245
G1 X27.2 Y35 E12.10696
G1 X27.24 Y34.211 E12.14638
G1 X27.359 Y33.431 E12.18574
G1 X27.557 Y32.666 E12.22516
G1 X27.831 Y31.926 E12.26453
G1 X28.179 Y31.217 E12.30394
G1 X28.597 Y30.546 E12.34338
G1 X29.08 Y29.922 E12.38274
G1 X29.623 Y29.349 E12.42213
G0 F3600 X30.016 Y29.53
G1 F1800 X30.611 Y29.042 E12.46052
G1 X31.253 Y28.619 E12.49888
G1 X31.936 Y28.264 E12.53728
G1 X32.651 Y27.983 E12.57561
G1 X33.393 Y27.777 E12.61403
G1 X34.151 Y27.649 E12.65238
G1 X35 Y27.6 E12.69481
G1 X85 Y27.6 E15.18932
G1 X85.768 Y27.64 E15.22768
G1 X86.528 Y27.759 E15.26606
G1 X87.271 Y27.957 E15.30442
G1 X87.99 Y28.231 E15.34281
G1 X88.676 Y28.578 E15.38117
G1 X89.323 Y28.994 E15.41954
G1 X89.923 Y29.475 E15.45791
G1 X90.47 Y30.016 E15.49629
G1 X90.958 Y30.611 E15.53468
G1 X91.381 Y31.253 E15.57304
G1 X91.736 Y31.936 E15.61144
G1 X92.017 Y32.651 E15.64977
G1 X92.223 Y33.393 E15.68819
G1 X92.351 Y34.151 E15.72654
G1 X92.4 Y35 E15.76897
G1 X92.4 Y85 E18.26348
G1 X92.36 Y85.768 E18.30184
G1 X92.241 Y86.528 E18.34022
G1 X92.043 Y87.271 E18.37858
G1 X91.769 Y87.99 E18.41697
G1 X91.422 Y88.676 E18.45533
G1 X91.006 Y89.323 E18.4937
G1 X90.525 Y89.923 E18.53207
G1 X89.984 Y90.47 E18.57045
G1 X89.389 Y90.958 E18.60884
G1 X88.747 Y91.381 E18.6472
G1 X88.064 Y91.736 E18.6856
G1 X87.349 Y92.017 E18.72393
G1 X86.607 Y92.223 E18.76235
G1 X85.849 Y92.351 E18.8007
G1 X85 Y92.4 E18.84313
G1 X35 Y92.4 E21.33764
G1 X34.232 Y92.36 E21.376
G1 X33.472 Y92.241 E21.41438
G1 X32.729 Y92.043 E21.45275
G1 X32.01 Y91.769 E21.49113
G1 X31.324 Y91.422 E21.52949
G1 X30.677 Y91.006 E21.56786
G1 X30.077 Y90.525 E21.60623
G1 X29.53 Y89.984 E21.64461
G1 X29.042 Y89.389 E21.683
G1 X28.619 Y88.747 E21.72136
G1 X28.264 Y88.064 E21.75976
G1 X27.983 Y87.349 E21.79809
G1 X27.777 Y86.607 E21.83651
G1 X27.649 Y85.849 E21.87486
G1 X27.6 Y85 E21.91729
G1 X27.6 Y35 E24.4118
G1 X27.64 Y34.232 E24.45017
G1 X27.759 Y33.472 E24.48854
G1 X27.957 Y32.729 E24.52691
G1 X28.231 Y32.01 E24.56529
G1 X28.578 Y31.324 E24.60365
G1 X28.994 Y30.677 E24.64202
G1 X29.475 Y30.077 E24.68039
G1 X30.016 Y29.53 E24.71877
G0 F3600 X30.408 Y29.716
G1 F1800 X30.998 Y29.257 E24.75607
G1 X31.634 Y28.862 E24.79342
G1 X32.308 Y28.538 E24.83073
G1 X33.013 Y28.288 E24.86804
G1 X33.741 Y28.114 E24.90539
G1 X34.483 Y28.019 E24.94271
G1 X35 Y28 E24.96852
G1 X85 Y28 E27.46303
G1 X85.747 Y28.04 E27.50035
G1 X86.485 Y28.159 E27.53765
G1 X87.207 Y28.357 E27.575
G1 X87.903 Y28.63 E27.6123
G1 X88.566 Y28.977 E27.64963
G1 X89.189 Y29.392 E27.68698
G1 X89.763 Y29.871 E27.72427
G1 X90.284 Y30.408 E27.7616
G1 X90.743 Y30.998 E27.7989
G1 X91.138 Y31.634 E27.83625
G1 X91.462 Y32.308 E27.87356
G1 X91.712 Y33.013 E27.91088
G1 X91.886 Y33.741 E27.94822
G1 X91.981 Y34.483 E27.98554
G1 X92 Y35 E28.01135
G1 X92 Y85 E30.50586
G1 X91.96 Y85.747 E30.54318
G1 X91.841 Y86.485 E30.58048
G1 X91.643 Y87.207 E30.61783
G1 X91.37 Y87.903 E30.65513
G1 X91.023 Y88.566 E30.69246
G1 X90.608 Y89.189 E30.72981
G1 X90.129 Y89.763 E30.7671
G1 X89.592 Y90.284 E30.80443
G1 X89.002 Y90.743 E30.84173
G1 X88.366 Y91.138 E30.87908
G1 X87.692 Y91.462 E30.91639
G1 X86.987 Y91.712 E30.95371
G1 X86.259 Y91.886 E30.99105
G1 X85.517 Y91.981 E31.02837
G1 X85 Y92 E31.05418
G1 X35 Y92 E33.54869
G1 X34.253 Y91.96 E33.58601
G1 X33.515 Y91.841 E33.62331
G1 X32.793 Y91.643 E33.66066
G1 X32.097 Y91.37 E33.69796
G1 X31.434 Y91.023 E33.73529
G1 X30.811 Y90.608 E33.77264
G1 X30.237 Y90.129 E33.80993
G1 X29.716 Y89.592 E33.84726
G1 X29.257 Y89.002 E33.88456
G1 X28.862 Y88.366 E33.92191
G1 X28.538 Y87.692 E33.95922
G1 X28.288 Y86.987 E33.99654
G1 X28.114 Y86.259 E34.03388
G1 X28.019 Y85.517 E34.0712
G1 X28 Y85 E34.09701
G1 X28 Y35 E36.59152
G1 X28.04 Y34.253 E36.62884
G1 X28.159 Y33.515 E36.66614
G1 X28.357 Y32.793 E36.70349
G1 X28.63 Y32.097 E36.74079
G1 X28.977 Y31.434 E36.77812
G1 X29.392 Y30.811 E36.81547
G1 X29.871 Y30.237 E36.85276
G1 X30.408 Y29.716 E36.89009
G0 F3600 X30.265 Y30.402
G1 F1800 X30.799 Y29.909 E36.92635
G1 X31.384 Y29.479 E36.96257
G1 X32.013 Y29.115 E36.99883
G1 X32.678 Y28.822 E37.03508
G1 X33.371 Y28.604 E37.07133
G1 X34.083 Y28.464 E37.10753
G1 X35 Y28.4 E37.15339
G1 X85 Y28.4 E39.6479
G1 X85.725 Y28.44 E39.68413
G1 X86.442 Y28.559 E39.72039
G1 X87.141 Y28.757 E39.75663
G1 X87.814 Y29.03 E39.79287
G1 X88.453 Y29.375 E39.8291
G1 X89.05 Y29.789 E39.86534
G1 X89.598 Y30.265 E39.90155
G1 X90.091 Y30.799 E39.93781
G1 X90.521 Y31.384 E39.97404
G1 X90.885 Y32.013 E40.01029
G1 X91.178 Y32.678 E40.04655
G1 X91.396 Y33.371 E40.08279
G1 X91.536 Y34.083 E40.11899
G1 X91.6 Y35 E40.16485
G1 X91.6 Y85 E42.65936
G1 X91.56 Y85.725 E42.69559
G1 X91.441 Y86.442 E42.73185
G1 X91.243 Y87.141 E42.7681
G1 X90.97 Y87.814 E42.80433
G1 X90.625 Y88.453 E42.84056
G1 X90.211 Y89.05 E42.8768
G1 X89.735 Y89.598 E42.91302
G1 X89.201 Y90.091 E42.94928
G1 X88.616 Y90.521 E42.9855
G1 X87.987 Y90.885 E43.02175
G1 X87.322 Y91.178 E43.05801
G1 X86.629 Y91.396 E43.09425
G1 X85.917 Y91.536 E43.13046
G1 X85 Y91.6 E43.17632
G1 X35 Y91.6 E45.67083
G1 X34.275 Y91.56 E45.70705
G1 X33.558 Y91.441 E45.74331
G1 X32.859 Y91.243 E45.77956
G1 X32.186 Y90.97 E45.81579
G1 X31.547 Y90.625 E45.85202
G1 X30.95 Y90.211 E45.88827
G1 X30.402 Y89.735 E45.92448
G1 X29.909 Y89.201 E45.96074
G1 X29.479 Y88.616 E45.99696
G1 X29.115 Y87.987 E46.03322
G1 X28.822 Y87.322 E46.06947
G1 X28.604 Y86.629 E46.10572
G1 X28.464 Y85.917 E46.14192
G1 X28.4 Y85 E46.18778
G1 X28.4 Y35 E48.68229
G1 X28.44 Y34.275 E48.71851
G1 X28.559 Y33.558 E48.75477
G1 X28.757 Y32.859 E48.79102
G1 X29.03 Y32.186 E48.82725
G1 X29.375 Y31.547 E48.86348
G1 X29.789 Y30.95 E48.89973
G1 X30.265 Y30.402 E48.93594
G0 F3600 X30.659 Y30.573
G1 F1800 X31.189 Y30.109 E48.97109
G1 X31.768 Y29.709 E49.00619
G1 X32.389 Y29.377 E49.04133
G1 X33.043 Y29.117 E49.07644
G1 X33.723 Y28.933 E49.11158
G1 X34.419 Y28.827 E49.14671
G1 X35 Y28.8 E49.17573
G1 X85 Y28.8 E51.67024
G1 X85.703 Y28.84 E51.70536
G1 X86.397 Y28.959 E51.74049
G1 X87.072 Y29.157 E51.77559
G1 X87.721 Y29.429 E51.8107
G1 X88.335 Y29.774 E51.84583
G1 X88.906 Y30.185 E51.88093
G1 X89.427 Y30.659 E51.91607
G1 X89.891 Y31.189 E51.95122
G1 X90.291 Y31.768 E51.98633
G1 X90.623 Y32.389 E52.02146
G1 X90.883 Y33.043 E52.05657
G1 X91.067 Y33.723 E52.09171
G1 X91.173 Y34.419 E52.12684
G1 X91.2 Y35 E52.15586
G1 X91.2 Y85 E54.65037
G1 X91.16 Y85.703 E54.6855
G1 X91.041 Y86.397 E54.72063
G1 X90.843 Y87.072 E54.75572
G1 X90.571 Y87.721 E54.79083
G1 X90.226 Y88.335 E54.82596
G1 X89.815 Y88.906 E54.86106
G1 X89.341 Y89.427 E54.8962
G1 X88.811 Y89.891 E54.93135
G1 X88.232 Y90.291 E54.96646
G1 X87.611 Y90.623 E55.00159
G1 X86.957 Y90.883 E55.0367
G1 X86.277 Y91.067 E55.07185
G1 X85.581 Y91.173 E55.10697
G1 X85 Y91.2 E55.13599
G1 X35 Y91.2 E57.6305
G1 X34.297 Y91.16 E57.66563
G1 X33.603 Y91.041 E57.70076
G1 X32.928 Y90.843 E57.73585
G1 X32.279 Y90.571 E57.77096
G1 X31.665 Y90.226 E57.8061
G1 X31.094 Y89.815 E57.84119
G1 X30.573 Y89.341 E57.87634
G1 X30.109 Y88.811 E57.91148
G1 X29.709 Y88.232 E57.94659
G1 X29.377 Y87.611 E57.98172
G1 X29.117 Y86.957 E58.01683
G1 X28.933 Y86.277 E58.05198
G1 X28.827 Y85.581 E58.0871
G1 X28.8 Y85 E58.11612
G1 X28.8 Y35 E60.61063
G1 X28.84 Y34.297 E60.64576
G1 X28.959 Y33.603 E60.68089
G1 X29.157 Y32.928 E60.71598
G1 X29.429 Y32.279 E60.75109
G1 X29.774 Y31.665 E60.78623
G1 X30.185 Y31.094 E60.82133
G1 X30.659 Y30.573 E60.85647
G0 F3600 X31.053 Y30.751
G1 F1800 X31.578 Y30.317 E60.89045
G1 X32.15 Y29.948 E60.92441
G1 X32.762 Y29.649 E60.95839
G1 X33.404 Y29.424 E60.99233
G1 X34.069 Y29.275 E61.02633
G1 X35 Y29.2 E61.07293
G1 X85 Y29.2 E63.56744
G1 X85.68 Y29.24 E63.60142
G1 X86.35 Y29.359 E63.63537
G1 X87.002 Y29.556 E63.66935
G1 X87.626 Y29.828 E63.70331
G1 X88.214 Y30.172 E63.7373
G1 X88.758 Y30.582 E63.77129
G1 X89.249 Y31.053 E63.80523
G1 X89.683 Y31.578 E63.83921
G1 X90.052 Y32.15 E63.87317
G1 X90.351 Y32.762 E63.90716
G1 X90.576 Y33.404 E63.9411
G1 X90.725 Y34.069 E63.9751
G1 X90.8 Y35 E64.02169
G1 X90.8 Y85 E66.5162
G1 X90.76 Y85.68 E66.55019
G1 X90.641 Y86.35 E66.58414
G1 X90.444 Y87.002 E66.61812
G1 X90.172 Y87.626 E66.65208
G1 X89.828 Y88.214 E66.68607
G1 X89.418 Y88.758 E66.72005
G1 X88.947 Y89.249 E66.754
G1 X88.422 Y89.683 E66.78798
G1 X87.85 Y90.052 E66.82194
G1 X87.238 Y90.351 E66.85592
G1 X86.596 Y90.576 E66.88986
G1 X85.931 Y90.725 E66.92386
G1 X85 Y90.8 E66.97046
G1 X35 Y90.8 E69.46497
G1 X34.32 Y90.76 E69.49895
G1 X33.65 Y90.641 E69.5329
G1 X32.998 Y90.444 E69.56688
G1 X32.374 Y90.172 E69.60084
G1 X31.786 Y89.828 E69.63483
G1 X31.242 Y89.418 E69.66882
G1 X30.751 Y88.947 E69.70276
G1 X30.317 Y88.422 E69.73674
G1 X29.948 Y87.85 E69.7707
G1 X29.649 Y87.238 E69.80468
G1 X29.424 Y86.596 E69.83862
G1 X29.275 Y85.931 E69.87262
G1 X29.2 Y85 E69.91922
G1 X29.2 Y35 E72.41373
G1 X29.24 Y34.32 E72.44772
G1 X29.359 Y33.65 E72.48167
G1 X29.556 Y32.998 E72.51565
G1 X29.828 Y32.374 E72.54961
G1 X30.172 Y31.786 E72.58359
G1 X30.582 Y31.242 E72.61758
G1 X31.053 Y30.751 E72.65152
G0 F3600 X31.445 Y30.935
G1 F1800 X31.965 Y30.534 E72.68428
G1 X32.529 Y30.198 E72.71704
G1 X33.131 Y29.934 E72.74983
G1 X33.76 Y29.744 E72.78261
G1 X34.407 Y29.633 E72.81536
G1 X35 Y29.6 E72.845
G1 X85 Y29.6 E75.33951
G1 X85.656 Y29.64 E75.37229
G1 X86.302 Y29.759 E75.40507
G1 X86.929 Y29.956 E75.43785
G1 X87.527 Y30.228 E75.47063
G1 X88.088 Y30.57 E75.50341
G1 X88.603 Y30.978 E75.53619
G1 X89.065 Y31.445 E75.56896
G1 X89.466 Y31.965 E75.60172
G1 X89.802 Y32.529 E75.63448
G1 X90.066 Y33.131 E75.66727
G1 X90.256 Y33.76 E75.70005
G1 X90.367 Y34.407 E75.7328
G1 X90.4 Y35 E75.76243
G1 X90.4 Y85 E78.25694
G1 X90.36 Y85.656 E78.28973
G1 X90.241 Y86.302 E78.3225
G1 X90.044 Y86.929 E78.35529
G1 X89.772 Y87.527 E78.38807
G1 X89.43 Y88.088 E78.42085
G1 X89.022 Y88.603 E78.45363
G1 X88.555 Y89.065 E78.4864
G1 X88.035 Y89.466 E78.51916
G1 X87.471 Y89.802 E78.55191
G1 X86.869 Y90.066 E78.58471
G1 X86.24 Y90.256 E78.61749
G1 X85.593 Y90.367 E78.65024
G1 X85 Y90.4 E78.67987
G1 X35 Y90.4 E81.17438
G1 X34.344 Y90.36 E81.20717
G1 X33.698 Y90.241 E81.23994
G1 X33.071 Y90.044 E81.27273
G1 X32.473 Y89.772 E81.30551
G1 X31.912 Y89.43 E81.33829
G1 X31.397 Y89.022 E81.37106
G1 X30.935 Y88.555 E81.40384
G1 X30.534 Y88.035 E81.4366
G1 X30.198 Y87.471 E81.46935
G1 X29.934 Y86.869 E81.50215
G1 X29.744 Y86.24 E81.53493
G1 X29.633 Y85.593 E81.56768
G1 X29.6 Y85 E81.59731
G1 X29.6 Y35 E84.09182
G1 X29.64 Y34.344 E84.12461
G1 X29.759 Y33.698 E84.15738
G1 X29.956 Y33.071 E84.19017
G1 X30.228 Y32.473 E84.22294
G1 X30.57 Y31.912 E84.25572
G1 X30.978 Y31.397 E84.2885
G1 X31.445 Y30.935 E84.32128
G0 F3600 X31.373 Y31.559
G1 F1800 X31.836 Y31.129 E84.3528
G1 X32.35 Y30.76 E84.38437
G1 X32.906 Y30.46 E84.41589
G1 X33.495 Y30.232 E84.4474
G1 X34.109 Y30.08 E84.47895
G1 X35 Y30 E84.52359
G1 X85 Y30 E87.0181
G1 X85.631 Y30.04 E87.04964
G1 X86.252 Y30.159 E87.08119
G1 X86.852 Y30.356 E87.11269
G1 X87.424 Y30.627 E87.14427
G1 X87.956 Y30.967 E87.17577
G1 X88.441 Y31.373 E87.20732
G1 X88.871 Y31.836 E87.23885
G1 X89.24 Y32.35 E87.27042
G1 X89.54 Y32.906 E87.30194
G1 X89.768 Y33.495 E87.33345
G1 X89.92 Y34.109 E87.365
G1 X90 Y35 E87.40963
G1 X90 Y85 E89.90414
G1 X89.96 Y85.631 E89.93569
G1 X89.841 Y86.252 E89.96723
G1 X89.644 Y86.852 E89.99874
G1 X89.373 Y87.424 E90.03032
G1 X89.033 Y87.956 E90.06182
G1 X88.627 Y88.441 E90.09337
G1 X88.164 Y88.871 E90.1249
G1 X87.65 Y89.24 E90.15646
G1 X87.094 Y89.54 E90.18798
G1 X86.505 Y89.768 E90.21949
G1 X85.891 Y89.92 E90.25105
G1 X85 Y90 E90.29568
G1 X35 Y90 E92.79019
G1 X34.369 Y89.96 E92.82174
G1 X33.748 Y89.841 E92.85328
G1 X33.148 Y89.644 E92.88479
G1 X32.576 Y89.373 E92.91637
G1 X32.044 Y89.033 E92.94786
G1 X31.559 Y88.627 E92.97942
G1 X31.129 Y88.164 E93.01094
G1 X30.76 Y87.65 E93.04251
G1 X30.46 Y87.094 E93.07403
G1 X30.232 Y86.505 E93.10554
G1 X30.08 Y85.891 E93.1371
G1 X30 Y85 E93.18173
G1 X30 Y35 E95.67624
G1 X30.04 Y34.369 E95.70778
G1 X30.159 Y33.748 E95.73933
G1 X30.356 Y33.148 E95.77084
G1 X30.627 Y32.576 E95.80241
G1 X30.967 Y32.044 E95.83391
G1 X31.373 Y31.559 E95.86547
G0 F3600 X31.767 Y31.728
G1 F1800 X32.225 Y31.331 E95.89571
G1 X32.732 Y30.998 E95.92597
G1 X33.278 Y30.734 E95.95623
G1 X33.854 Y30.545 E95.98647
G1 X34.45 Y30.433 E96.01673
G1 X35 Y30.4 E96.04422
G1 X85 Y30.4 E98.53873
G1 X85.605 Y30.44 E98.56898
G1 X86.199 Y30.559 E98.5992
G1 X86.773 Y30.755 E98.62946
G1 X87.316 Y31.026 E98.65974
G1 X87.819 Y31.365 E98.69
G1 X88.272 Y31.767 E98.72021
G1 X88.669 Y32.225 E98.75045
G1 X89.002 Y32.732 E98.78072
G1 X89.266 Y33.278 E98.81097
G1 X89.455 Y33.854 E98.84122
G1 X89.567 Y34.45 E98.87147
G1 X89.6 Y35 E98.89896
G1 X89.6 Y85 E101.39347
G1 X89.56 Y85.605 E101.42372
G1 X89.441 Y86.199 E101.45394
G1 X89.245 Y86.773 E101.4842
G1 X88.974 Y87.316 E101.51448
G1 X88.635 Y87.819 E101.54474
G1 X88.233 Y88.272 E101.57496
G1 X87.775 Y88.669 E101.6052
G1 X87.268 Y89.002 E101.63546
G1 X86.722 Y89.266 E101.66572
G1 X86.146 Y89.455 E101.69596
G1 X85.55 Y89.567 E101.72622
G1 X85 Y89.6 E101.75371
G1 X35 Y89.6 E104.24822
G1 X34.395 Y89.56 E104.27847
G1 X33.801 Y89.441 E104.30869
G1 X33.227 Y89.245 E104.33895
G1 X32.684 Y88.974 E104.36923
G1 X32.181 Y88.635 E104.39949
G1 X31.728 Y88.233 E104.4297
G1 X31.331 Y87.775 E104.45994
G1 X30.998 Y87.268 E104.49021
G1 X30.734 Y86.722 E104.52046
G1 X30.545 Y86.146 E104.55071
G1 X30.433 Y85.55 E104.58096
G1 X30.4 Y85 E104.60845
G1 X30.4 Y35 E107.10296
G1 X30.44 Y34.395 E107.13321
G1 X30.559 Y33.801 E107.16343
G1 X30.755 Y33.227 E107.1937
G1 X31.026 Y32.684 E107.22397
G1 X31.365 Y32.181 E107.25423
G1 X31.767 Y31.728 E107.28445
G0 F3600 X32.16 Y31.906
G1 F1800 X32.613 Y31.544 E107.31338
G1 X33.111 Y31.249 E107.34226
G1 X33.645 Y31.024 E107.37117
G1 X34.205 Y30.876 E107.40006
G1 X35 Y30.8 E107.43991
G1 X85 Y30.8 E109.93442
G1 X85.578 Y30.84 E109.96332
G1 X86.145 Y30.959 E109.99223
G1 X86.69 Y31.155 E110.02112
G1 X87.203 Y31.424 E110.05002
G1 X87.674 Y31.761 E110.07892
G1 X88.094 Y32.16 E110.10782
G1 X88.456 Y32.613 E110.13675
G1 X88.751 Y33.111 E110.16562
G1 X88.976 Y33.645 E110.19453
G1 X89.124 Y34.205 E110.22343
G1 X89.2 Y35 E110.26328
G1 X89.2 Y85 E112.75779
G1 X89.16 Y85.578 E112.78669
G1 X89.041 Y86.145 E112.8156
