;FLAVOR:Marlin
;TIME:9258
;Filament used: 4.31305m
;Layer height: 0.13125
;Generated with Cura_SteamEngine 4.0.0
M140 S65
M105
M190 S65
M104 S205
M105
M109 S205
M82 ;absolute extrusion mode
G21;(metric values)
G90;(absolute positioning)
M82;(set extruder to absolute mode)
M107;(start with the fan off)
G28;(Home the printer)
G92 E0;(Reset the extruder to 0)
G0 Z5 E5 F500;(Move up and prime the nozzle)
G0 X-1 Z0;(Move outside the printable area)
G1 Y60 E8 F500;(Draw a priming/wiping line to the rear)
G1 X-1;(Move a little closer to the print area)
G1 Y10 E16 F500;(draw more priming/wiping)
G1 E15 F250;(Small retract)
G92 E0;(Zero the extruder)
G92 E0
G1 F2400 E-2.5
;LAYER_COUNT:68
;LAYER:0
M107
G0 F4320 X27.385 Y16.741 Z0.263
;TYPE:SKIRT
G1 F2400 E0
G1 F1800 X27.718 Y16.327 E0.02033
G1 X28.109 Y15.969 E0.04062
G1 X28.55 Y15.673 E0.06095
G1 X29.03 Y15.447 E0.08125
G1 X29.538 Y15.295 E0.10154
G1 X30.289 Y15.214 E0.13045
G1 X89.711 Y15.215 E2.40453
G1 X90.24 Y15.255 E2.42483
G1 X90.757 Y15.374 E2.44513
G1 X91.251 Y15.569 E2.46546
G1 X91.709 Y15.836 E2.48575
G1 X92.123 Y16.169 E2.50608
G1 X92.481 Y16.56 E2.52637
G1 X92.777 Y17.001 E2.54669
G1 X93.003 Y17.481 E2.567
G1 X93.155 Y17.989 E2.58729
G1 X93.236 Y18.74 E2.6162
G1 X93.236 Y101.261 E5.77427
G1 X93.196 Y101.79 E5.79458
G1 X93.077 Y102.307 E5.81488
G1 X92.882 Y102.801 E5.8352
G1 X92.615 Y103.259 E5.85549
G1 X92.282 Y103.673 E5.87582
G1 X91.891 Y104.031 E5.89611
G1 X91.45 Y104.327 E5.91644
G1 X90.97 Y104.553 E5.93674
G1 X90.462 Y104.705 E5.95704
G1 X89.711 Y104.786 E5.98594
G1 X30.289 Y104.786 E8.26002
G1 X29.76 Y104.746 E8.28032
G1 X29.243 Y104.627 E8.30063
G1 X28.749 Y104.432 E8.32095
G1 X28.291 Y104.165 E8.34124
G1 X27.877 Y103.832 E8.36157
G1 X27.519 Y103.441 E8.38186
G1 X27.223 Y103 E8.40219
G1 X26.997 Y102.52 E8.42249
G1 X26.845 Y102.012 E8.44278
G1 X26.764 Y101.261 E8.47169
G1 X26.764 Y18.739 E11.6298
G1 X26.804 Y18.21 E11.65011
G1 X26.923 Y17.693 E11.67041
G1 X27.058 Y17.351 E11.68448
G0 F1620 X27.118 Y17.199
G0 X27.385 Y16.741
G0 F4320 X27.733 Y16.855
G1 F2400 E11.71104
G1 F1800 X28.063 Y16.475 E11.7303
G1 X28.449 Y16.152 E11.74956
G1 X28.881 Y15.893 E11.76884
G1 X29.349 Y15.706 E11.78812
G1 X29.84 Y15.596 E11.80738
G1 X30.289 Y15.564 E11.82461
G1 X89.711 Y15.565 E14.09868
G1 X90.213 Y15.605 E14.11796
G1 X90.702 Y15.724 E14.13722
G1 X91.167 Y15.918 E14.1565
G1 X91.595 Y16.184 E14.17578
G1 X91.975 Y16.514 E14.19505
G1 X92.299 Y16.9 E14.21433
G1 X92.557 Y17.332 E14.23359
G1 X92.744 Y17.8 E14.25288
G1 X92.854 Y18.291 E14.27213
G1 X92.886 Y18.74 E14.28936
G1 X92.886 Y101.261 E17.44743
G1 X92.846 Y101.763 E17.4667
G1 X92.727 Y102.252 E17.48596
G1 X92.533 Y102.717 E17.50525
G1 X92.267 Y103.145 E17.52453
G1 X91.937 Y103.525 E17.54379
G1 X91.551 Y103.848 E17.56305
G1 X91.119 Y104.107 E17.58233
G1 X90.651 Y104.294 E17.60162
G1 X90.16 Y104.404 E17.62087
G1 X89.711 Y104.436 E17.6381
G1 X30.289 Y104.436 E19.91218
G1 X29.787 Y104.396 E19.93145
G1 X29.298 Y104.277 E19.95071
G1 X28.833 Y104.083 E19.96999
G1 X28.405 Y103.817 E19.98928
G1 X28.025 Y103.487 E20.00854
G1 X27.702 Y103.101 E20.0278
G1 X27.443 Y102.669 E20.04708
G1 X27.256 Y102.201 E20.06636
G1 X27.146 Y101.71 E20.08562
G1 X27.114 Y101.261 E20.10285
G1 X27.114 Y18.739 E23.26096
G1 X27.154 Y18.237 E23.28023
G1 X27.273 Y17.748 E23.29949
G1 X27.394 Y17.459 E23.31148
G0 F1620 X27.467 Y17.283
G0 X27.733 Y16.855
G1 F2400 E20.81148
;MESH:femto-beacon-esp32_r1.0.0_JIG-Plane.stl
G0 F4320 X29.615 Y19.79
G0 X31.34 Y19.79
G0 X88.845 Y100.395
;TYPE:WALL-INNER
G1 F2400 E23.33804
G1 F1800 X31.155 Y100.395 E25.54583
G1 X31.155 Y19.605 E28.63766
G1 X88.845 Y19.605 E30.84546
G1 X88.845 Y99.701 E33.91073
G0 F1620 X88.845 Y100.395
G0 F4320 X89.195 Y100.745
G1 F2400 E33.93728
G1 F1800 X30.805 Y100.745 E36.17187
G1 X30.805 Y19.255 E39.29048
G1 X89.195 Y19.255 E41.52507
G1 X89.195 Y100.051 E44.61712
G0 F1620 X89.195 Y100.745
G0 F4320 X89.52 Y101.07
;TYPE:WALL-OUTER
G1 F2400 E44.64368
G1 F1800 X30.48 Y101.07 E46.90314
G1 X30.48 Y18.93 E50.04663
G1 X89.52 Y18.93 E52.30609
G1 X89.52 Y100.376 E55.42303
G0 F1620 X89.52 Y101.07
G0 F4320 X89.32 Y101.07
G0 X89.32 Y100.795
G0 X88.76 Y100.055
G0 X88.505 Y100.055
;TYPE:SKIN
G1 F2400 E55.44959
G1 F1800 X31.495 Y100.055 E57.63135
G1 X31.495 Y19.945 E60.69716
G1 X88.505 Y19.945 E62.87893
G1 X88.505 Y99.361 E65.91817
G0 F1620 X88.505 Y100.055
G0 F4320 X88.76 Y100.055
G0 X88.696 Y100.219
G0 X32.085 Y100.31
G0 X32.085 Y99.897
G1 F2400 E65.94473
G1 F1800 X31.651 Y99.463 E65.96822
G0 F4320 X31.651 Y98.968
G1 F1800 X32.58 Y99.897 E66.0185
G0 F4320 X33.075 Y99.897
G1 F1800 X31.651 Y98.473 E66.09557
G0 F4320 X31.651 Y97.978
G1 F1800 X33.57 Y99.897 E66.19943
G0 F4320 X34.065 Y99.897
G1 F1800 X31.651 Y97.483 E66.33008
G0 F4320 X31.651 Y96.988
G1 F1800 X34.56 Y99.897 E66.48752
G0 F4320 X35.055 Y99.897
G1 F1800 X31.651 Y96.493 E66.67175
G0 F4320 X31.651 Y95.998
G1 F1800 X35.55 Y99.897 E66.88277
G0 F4320 X36.045 Y99.897
G1 F1800 X31.651 Y95.503 E67.12059
G0 F4320 X31.651 Y95.008
G1 F1800 X36.54 Y99.897 E67.38519
G0 F4320 X37.035 Y99.897
G1 F1800 X31.651 Y94.513 E67.67658
G0 F4320 X31.651 Y94.018
G1 F1800 X37.53 Y99.897 E67.99476
G0 F4320 X38.025 Y99.897
G1 F1800 X31.651 Y93.523 E68.33974
G0 F4320 X31.651 Y93.028
G1 F1800 X38.52 Y99.897 E68.7115
G0 F4320 X39.015 Y99.897
G1 F1800 X31.651 Y92.533 E69.11005
G0 F4320 X31.651 Y92.038
G1 F1800 X39.51 Y99.897 E69.5354
G0 F4320 X40.005 Y99.897
G1 F1800 X31.651 Y91.543 E69.98753
G0 F4320 X31.651 Y91.048
G1 F1800 X40.5 Y99.897 E70.46645
G0 F4320 X40.995 Y99.897
G1 F1800 X31.651 Y90.553 E70.97217
G0 F4320 X31.651 Y90.058
G1 F1800 X41.49 Y99.897 E71.50467
G0 F4320 X41.985 Y99.897
G1 F1800 X31.651 Y89.563 E72.06397
G0 F4320 X31.651 Y89.068
G1 F1800 X42.48 Y99.897 E72.65006
G0 F4320 X42.975 Y99.897
G1 F1800 X31.651 Y88.573 E73.26293
G0 F4320 X31.651 Y88.078
G1 F1800 X43.47 Y99.897 E73.9026
G0 F4320 X43.965 Y99.897
G1 F1800 X31.651 Y87.583 E74.56905
G0 F4320 X31.651 Y87.088
G1 F1800 X44.46 Y99.897 E75.2623
G0 F4320 X44.955 Y99.897
G1 F1800 X31.651 Y86.593 E75.98234
G0 F4320 X31.651 Y86.098
G1 F1800 X45.449 Y99.897 E76.72914
G0 F4320 X45.944 Y99.897
G1 F1800 X31.651 Y85.603 E77.50273
G0 F4320 X31.651 Y85.108
G1 F1800 X46.439 Y99.897 E78.30311
G0 F4320 X46.934 Y99.897
G1 F1800 X31.651 Y84.613 E79.13028
G0 F4320 X31.651 Y84.118
G1 F1800 X47.429 Y99.897 E79.98425
G0 F4320 X47.924 Y99.897
G1 F1800 X31.651 Y83.623 E80.865
G0 F4320 X31.651 Y83.128
G1 F1800 X48.419 Y99.897 E81.77254
G0 F4320 X48.914 Y99.897
G1 F1800 X31.651 Y82.633 E82.70687
G0 F4320 X31.651 Y82.138
G1 F1800 X49.409 Y99.897 E83.668
G0 F4320 X49.904 Y99.897
G1 F1800 X31.651 Y81.643 E84.65591
G0 F4320 X31.651 Y81.148
G1 F1800 X50.399 Y99.897 E85.67061
G0 F4320 X50.894 Y99.897
G1 F1800 X31.651 Y80.654 E86.71208
G0 F4320 X31.651 Y80.159
G1 F1800 X51.389 Y99.897 E87.78034
G0 F4320 X51.884 Y99.897
G1 F1800 X31.651 Y79.664 E88.87539
G0 F4320 X31.651 Y79.169
G1 F1800 X52.379 Y99.897 E89.99722
G0 F4320 X52.874 Y99.897
G1 F1800 X31.651 Y78.674 E91.14585
G0 F4320 X31.651 Y78.179
G1 F1800 X53.369 Y99.897 E92.32127
G0 F4320 X53.864 Y99.897
G1 F1800 X31.651 Y77.684 E93.52348
G0 F4320 X31.651 Y77.189
G1 F1800 X54.359 Y99.897 E94.75248
G0 F4320 X54.854 Y99.897
G1 F1800 X31.651 Y76.694 E96.00827
G0 F4320 X31.651 Y76.199
G1 F1800 X55.349 Y99.897 E97.29085
G0 F4320 X55.844 Y99.897
G1 F1800 X31.651 Y75.704 E98.60022
G0 F4320 X31.651 Y75.209
G1 F1800 X56.339 Y99.897 E99.93638
G0 F4320 X56.834 Y99.897
G1 F1800 X31.651 Y74.714 E101.29933
G0 F4320 X31.651 Y74.219
G1 F1800 X57.329 Y99.897 E102.68907
G0 F4320 X57.824 Y99.897
G1 F1800 X31.651 Y73.724 E104.10561
G0 F4320 X31.651 Y73.229
G1 F1800 X58.319 Y99.897 E105.54893
G0 F4320 X58.814 Y99.897
G1 F1800 X31.651 Y72.734 E107.01904
G0 F4320 X31.651 Y72.239
G1 F1800 X59.309 Y99.897 E108.51594
G0 F4320 X59.804 Y99.897
G1 F1800 X31.651 Y71.744 E110.03964
G0 F4320 X31.651 Y71.249
G1 F1800 X60.299 Y99.897 E111.59012
G0 F4320 X60.794 Y99.897
G1 F1800 X31.651 Y70.754 E113.16739
G0 F4320 X31.651 Y70.259
G1 F1800 X61.289 Y99.897 E114.77146
G0 F4320 X61.784 Y99.897
G1 F1800 X31.651 Y69.764 E116.40231
G0 F4320 X31.651 Y69.269
G1 F1800 X62.279 Y99.897 E118.05996
G0 F4320 X62.774 Y99.897
G1 F1800 X31.651 Y68.774 E119.74439
G0 F4320 X31.651 Y68.279
G1 F1800 X63.269 Y99.897 E121.45562
G0 F4320 X63.764 Y99.897
G1 F1800 X31.651 Y67.784 E123.19363
G0 F4320 X31.651 Y67.289
G1 F1800 X64.259 Y99.897 E124.95844
G0 F4320 X64.754 Y99.897
G1 F1800 X31.651 Y66.794 E126.75004
G0 F4320 X31.651 Y66.299
G1 F1800 X65.248 Y99.897 E128.56839
G0 F4320 X65.743 Y99.897
G1 F1800 X31.651 Y65.804 E130.41354
G0 F4320 X31.651 Y65.309
G1 F1800 X66.238 Y99.897 E132.28549
G0 F4320 X66.733 Y99.897
G1 F1800 X31.651 Y64.814 E134.18422
G0 F4320 X31.651 Y64.319
G1 F1800 X67.228 Y99.897 E136.10974
G0 F4320 X67.723 Y99.897
G1 F1800 X31.651 Y63.824 E138.06205
G0 F4320 X31.651 Y63.329
G1 F1800 X68.218 Y99.897 E140.04115
G0 F4320 X68.713 Y99.897
G1 F1800 X31.651 Y62.834 E142.04704
G0 F4320 X31.651 Y62.339
G1 F1800 X69.208 Y99.897 E144.07972
G0 F4320 X69.703 Y99.897
G1 F1800 X31.651 Y61.844 E146.1392
G0 F4320 X31.651 Y61.349
G1 F1800 X70.198 Y99.897 E148.22546
G0 F4320 X70.693 Y99.897
G1 F1800 X31.651 Y60.855 E150.33849
G0 F4320 X31.651 Y60.36
G1 F1800 X71.188 Y99.897 E152.4783
G0 F4320 X71.683 Y99.897
G1 F1800 X31.651 Y59.865 E154.64491
G0 F4320 X31.651 Y59.37
G1 F1800 X72.178 Y99.897 E156.83831
G0 F4320 X72.673 Y99.897
G1 F1800 X31.651 Y58.875 E159.05849
G0 F4320 X31.651 Y58.38
G1 F1800 X73.168 Y99.897 E161.30547
G0 F4320 X73.663 Y99.897
G1 F1800 X31.651 Y57.885 E163.57924
G0 F4320 X31.651 Y57.39
G1 F1800 X74.158 Y99.897 E165.8798
G0 F4320 X74.653 Y99.897
G1 F1800 X31.651 Y56.895 E168.20715
G0 F4320 X31.651 Y56.4
G1 F1800 X75.148 Y99.897 E170.56129
G0 F4320 X75.643 Y99.897
G1 F1800 X31.651 Y55.905 E172.94221
G0 F4320 X31.651 Y55.41
G1 F1800 X76.138 Y99.897 E175.34993
G0 F4320 X76.633 Y99.897
G1 F1800 X31.651 Y54.915 E177.78444
G0 F4320 X31.651 Y54.42
G1 F1800 X77.128 Y99.897 E180.24574
G0 F4320 X77.623 Y99.897
G1 F1800 X31.651 Y53.925 E182.73384
G0 F4320 X31.651 Y53.43
G1 F1800 X78.118 Y99.897 E185.24872
G0 F4320 X78.613 Y99.897
G1 F1800 X31.651 Y52.935 E187.79039
G0 F4320 X31.651 Y52.44
G1 F1800 X79.108 Y99.897 E190.35885
G0 F4320 X79.603 Y99.897
G1 F1800 X31.651 Y51.945 E192.9541
G0 F4320 X31.651 Y51.45
G1 F1800 X80.098 Y99.897 E195.57614
G0 F4320 X80.593 Y99.897
G1 F1800 X31.651 Y50.955 E198.22498
G0 F4320 X31.651 Y50.46
G1 F1800 X81.088 Y99.897 E200.9006
G0 F4320 X81.583 Y99.897
G1 F1800 X31.651 Y49.965 E203.60301
G0 F4320 X31.651 Y49.47
G1 F1800 X82.078 Y99.897 E206.33222
G0 F4320 X82.573 Y99.897
G1 F1800 X31.651 Y48.975 E209.08821
G0 F4320 X31.651 Y48.48
G1 F1800 X83.068 Y99.897 E211.87099
G0 F4320 X83.563 Y99.897
G1 F1800 X31.651 Y47.985 E214.68057
G0 F4320 X31.651 Y47.49
G1 F1800 X84.058 Y99.897 E217.51693
G0 F4320 X84.553 Y99.897
G1 F1800 X31.651 Y46.995 E220.38009
G0 F4320 X31.651 Y46.5
G1 F1800 X85.047 Y99.897 E223.27001
G0 F4320 X85.542 Y99.897
G1 F1800 X31.651 Y46.005 E226.18672
G0 F4320 X31.651 Y45.51
G1 F1800 X86.037 Y99.897 E229.13022
G0 F4320 X86.532 Y99.897
G1 F1800 X31.651 Y45.015 E232.10051
G0 F4320 X31.651 Y44.52
G1 F1800 X87.027 Y99.897 E235.09759
G0 F4320 X87.522 Y99.897
G1 F1800 X31.651 Y44.025 E238.12146
G0 F4320 X31.651 Y43.53
G1 F1800 X88.017 Y99.897 E241.17212
G0 F4320 X88.348 Y99.732
G1 F1800 X31.651 Y43.035 E244.24066
G0 F4320 X31.651 Y42.54
G1 F1800 X88.348 Y99.237 E247.30921
G0 F4320 X88.348 Y98.742
G1 F1800 X31.651 Y42.045 E250.37776
G0 F4320 X31.651 Y41.551
G1 F1800 X88.348 Y98.247 E253.44628
G0 F4320 X88.348 Y97.752
G1 F1800 X31.651 Y41.056 E256.5148
G0 F4320 X31.651 Y40.561
G1 F1800 X88.348 Y97.257 E259.58332
G0 F4320 X88.348 Y96.762
G1 F1800 X31.651 Y40.066 E262.65184
G0 F4320 X31.651 Y39.571
G1 F1800 X88.348 Y96.267 E265.72036
G0 F4320 X88.348 Y95.772
G1 F1800 X31.651 Y39.076 E268.78888
G0 F4320 X31.651 Y38.581
G1 F1800 X88.348 Y95.277 E271.8574
G0 F4320 X88.348 Y94.782
G1 F1800 X31.651 Y38.086 E274.92593
G0 F4320 X31.651 Y37.591
G1 F1800 X88.348 Y94.287 E277.99445
G0 F4320 X88.348 Y93.792
G1 F1800 X31.651 Y37.096 E281.06297
G0 F4320 X31.651 Y36.601
G1 F1800 X88.348 Y93.297 E284.13149
G0 F4320 X88.348 Y92.802
G1 F1800 X31.651 Y36.106 E287.20001
G0 F4320 X31.651 Y35.611
G1 F1800 X88.348 Y92.307 E290.26853
G0 F4320 X88.348 Y91.812
G1 F1800 X31.651 Y35.116 E293.33705
G0 F4320 X31.651 Y34.621
G1 F1800 X88.348 Y91.317 E296.40557
G0 F4320 X88.348 Y90.822
G1 F1800 X31.651 Y34.126 E299.47409
G0 F4320 X31.651 Y33.631
G1 F1800 X88.348 Y90.327 E302.54261
G0 F4320 X88.348 Y89.832
G1 F1800 X31.651 Y33.136 E305.61113
G0 F4320 X31.651 Y32.641
G1 F1800 X88.348 Y89.337 E308.67965
G0 F4320 X88.348 Y88.843
G1 F1800 X31.651 Y32.146 E311.7482
G0 F4320 X31.651 Y31.651
G1 F1800 X88.348 Y88.348 E314.81675
G0 F4320 X88.348 Y87.853
G1 F1800 X31.651 Y31.156 E317.8853
G0 F4320 X31.651 Y30.661
G1 F1800 X88.348 Y87.358 E320.95384
G0 F4320 X88.348 Y86.863
G1 F1800 X31.651 Y30.166 E324.02239
G0 F4320 X31.651 Y29.671
G1 F1800 X88.348 Y86.368 E327.09094
G0 F4320 X88.348 Y85.873
G1 F1800 X31.651 Y29.176 E330.15949
G0 F4320 X31.651 Y28.681
G1 F1800 X88.348 Y85.378 E333.22804
G0 F4320 X88.348 Y84.883
G1 F1800 X31.651 Y28.186 E336.29658
G0 F4320 X31.651 Y27.691
G1 F1800 X88.348 Y84.388 E339.36513
G0 F4320 X88.348 Y83.893
G1 F1800 X31.651 Y27.196 E342.43368
G0 F4320 X31.651 Y26.701
G1 F1800 X88.348 Y83.398 E345.50223
G0 F4320 X88.348 Y82.903
G1 F1800 X31.651 Y26.206 E348.57077
G0 F4320 X31.651 Y25.711
G1 F1800 X88.348 Y82.408 E351.63932
G0 F4320 X88.348 Y81.913
G1 F1800 X31.651 Y25.216 E354.70787
G0 F4320 X31.651 Y24.721
G1 F1800 X88.348 Y81.418 E357.77642
G0 F4320 X88.348 Y80.923
G1 F1800 X31.651 Y24.226 E360.84497
G0 F4320 X31.651 Y23.731
G1 F1800 X88.348 Y80.428 E363.91351
G0 F4320 X88.348 Y79.933
G1 F1800 X31.651 Y23.236 E366.98206
G0 F4320 X31.651 Y22.741
G1 F1800 X88.348 Y79.438 E370.05061
G0 F4320 X88.348 Y78.943
G1 F1800 X31.651 Y22.246 E373.11916
G0 F4320 X31.651 Y21.752
G1 F1800 X88.348 Y78.448 E376.18768
G0 F4320 X88.348 Y77.953
G1 F1800 X31.651 Y21.257 E379.2562
G0 F4320 X31.651 Y20.762
G1 F1800 X88.348 Y77.458 E382.32472
G0 F4320 X88.348 Y76.963
G1 F1800 X31.651 Y20.267 E385.39324
G0 F4320 X31.981 Y20.101
G1 F1800 X88.348 Y76.468 E388.44393
G0 F4320 X88.348 Y75.973
G1 F1800 X32.476 Y20.101 E391.46782
G0 F4320 X32.97 Y20.101
G1 F1800 X88.348 Y75.478 E394.46496
G0 F4320 X88.348 Y74.983
G1 F1800 X33.465 Y20.101 E397.4353
G0 F4320 X33.96 Y20.101
G1 F1800 X88.348 Y74.488 E400.37886
G0 F4320 X88.348 Y73.993
G1 F1800 X34.455 Y20.101 E403.29562
G0 F4320 X34.95 Y20.101
G1 F1800 X88.348 Y73.498 E406.18559
G0 F4320 X88.348 Y73.003
G1 F1800 X35.445 Y20.101 E409.04877
G0 F4320 X35.94 Y20.101
G1 F1800 X88.348 Y72.508 E411.88517
G0 F4320 X88.348 Y72.013
G1 F1800 X36.435 Y20.101 E414.69477
G0 F4320 X36.93 Y20.101
G1 F1800 X88.348 Y71.518 E417.47758
G0 F4320 X88.348 Y71.023
G1 F1800 X37.425 Y20.101 E420.2336
G0 F4320 X37.92 Y20.101
G1 F1800 X88.348 Y70.528 E422.96283
G0 F4320 X88.348 Y70.033
G1 F1800 X38.415 Y20.101 E425.66527
G0 F4320 X38.91 Y20.101
G1 F1800 X88.348 Y69.539 E428.34095
G0 F4320 X88.348 Y69.044
G1 F1800 X39.405 Y20.101 E430.98984
G0 F4320 X39.9 Y20.101
G1 F1800 X88.348 Y68.549 E433.61193
G0 F4320 X88.348 Y68.054
G1 F1800 X40.395 Y20.101 E436.20724
G0 F4320 X40.89 Y20.101
G1 F1800 X88.348 Y67.559 E438.77575
G0 F4320 X88.348 Y67.064
G1 F1800 X41.385 Y20.101 E441.31748
G0 F4320 X41.88 Y20.101
G1 F1800 X88.348 Y66.569 E443.83241
G0 F4320 X88.348 Y66.074
G1 F1800 X42.375 Y20.101 E446.32056
G0 F4320 X42.87 Y20.101
G1 F1800 X88.348 Y65.579 E448.78191
G0 F4320 X88.348 Y65.084
G1 F1800 X43.365 Y20.101 E451.21648
G0 F4320 X43.86 Y20.101
G1 F1800 X88.348 Y64.589 E453.62425
G0 F4320 X88.348 Y64.094
G1 F1800 X44.355 Y20.101 E456.00524
G0 F4320 X44.85 Y20.101
G1 F1800 X88.348 Y63.599 E458.35943
G0 F4320 X88.348 Y63.104
G1 F1800 X45.345 Y20.101 E460.68683
G0 F4320 X45.84 Y20.101
G1 F1800 X88.348 Y62.609 E462.98744
G0 F4320 X88.348 Y62.114
G1 F1800 X46.335 Y20.101 E465.26127
G0 F4320 X46.83 Y20.101
