;FLAVOR:Marlin
;TIME:1124
;Filament used: 0.517347m
;Layer height: 0.1
;Generated with Cura_SteamEngine 3.0.3
M190 S60
M104 S210
M109 S210
M82 ; absolute extrusion mode
G28 ;Home all axes
G1 Z0.2 F1200 ;Raise nozzle
G92 E0 ;reset extrusion distance
G1 X100 Y0 E12 F600 ;purge nozzle
G92 E0 ;reset extrusion distance
;LAYER_COUNT:73
;LAYER:0
M107
G0 F3600 X45.36 Y50.44 Z0.3
;TYPE:WALL-INNER
G1 F1770 X74.64 Y50.44 E1.46079
G1 X74.64 Y69.56 E2.41469
G1 X45.36 Y69.56 E3.87547
G1 X45.36 Y50.44 E4.82937
G0 F3600 X45.43 Y50.51
G0 X74.57 Y69.49
G0 X75.04 Y69.96
;TYPE:WALL-OUTER
G1 F1770 X44.96 Y69.96 E6.33007
G1 X44.96 Y50.04 E7.32388
G1 X75.04 Y50.04 E8.82458
G1 X75.04 Y69.96 E9.81839
G0 F3600 X74.84 Y69.96
G0 X74.57 Y69.49
G0 X74.24 Y69.16
;TYPE:WALL-INNER
G1 F1770 X45.76 Y69.16 E11.23926
G1 X45.76 Y50.84 E12.15325
G1 X74.24 Y50.84 E13.57413
G1 X74.24 Y69.16 E14.48811
G0 F3600 X74.059 Y51.432
;TYPE:SKIN
G1 F1770 X73.647 Y51.019 E14.51722
G0 F3600 X73.081 Y51.019
G1 F1770 X74.059 Y51.997 E14.58622
G1 X74.129 Y52.067
G0 F3600 X74.059 Y52.563
G1 F1770 X72.515 Y51.019 E14.69516
G1 X72.445 Y50.949
G0 F3600 X71.95 Y51.019
G1 F1770 X74.059 Y53.129 E14.844
G1 X74.129 Y53.199
G0 F3600 X74.059 Y53.694
G1 F1770 X71.384 Y51.019 E15.03273
G1 X71.314 Y50.949
G0 F3600 X70.818 Y51.019
G1 F1770 X74.059 Y54.26 E15.2614
G1 X74.129 Y54.33
G0 F3600 X74.059 Y54.826
G1 F1770 X70.253 Y51.019 E15.52997
G1 X70.183 Y50.949
G0 F3600 X69.687 Y51.019
G1 F1770 X74.059 Y55.391 E15.83844
G1 X74.129 Y55.461
G0 F3600 X74.059 Y55.957
G1 F1770 X69.121 Y51.019 E16.18684
G1 X69.051 Y50.949
G0 F3600 X68.556 Y51.019
G1 F1770 X74.059 Y56.523 E16.57514
G1 X74.129 Y56.593
G0 F3600 X74.059 Y57.088
G1 F1770 X67.99 Y51.019 E17.00334
G1 X67.92 Y50.949
G0 F3600 X67.424 Y51.019
G1 F1770 X74.059 Y57.654 E17.47148
G1 X74.129 Y57.724
G0 F3600 X74.059 Y58.22
G1 F1770 X66.859 Y51.019 E17.97951
G1 X66.789 Y50.949
G0 F3600 X66.293 Y51.019
G1 F1770 X74.059 Y58.786 E18.52748
G1 X74.129 Y58.856
G0 F3600 X74.059 Y59.351
G1 F1770 X65.727 Y51.019 E19.11535
G1 X65.657 Y50.949
G0 F3600 X65.162 Y51.019
G1 F1770 X74.059 Y59.917 E19.74312
G1 X74.129 Y59.987
G0 F3600 X74.059 Y60.483
G1 F1770 X64.596 Y51.019 E20.41082
G1 X64.526 Y50.949
G0 F3600 X64.03 Y51.019
G1 F1770 X74.059 Y61.048 E21.11842
G1 X74.129 Y61.118
G0 F3600 X74.059 Y61.614
G1 F1770 X63.464 Y51.019 E21.86595
G1 X63.394 Y50.949
G0 F3600 X62.899 Y51.019
G1 F1770 X74.059 Y62.18 E22.65339
G1 X74.129 Y62.25
G0 F3600 X74.059 Y62.745
G1 F1770 X62.333 Y51.019 E23.48072
G1 X62.263 Y50.949
G0 F3600 X61.767 Y51.019
G1 F1770 X74.059 Y63.311 E24.34799
G1 X74.129 Y63.381
G0 F3600 X74.059 Y63.877
G1 F1770 X61.202 Y51.019 E25.25515
G1 X61.132 Y50.949
G0 F3600 X60.636 Y51.019
G1 F1770 X74.059 Y64.442 E26.20222
G1 X74.129 Y64.512
G0 F3600 X74.059 Y65.008
G1 F1770 X60.07 Y51.019 E27.18922
G1 X60 Y50.949
G0 F3600 X59.505 Y51.019
G1 F1770 X74.059 Y65.574 E28.21611
G1 X74.129 Y65.644
G0 F3600 X74.059 Y66.139
G1 F1770 X58.939 Y51.019 E29.28291
G1 X58.869 Y50.949
G0 F3600 X58.373 Y51.019
G1 F1770 X74.059 Y66.705 E30.38964
G1 X74.129 Y66.775
G0 F3600 X74.059 Y67.271
G1 F1770 X57.808 Y51.019 E31.53628
G1 X57.738 Y50.949
G0 F3600 X57.242 Y51.019
G1 F1770 X74.059 Y67.836 E32.72281
G1 X74.129 Y67.906
G0 F3600 X74.059 Y68.402
G1 F1770 X56.676 Y51.019 E33.94927
G1 X56.606 Y50.949
G0 F3600 X56.111 Y51.019
G1 F1770 X74.059 Y68.968 E35.21563
G1 X74.129 Y69.038
G0 F3600 X73.504 Y68.978
G1 F1770 X55.545 Y51.019 E36.48274
G1 X55.475 Y50.949
G0 F3600 X54.979 Y51.019
G1 F1770 X72.938 Y68.978 E37.74984
G1 X73.008 Y69.048
G0 F3600 X72.373 Y68.978
G1 F1770 X54.413 Y51.019 E39.01698
G1 X54.343 Y50.949
G0 F3600 X53.848 Y51.019
G1 F1770 X71.807 Y68.978 E40.28409
G1 X71.877 Y69.048
G0 F3600 X71.241 Y68.978
G1 F1770 X53.282 Y51.019 E41.55119
G1 X53.212 Y50.949
G0 F3600 X52.716 Y51.019
G1 F1770 X70.676 Y68.978 E42.81833
G1 X70.746 Y69.048
G0 F3600 X70.11 Y68.978
G1 F1770 X52.151 Y51.019 E44.08544
G1 X52.081 Y50.949
G0 F3600 X51.585 Y51.019
G1 F1770 X69.544 Y68.978 E45.35254
G1 X69.614 Y69.048
G0 F3600 X68.978 Y68.978
G1 F1770 X51.019 Y51.019 E46.61964
G1 X50.949 Y50.949
G0 F3600 X50.454 Y51.019
G1 F1770 X68.413 Y68.978 E47.88675
G1 X68.483 Y69.048
G0 F3600 X67.847 Y68.978
G1 F1770 X49.888 Y51.019 E49.15385
G1 X49.818 Y50.949
G0 F3600 X49.322 Y51.019
G1 F1770 X67.281 Y68.978 E50.42096
G1 X67.351 Y69.048
G0 F3600 X66.716 Y68.978
G1 F1770 X48.757 Y51.019 E51.68806
G1 X48.687 Y50.949
G0 F3600 X48.191 Y51.019
G1 F1770 X66.15 Y68.978 E52.95517
G1 X66.22 Y69.048
G0 F3600 X65.584 Y68.978
G1 F1770 X47.625 Y51.019 E54.22227
G1 X47.555 Y50.949
G0 F3600 X47.06 Y51.019
G1 F1770 X65.019 Y68.978 E55.48938
G1 X65.089 Y69.048
G0 F3600 X64.453 Y68.978
G1 F1770 X46.494 Y51.019 E56.75648
G1 X46.424 Y50.949
G0 F3600 X45.94 Y51.031
G1 F1770 X63.887 Y68.978 E58.02274
G1 X63.957 Y69.048
G0 F3600 X63.322 Y68.978
G1 F1770 X45.94 Y51.596 E59.24913
G1 X45.87 Y51.526
G0 F3600 X45.94 Y52.162
G1 F1770 X62.756 Y68.978 E60.43559
G1 X62.826 Y69.048
G0 F3600 X62.19 Y68.978
G1 F1770 X45.94 Y52.728 E61.58212
G1 X45.87 Y52.658
G0 F3600 X45.94 Y53.293
G1 F1770 X61.625 Y68.978 E62.68878
G1 X61.695 Y69.048
G0 F3600 X61.059 Y68.978
G1 F1770 X45.94 Y53.859 E63.75551
G1 X45.87 Y53.789
G0 F3600 X45.94 Y54.425
G1 F1770 X60.493 Y68.978 E64.7823
G1 X60.563 Y69.048
G0 F3600 X59.928 Y68.978
G1 F1770 X45.94 Y54.99 E65.76923
G1 X45.87 Y54.92
G0 F3600 X45.94 Y55.556
G1 F1770 X59.362 Y68.978 E66.71622
G1 X59.432 Y69.048
G0 F3600 X58.796 Y68.978
G1 F1770 X45.94 Y56.122 E67.62328
G1 X45.87 Y56.052
G0 F3600 X45.94 Y56.688
G1 F1770 X58.23 Y68.978 E68.49041
G1 X58.3 Y69.048
G0 F3600 X57.665 Y68.978
G1 F1770 X45.94 Y57.253 E69.31767
G1 X45.87 Y57.183
G0 F3600 X45.94 Y57.819
G1 F1770 X57.099 Y68.978 E70.105
G1 X57.169 Y69.048
G0 F3600 X56.533 Y68.978
G1 F1770 X45.94 Y58.385 E70.85239
G1 X45.87 Y58.315
G0 F3600 X45.94 Y58.95
G1 F1770 X55.968 Y68.978 E71.55992
G1 X56.038 Y69.048
G0 F3600 X55.402 Y68.978
G1 F1770 X45.94 Y59.516 E72.22752
G1 X45.87 Y59.446
G0 F3600 X45.94 Y60.082
G1 F1770 X54.836 Y68.978 E72.85518
G1 X54.906 Y69.048
G0 F3600 X54.271 Y68.978
G1 F1770 X45.94 Y60.647 E73.44297
G1 X45.87 Y60.577
G0 F3600 X45.94 Y61.213
G1 F1770 X53.705 Y68.978 E73.99084
G1 X53.775 Y69.048
G0 F3600 X53.139 Y68.978
G1 F1770 X45.94 Y61.779 E74.49876
G1 X45.87 Y61.709
G0 F3600 X45.94 Y62.344
G1 F1770 X52.574 Y68.978 E74.96683
G1 X52.644 Y69.048
G0 F3600 X52.008 Y68.978
G1 F1770 X45.94 Y62.91 E75.39496
G1 X45.87 Y62.84
G0 F3600 X45.94 Y63.476
G1 F1770 X51.442 Y68.978 E75.78315
G1 X51.512 Y69.048
G0 F3600 X50.877 Y68.978
G1 F1770 X45.94 Y64.041 E76.13149
G1 X45.87 Y63.971
G0 F3600 X45.94 Y64.607
G1 F1770 X50.311 Y68.978 E76.43988
G1 X50.381 Y69.048
G0 F3600 X49.745 Y68.978
G1 F1770 X45.94 Y65.173 E76.70835
G1 X45.87 Y65.103
G0 F3600 X45.94 Y65.739
G1 F1770 X49.179 Y68.978 E76.93688
G1 X49.249 Y69.048
G0 F3600 X48.614 Y68.978
G1 F1770 X45.94 Y66.304 E77.12554
G1 X45.87 Y66.234
G0 F3600 X45.94 Y66.87
G1 F1770 X48.048 Y68.978 E77.27427
G1 X48.118 Y69.048
G0 F3600 X47.482 Y68.978
G1 F1770 X45.94 Y67.436 E77.38307
G1 X45.87 Y67.366
G0 F3600 X45.94 Y68.001
G1 F1770 X46.917 Y68.978 E77.452
G1 X46.987 Y69.048
G0 F3600 X46.351 Y68.978
G1 F1770 X45.94 Y68.567 E77.481
G0 F3600 X45.43 Y50.51
G0 X45.36 Y50.44
;TIME_ELAPSED:56.911395
;LAYER:1
M140 S60
M106 S255
G0 F5400 X45.36 Y50.44 Z0.4
;TYPE:WALL-INNER
G1 F2655 X74.64 Y50.44 E77.96793
G1 X74.64 Y69.56 E78.2859
G1 X45.36 Y69.56 E78.77282
G1 X45.36 Y50.44 E79.09079
G0 F5400 X45.43 Y50.51
G0 X74.57 Y69.49
G0 X75.04 Y69.96
;TYPE:WALL-OUTER
G1 F1770 X44.96 Y69.96 E79.59102
G1 X44.96 Y50.04 E79.92229
G1 X75.04 Y50.04 E80.42253
G1 X75.04 Y69.96 E80.7538
G0 F5400 X74.84 Y69.96
G0 X74.57 Y69.49
G0 X74.24 Y69.16
;TYPE:WALL-INNER
G1 F2655 X45.76 Y69.16 E81.22742
G1 X45.76 Y50.84 E81.53208
G1 X74.24 Y50.84 E82.00571
G1 X74.24 Y69.16 E82.31037
G0 F5400 X74.058 Y68.493
;TYPE:SKIN
G1 F1770 X73.573 Y68.979 E82.32179
G0 F5400 X73.007 Y68.979
G1 F1770 X74.058 Y67.928 E82.34651
G1 X74.128 Y67.858
G0 F5400 X74.058 Y67.362
G1 F1770 X72.441 Y68.979 E82.38454
G1 X72.371 Y69.049
G0 F5400 X71.875 Y68.979
G1 F1770 X74.058 Y66.796 E82.43588
G1 X74.128 Y66.726
G0 F5400 X74.058 Y66.231
G1 F1770 X71.31 Y68.979 E82.50051
G1 X71.24 Y69.049
G0 F5400 X70.744 Y68.979
G1 F1770 X74.058 Y65.665 E82.57845
G1 X74.128 Y65.595
G0 F5400 X74.058 Y65.099
G1 F1770 X70.178 Y68.979 E82.6697
G1 X70.108 Y69.049
G0 F5400 X69.613 Y68.979
G1 F1770 X74.058 Y64.534 E82.77424
G1 X74.128 Y64.464
G0 F5400 X74.058 Y63.968
G1 F1770 X69.047 Y68.979 E82.89209
G1 X68.977 Y69.049
G0 F5400 X68.481 Y68.979
G1 F1770 X74.058 Y63.402 E83.02325
G1 X74.128 Y63.332
G0 F5400 X74.058 Y62.837
G1 F1770 X67.916 Y68.979 E83.1677
G1 X67.846 Y69.049
G0 F5400 X67.35 Y68.979
G1 F1770 X74.058 Y62.271 E83.32546
G1 X74.128 Y62.201
G0 F5400 X74.058 Y61.705
G1 F1770 X66.784 Y68.979 E83.49654
G1 X66.714 Y69.049
G0 F5400 X66.219 Y68.979
G1 F1770 X74.058 Y61.139 E83.68091
G1 X74.128 Y61.069
G0 F5400 X74.058 Y60.574
G1 F1770 X65.653 Y68.979 E83.87858
G1 X65.583 Y69.049
G0 F5400 X65.087 Y68.979
G1 F1770 X74.058 Y60.008 E84.08957
G1 X74.128 Y59.938
G0 F5400 X74.058 Y59.442
G1 F1770 X64.522 Y68.979 E84.31385
G1 X64.452 Y69.049
G0 F5400 X63.956 Y68.979
G1 F1770 X74.058 Y58.877 E84.55143
G1 X74.128 Y58.807
G0 F5400 X74.058 Y58.311
G1 F1770 X63.39 Y68.979 E84.80233
G1 X63.32 Y69.049
G0 F5400 X62.825 Y68.979
G1 F1770 X74.058 Y57.745 E85.06652
G1 X74.128 Y57.675
G0 F5400 X74.058 Y57.18
G1 F1770 X62.259 Y68.979 E85.34402
G1 X62.189 Y69.049
G0 F5400 X61.693 Y68.979
G1 F1770 X74.058 Y56.614 E85.63482
G1 X74.128 Y56.544
G0 F5400 X74.058 Y56.048
G1 F1770 X61.127 Y68.979 E85.93894
G1 X61.057 Y69.049
G0 F5400 X60.562 Y68.979
G1 F1770 X74.058 Y55.483 E86.25635
G1 X74.128 Y55.413
G0 F5400 X74.058 Y54.917
G1 F1770 X59.996 Y68.979 E86.58706
G1 X59.926 Y69.049
G0 F5400 X59.43 Y68.979
G1 F1770 X74.058 Y54.351 E86.93109
G1 X74.128 Y54.281
G0 F5400 X74.058 Y53.786
G1 F1770 X58.865 Y68.979 E87.28841
G1 X58.795 Y69.049
G0 F5400 X58.299 Y68.979
G1 F1770 X74.058 Y53.22 E87.65904
G1 X74.128 Y53.15
G0 F5400 X74.058 Y52.654
G1 F1770 X57.733 Y68.979 E88.04297
G1 X57.663 Y69.049
G0 F5400 X57.168 Y68.979
G1 F1770 X74.058 Y52.089 E88.4402
G1 X74.128 Y52.019
G0 F5400 X74.058 Y51.523
G1 F1770 X56.602 Y68.979 E88.85074
G1 X56.532 Y69.049
G0 F5400 X56.036 Y68.979
G1 F1770 X73.996 Y51.019 E89.27313
G1 X74.066 Y50.949
G0 F5400 X73.43 Y51.019
G1 F1770 X55.471 Y68.979 E89.69551
G1 X55.401 Y69.049
G0 F5400 X54.905 Y68.979
G1 F1770 X72.865 Y51.019 E90.1179
G1 X72.935 Y50.949
G0 F5400 X72.299 Y51.019
G1 F1770 X54.339 Y68.979 E90.54029
G1 X54.269 Y69.049
G0 F5400 X53.774 Y68.979
G1 F1770 X71.733 Y51.019 E90.96267
G1 X71.803 Y50.949
G0 F5400 X71.168 Y51.019
G1 F1770 X53.208 Y68.979 E91.38507
G1 X53.138 Y69.049
G0 F5400 X52.642 Y68.979
G1 F1770 X70.602 Y51.019 E91.80746
G1 X70.672 Y50.949
G0 F5400 X70.036 Y51.019
G1 F1770 X52.077 Y68.979 E92.22984
G1 X52.007 Y69.049
G0 F5400 X51.511 Y68.979
G1 F1770 X69.471 Y51.019 E92.65223
G1 X69.541 Y50.949
G0 F5400 X68.905 Y51.019
G1 F1770 X50.945 Y68.979 E93.07462
G1 X50.875 Y69.049
G0 F5400 X50.379 Y68.979
G1 F1770 X68.339 Y51.019 E93.49701
G1 X68.409 Y50.949
G0 F5400 X67.774 Y51.019
G1 F1770 X49.814 Y68.979 E93.9194
G1 X49.744 Y69.049
G0 F5400 X49.248 Y68.979
G1 F1770 X67.208 Y51.019 E94.3418
G1 X67.278 Y50.949
G0 F5400 X66.642 Y51.019
G1 F1770 X48.682 Y68.979 E94.76419
G1 X48.612 Y69.049
G0 F5400 X48.117 Y68.979
G1 F1770 X66.077 Y51.019 E95.18658
G1 X66.147 Y50.949
G0 F5400 X65.511 Y51.019
G1 F1770 X47.551 Y68.979 E95.60897
G1 X47.481 Y69.049
G0 F5400 X46.985 Y68.979
G1 F1770 X64.945 Y51.019 E96.03136
G1 X65.015 Y50.949
G0 F5400 X64.379 Y51.019
G1 F1770 X46.42 Y68.979 E96.45374
G1 X46.35 Y69.049
G0 F5400 X45.94 Y68.894
G1 F1770 X63.814 Y51.019 E96.87412
G1 X63.884 Y50.949
G0 F5400 X63.248 Y51.019
G1 F1770 X45.94 Y68.328 E97.28119
G1 X45.87 Y68.398
G0 F5400 X45.94 Y67.762
G1 F1770 X62.682 Y51.019 E97.67495
G1 X62.752 Y50.949
G0 F5400 X62.117 Y51.019
G1 F1770 X45.94 Y67.197 E98.05542
G1 X45.87 Y67.267
G0 F5400 X45.94 Y66.631
G1 F1770 X61.551 Y51.019 E98.42258
G1 X61.621 Y50.949
G0 F5400 X60.985 Y51.019
G1 F1770 X45.94 Y66.065 E98.77643
G1 X45.87 Y66.135
G0 F5400 X45.94 Y65.5
G1 F1770 X60.42 Y51.019 E99.11699
G1 X60.49 Y50.949
G0 F5400 X59.854 Y51.019
G1 F1770 X45.94 Y64.934 E99.44423
G1 X45.87 Y65.004
G0 F5400 X45.94 Y64.368
G1 F1770 X59.288 Y51.019 E99.75817
G1 X59.358 Y50.949
G0 F5400 X58.723 Y51.019
G1 F1770 X45.94 Y63.802 E100.05881
G1 X45.87 Y63.872
G0 F5400 X45.94 Y63.237
G1 F1770 X58.157 Y51.019 E100.34614
G1 X58.227 Y50.949
G0 F5400 X57.591 Y51.019
G1 F1770 X45.94 Y62.671 E100.62017
G1 X45.87 Y62.741
G0 F5400 X45.94 Y62.105
G1 F1770 X57.026 Y51.019 E100.88089
G1 X57.096 Y50.949
G0 F5400 X56.46 Y51.019
G1 F1770 X45.94 Y61.54 E101.12832
G1 X45.87 Y61.61
G0 F5400 X45.94 Y60.974
G1 F1770 X55.894 Y51.019 E101.36243
G1 X55.964 Y50.949
G0 F5400 X55.328 Y51.019
G1 F1770 X45.94 Y60.408 E101.58324
G1 X45.87 Y60.478
G0 F5400 X45.94 Y59.843
G1 F1770 X54.763 Y51.019 E101.79075
G1 X54.833 Y50.949
G0 F5400 X54.197 Y51.019
G1 F1770 X45.94 Y59.277 E101.98496
G1 X45.87 Y59.347
G0 F5400 X45.94 Y58.711
G1 F1770 X53.631 Y51.019 E102.16585
G1 X53.701 Y50.949
G0 F5400 X53.066 Y51.019
G1 F1770 X45.94 Y58.146 E102.33345
G1 X45.87 Y58.216
G0 F5400 X45.94 Y57.58
G1 F1770 X52.5 Y51.019 E102.48775
G1 X52.57 Y50.949
G0 F5400 X51.934 Y51.019
G1 F1770 X45.94 Y57.014 E102.62873
G1 X45.87 Y57.084
G0 F5400 X45.94 Y56.449
G1 F1770 X51.369 Y51.019 E102.75642
G1 X51.439 Y50.949
G0 F5400 X50.803 Y51.019
G1 F1770 X45.94 Y55.883 E102.8708
G1 X45.87 Y55.953
G0 F5400 X45.94 Y55.317
G1 F1770 X50.237 Y51.019 E102.97187
G1 X50.307 Y50.949
G0 F5400 X49.672 Y51.019
G1 F1770 X45.94 Y54.751 E103.05965
G1 X45.87 Y54.821
G0 F5400 X45.94 Y54.186
G1 F1770 X49.106 Y51.019 E103.13412
G1 X49.176 Y50.949
G0 F5400 X48.54 Y51.019
G1 F1770 X45.94 Y53.62 E103.19528
G1 X45.87 Y53.69
G0 F5400 X45.94 Y53.054
G1 F1770 X47.975 Y51.019 E103.24314
G1 X48.045 Y50.949
G0 F5400 X47.409 Y51.019
G1 F1770 X45.94 Y52.489 E103.2777
G1 X45.87 Y52.559
G0 F5400 X45.94 Y51.923
G1 F1770 X46.843 Y51.019 E103.29895
G1 X46.913 Y50.949
G0 F5400 X46.278 Y51.019
G1 F1770 X45.94 Y51.357 E103.30689
G0 F5400 X45.43 Y50.51
G0 X45.36 Y50.44
;TIME_ELAPSED:109.942939
;LAYER:2
G0 F7200 X45.36 Y50.44 Z0.5
;TYPE:WALL-INNER
G1 F3540 X74.64 Y50.44 E103.79382
G1 X74.64 Y69.56 E104.11179
G1 X45.36 Y69.56 E104.59872
G1 X45.36 Y50.44 E104.91669
G0 F7200 X45.43 Y50.51
G0 X74.57 Y69.49
G0 X75.04 Y69.96
;TYPE:WALL-OUTER
G1 F1770 X44.96 Y69.96 E105.41692
G1 X44.96 Y50.04 E105.74819
G1 X75.04 Y50.04 E106.24842
G1 X75.04 Y69.96 E106.57969
G0 F7200 X74.84 Y69.96
G0 X74.57 Y69.49
G0 X74.24 Y69.16
;TYPE:WALL-INNER
G1 F3540 X45.76 Y69.16 E107.05332
G1 X45.76 Y50.84 E107.35798
G1 X74.24 Y50.84 E107.8316
G1 X74.24 Y69.16 E108.13627
G0 F7200 X74.059 Y51.432
;TYPE:SKIN
G1 F1770 X73.647 Y51.019 E108.14597
G0 F7200 X73.081 Y51.019
G1 F1770 X74.059 Y51.997 E108.16897
G1 X74.129 Y52.067
G0 F7200 X74.059 Y52.563
G1 F1770 X72.515 Y51.019 E108.20528
G1 X72.445 Y50.949
G0 F7200 X71.95 Y51.019
G1 F1770 X74.059 Y53.129 E108.25489
G1 X74.129 Y53.199
G0 F7200 X74.059 Y53.694
G1 F1770 X71.384 Y51.019 E108.31781
G1 X71.314 Y50.949
G0 F7200 X70.818 Y51.019
G1 F1770 X74.059 Y54.26 E108.39403
G1 X74.129 Y54.33
G0 F7200 X74.059 Y54.826
G1 F1770 X70.253 Y51.019 E108.48355
G1 X70.183 Y50.949
G0 F7200 X69.687 Y51.019
G1 F1770 X74.059 Y55.391 E108.58637
G1 X74.129 Y55.461
G0 F7200 X74.059 Y55.957
G1 F1770 X69.121 Y51.019 E108.70251
G1 X69.051 Y50.949
G0 F7200 X68.556 Y51.019
G1 F1770 X74.059 Y56.523 E108.83194
G1 X74.129 Y56.593
G0 F7200 X74.059 Y57.088
G1 F1770 X67.99 Y51.019 E108.97468
G1 X67.92 Y50.949
G0 F7200 X67.424 Y51.019
G1 F1770 X74.059 Y57.654 E109.13072
G1 X74.129 Y57.724
G0 F7200 X74.059 Y58.22
G1 F1770 X66.859 Y51.019 E109.30007
G1 X66.789 Y50.949
G0 F7200 X66.293 Y51.019
G1 F1770 X74.059 Y58.786 E109.48272
G1 X74.129 Y58.856
G0 F7200 X74.059 Y59.351
G1 F1770 X65.727 Y51.019 E109.67868
G1 X65.657 Y50.949
G0 F7200 X65.162 Y51.019
G1 F1770 X74.059 Y59.917 E109.88793
G1 X74.129 Y59.987
