;FLAVOR:Marlin
;TIME:1507
;Filament used: 1.01216m
;Layer height: 0.175
;Generated with Cura_SteamEngine 3.0.3
M190 S60
M104 S210
M109 S210
M82 ; absolute extrusion mode
G28 ;Home all axes
G1 Z0.2 F1200 ;Raise nozzle
G92 E0 ;reset extrusion distance
G1 X100 Y0 E12 F600 ;purge nozzle
G92 E0 ;reset extrusion distance
;LAYER_COUNT:55
;LAYER:0
M107
G0 F4500 X28.67 Y50.523 Z0.3
;TYPE:WALL-INNER
G1 F1500 X30.639 Y49.469 E0.11142
G1 X32.776 Y48.822 E0.22282
G1 X35 Y48.603 E0.33431
G1 X37.224 Y48.822 E0.4458
G1 X39.361 Y49.469 E0.5572
G1 X41.33 Y50.523 E0.66862
G1 X43.059 Y51.941 E0.78018
G1 X44.477 Y53.67 E0.89174
G1 X45.531 Y55.639 E1.00316
G1 X46.178 Y57.776 E1.11456
G1 X46.397 Y60 E1.22605
G1 X46.178 Y62.224 E1.33754
G1 X45.531 Y64.361 E1.44894
G1 X44.477 Y66.33 E1.56036
G1 X43.059 Y68.059 E1.67192
G1 X41.33 Y69.477 E1.78348
G1 X39.361 Y70.531 E1.8949
G1 X37.224 Y71.178 E2.00629
G1 X35 Y71.397 E2.11779
G1 X32.776 Y71.178 E2.22928
G1 X30.639 Y70.531 E2.34067
G1 X28.67 Y69.477 E2.4521
G1 X26.941 Y68.059 E2.56366
G1 X25.523 Y66.33 E2.67522
G1 X24.469 Y64.361 E2.78664
G1 X23.822 Y62.224 E2.89803
G1 X23.603 Y60 E3.00953
G1 X23.822 Y57.776 E3.12102
G1 X24.469 Y55.639 E3.23241
G1 X25.523 Y53.67 E3.34384
G1 X26.941 Y51.941 E3.4554
G1 X28.67 Y50.523 E3.56696
G0 F4500 X28.725 Y50.606
G0 X37.205 Y48.92
G0 X37.304 Y48.428
;TYPE:WALL-OUTER
G1 F1500 X39.516 Y49.098 E3.68226
G1 X41.552 Y50.187 E3.79746
G1 X43.343 Y51.657 E3.91305
G1 X44.813 Y53.448 E4.02865
G1 X45.902 Y55.484 E4.14384
G1 X46.572 Y57.696 E4.25915
G1 X46.799 Y60 E4.37466
G1 X46.572 Y62.304 E4.49016
G1 X45.902 Y64.516 E4.60547
G1 X44.813 Y66.552 E4.72066
G1 X43.343 Y68.343 E4.83626
G1 X41.552 Y69.813 E4.95185
G1 X39.516 Y70.902 E5.06705
G1 X37.304 Y71.572 E5.18236
G1 X35 Y71.799 E5.29786
G1 X32.696 Y71.572 E5.41336
G1 X30.484 Y70.902 E5.52867
G1 X28.448 Y69.813 E5.64387
G1 X26.657 Y68.343 E5.75946
G1 X25.187 Y66.552 E5.87506
G1 X24.098 Y64.516 E5.99025
G1 X23.428 Y62.304 E6.10556
G1 X23.201 Y60 E6.22106
G1 X23.428 Y57.696 E6.33657
G1 X24.098 Y55.484 E6.45188
G1 X25.187 Y53.448 E6.56707
G1 X26.657 Y51.657 E6.68267
G1 X28.448 Y50.187 E6.79826
G1 X30.484 Y49.098 E6.91346
G1 X32.696 Y48.428 E7.02877
G1 X35 Y48.201 E7.14427
G1 X37.304 Y48.428 E7.25977
G0 F4500 X37.495 Y48.485
G0 X37.35 Y48.963
G0 X37.15 Y49.216
;TYPE:WALL-INNER
G1 F1500 X39.209 Y49.839 E7.3671
G1 X41.1 Y50.853 E7.47415
G1 X42.775 Y52.225 E7.58217
G1 X44.147 Y53.9 E7.69019
G1 X45.161 Y55.791 E7.79724
G1 X45.784 Y57.85 E7.90456
G1 X45.995 Y60 E8.01234
G1 X45.784 Y62.15 E8.12012
G1 X45.161 Y64.209 E8.22744
G1 X44.147 Y66.1 E8.33449
G1 X42.775 Y67.775 E8.44251
G1 X41.1 Y69.147 E8.55054
G1 X39.209 Y70.161 E8.65759
G1 X37.15 Y70.784 E8.76491
G1 X35 Y70.995 E8.87269
G1 X32.85 Y70.784 E8.98047
G1 X30.791 Y70.161 E9.08779
G1 X28.9 Y69.147 E9.19484
G1 X27.225 Y67.775 E9.30286
G1 X25.853 Y66.1 E9.41088
G1 X24.839 Y64.209 E9.51793
G1 X24.216 Y62.15 E9.62526
G1 X24.005 Y60 E9.73304
G1 X24.216 Y57.85 E9.84081
G1 X24.839 Y55.791 E9.94814
G1 X25.853 Y53.9 E10.05519
G1 X27.225 Y52.225 E10.16321
G1 X28.9 Y50.853 E10.27123
G1 X30.791 Y49.839 E10.37828
G1 X32.85 Y49.216 E10.4856
G1 X35 Y49.005 E10.59338
G1 X37.15 Y49.216 E10.70116
G0 F4500 X44.205 Y54.387
;TYPE:SKIN
G1 F1500 X40.611 Y50.794 E10.9547
G1 X40.541 Y50.724
G0 F4500 X39.393 Y50.141
G1 F1500 X44.858 Y55.606 E11.34029
G1 X44.928 Y55.676
G0 F4500 X45.189 Y56.502
G1 F1500 X38.497 Y49.81 E11.81245
G1 X38.427 Y49.74
G0 F4500 X37.685 Y49.564
G1 F1500 X45.435 Y57.314 E12.35925
G1 X45.505 Y57.384
G0 F4500 X45.625 Y58.07
G1 F1500 X36.929 Y49.374 E12.9728
G1 X36.859 Y49.304
G0 F4500 X36.302 Y49.312
G1 F1500 X45.686 Y58.697 E13.63493
G1 X45.756 Y58.767
G0 F4500 X45.747 Y59.324
G1 F1500 X35.675 Y49.252 E14.34556
G1 X35.605 Y49.182
G0 F4500 X35.048 Y49.19
G1 F1500 X45.809 Y59.951 E15.10481
G1 X45.879 Y60.021
G0 F4500 X45.767 Y60.475
G1 F1500 X34.524 Y49.232 E15.89806
G1 X34.454 Y49.162
G0 F4500 X34.009 Y49.282
G1 F1500 X45.717 Y60.99 E16.72412
G1 X45.787 Y61.06
G0 F4500 X45.667 Y61.506
G1 F1500 X33.493 Y49.332 E17.58307
G1 X33.423 Y49.262
G0 F4500 X32.978 Y49.382
G1 F1500 X45.616 Y62.021 E18.47478
G1 X45.686 Y62.091
G0 F4500 X45.5 Y62.47
G1 F1500 X32.529 Y49.499 E19.38995
G1 X32.459 Y49.429
G0 F4500 X32.094 Y49.631
G1 F1500 X45.368 Y62.904 E20.32647
G1 X45.438 Y62.974
G0 F4500 X45.237 Y63.339
G1 F1500 X31.66 Y49.762 E21.2844
G1 X31.59 Y49.692
G0 F4500 X31.226 Y49.894
G1 F1500 X45.105 Y63.773 E22.26364
G1 X45.175 Y63.843
G0 F4500 X44.963 Y64.196
G1 F1500 X30.802 Y50.036 E23.26274
G1 X30.732 Y49.966
G0 F4500 X30.434 Y50.233
G1 F1500 X44.766 Y64.565 E24.27394
G1 X44.836 Y64.635
G0 F4500 X44.568 Y64.932
G1 F1500 X30.066 Y50.431 E25.2971
G1 X29.996 Y50.361
G0 F4500 X29.698 Y50.628
G1 F1500 X44.37 Y65.301 E26.33232
G1 X44.44 Y65.371
G0 F4500 X44.173 Y65.669
G1 F1500 X29.33 Y50.826 E27.37958
G1 X29.26 Y50.756
G0 F4500 X28.968 Y51.029
G1 F1500 X43.97 Y66.031 E28.43805
G1 X44.04 Y66.101
G0 F4500 X43.715 Y66.342
G1 F1500 X28.656 Y51.284 E29.50051
G1 X28.586 Y51.214
G0 F4500 X28.346 Y51.539
G1 F1500 X43.46 Y66.653 E30.56688
G1 X43.53 Y66.723
G0 F4500 X43.205 Y66.964
G1 F1500 X28.035 Y51.794 E31.63721
G1 X27.965 Y51.724
G0 F4500 X27.724 Y52.048
G1 F1500 X42.951 Y67.275 E32.71155
G1 X43.021 Y67.345
G0 F4500 X42.696 Y67.586
G1 F1500 X27.413 Y52.303 E33.78985
G1 X27.343 Y52.233
G0 F4500 X27.147 Y52.603
G1 F1500 X42.395 Y67.851 E34.86568
G1 X42.465 Y67.921
G0 F4500 X42.084 Y68.106
G1 F1500 X26.891 Y52.913 E35.93763
G1 X26.821 Y52.843
G0 F4500 X26.637 Y53.224
G1 F1500 X41.773 Y68.36 E37.00556
G1 X41.843 Y68.43
G0 F4500 X41.462 Y68.615
G1 F1500 X26.382 Y53.535 E38.06953
G1 X26.312 Y53.465
G0 F4500 X26.128 Y53.846
G1 F1500 X41.151 Y68.87 E39.12952
G1 X41.221 Y68.94
G0 F4500 X40.812 Y69.096
G1 F1500 X25.902 Y54.186 E40.1815
G1 X25.832 Y54.116
G0 F4500 X25.704 Y54.554
G1 F1500 X40.443 Y69.293 E41.22142
G1 X40.513 Y69.363
G0 F4500 X40.075 Y69.49
G1 F1500 X25.507 Y54.923 E42.24923
G1 X25.437 Y54.853
G0 F4500 X25.31 Y55.291
G1 F1500 X39.706 Y69.688 E43.26498
G1 X39.776 Y69.758
G0 F4500 X39.339 Y69.886
G1 F1500 X25.112 Y55.659 E44.26878
G1 X25.042 Y55.589
G0 F4500 X24.944 Y56.057
G1 F1500 X38.941 Y70.053 E45.25631
G1 X39.011 Y70.123
G0 F4500 X38.506 Y70.185
G1 F1500 X24.813 Y56.491 E46.22246
G1 X24.743 Y56.421
G0 F4500 X24.681 Y56.925
G1 F1500 X38.072 Y70.316 E47.16726
G1 X38.142 Y70.386
G0 F4500 X37.638 Y70.448
G1 F1500 X24.55 Y57.359 E48.09073
G1 X24.48 Y57.289
G0 F4500 X24.418 Y57.793
G1 F1500 X37.204 Y70.579 E48.99285
G1 X37.274 Y70.649
G0 F4500 X36.705 Y70.646
G1 F1500 X24.352 Y58.293 E49.86442
G1 X24.282 Y58.223
G0 F4500 X24.301 Y58.808
G1 F1500 X36.189 Y70.696 E50.70318
G1 X36.259 Y70.766
G0 F4500 X35.674 Y70.746
G1 F1500 X24.251 Y59.324 E51.5091
G1 X24.181 Y59.254
G0 F4500 X24.201 Y59.839
G1 F1500 X35.158 Y70.796 E52.28218
G1 X35.228 Y70.866
G0 F4500 X34.566 Y70.77
G1 F1500 X24.227 Y60.431 E53.01165
G1 X24.157 Y60.361
G0 F4500 X24.289 Y61.058
G1 F1500 X33.939 Y70.709 E53.69254
G1 X34.009 Y70.779
G0 F4500 X33.312 Y70.647
G1 F1500 X24.35 Y61.685 E54.32486
G1 X24.28 Y61.615
G0 F4500 X24.47 Y62.371
G1 F1500 X32.627 Y70.528 E54.90038
G1 X32.697 Y70.598
G0 F4500 X31.816 Y70.282
G1 F1500 X24.715 Y63.182 E55.40136
G1 X24.645 Y63.112
G0 F4500 X24.96 Y63.993
G1 F1500 X31.005 Y70.037 E55.82783
G1 X31.075 Y70.107
G0 F4500 X29.858 Y69.456
G1 F1500 X25.542 Y65.14 E56.13235
G1 X25.472 Y65.07
G0 F4500 X26.763 Y66.926
G1 F1500 X28.071 Y68.235 E56.22467
G1 X28.141 Y68.305
G1 F2400 E52.22467
G0 F4500 X46.159 Y62.221
G0 X47.436 Y62.346
G0 X47.539 Y62.086
G0 X48.797 Y61.962
G0 X48.92 Y62.205
G0 X48.822 Y62.224
;TYPE:WALL-INNER
G1 F2400 E56.22467
G1 F1500 X48.603 Y60 E56.33616
G1 X48.822 Y57.776 E56.44766
G1 X49.469 Y55.639 E56.55905
G1 X50.523 Y53.67 E56.67047
G1 X51.941 Y51.941 E56.78203
G1 X53.67 Y50.523 E56.89359
G1 X55.639 Y49.469 E57.00502
G1 X57.776 Y48.822 E57.11641
G1 X60 Y48.603 E57.2279
G1 X62.224 Y48.822 E57.3394
G1 X64.361 Y49.469 E57.45079
G1 X66.33 Y50.523 E57.56221
G1 X68.059 Y51.941 E57.67377
G1 X69.477 Y53.67 E57.78533
G1 X70.531 Y55.639 E57.89675
G1 X71.178 Y57.776 E58.00815
G1 X71.397 Y60 E58.11964
G1 X71.178 Y62.224 E58.23113
G1 X70.531 Y64.361 E58.34253
G1 X69.477 Y66.33 E58.45395
G1 X68.059 Y68.059 E58.56551
G1 X66.33 Y69.477 E58.67707
G1 X64.361 Y70.531 E58.78849
G1 X62.224 Y71.178 E58.89989
G1 X60 Y71.397 E59.01138
G1 X57.776 Y71.178 E59.12287
G1 X55.639 Y70.531 E59.23427
G1 X53.67 Y69.477 E59.34569
G1 X51.941 Y68.059 E59.45725
G1 X50.523 Y66.33 E59.56881
G1 X49.469 Y64.361 E59.68023
G1 X48.822 Y62.224 E59.79163
G0 F4500 X48.92 Y62.205
G0 X62.205 Y48.92
G0 X62.304 Y48.428
;TYPE:WALL-OUTER
G1 F1500 X64.516 Y49.098 E59.90693
G1 X66.552 Y50.188 E60.02215
G1 X68.343 Y51.657 E60.13772
G1 X69.813 Y53.448 E60.25331
G1 X70.902 Y55.484 E60.36851
G1 X71.572 Y57.696 E60.48382
G1 X71.799 Y60 E60.59932
G1 X71.572 Y62.304 E60.71482
G1 X70.902 Y64.516 E60.83013
G1 X69.813 Y66.552 E60.94532
G1 X68.343 Y68.343 E61.06092
G1 X66.552 Y69.813 E61.17652
G1 X64.516 Y70.902 E61.29171
G1 X62.304 Y71.572 E61.40702
G1 X60 Y71.799 E61.52252
G1 X57.696 Y71.572 E61.63803
G1 X55.484 Y70.902 E61.75334
G1 X53.448 Y69.813 E61.86853
G1 X51.657 Y68.343 E61.98413
G1 X50.187 Y66.552 E62.09972
G1 X49.098 Y64.516 E62.21492
G1 X48.428 Y62.304 E62.33022
G1 X48.201 Y60 E62.44573
G1 X48.428 Y57.696 E62.56123
G1 X49.098 Y55.484 E62.67654
G1 X50.187 Y53.448 E62.79173
G1 X51.657 Y51.657 E62.90733
G1 X53.448 Y50.187 E63.02293
G1 X55.484 Y49.098 E63.13812
G1 X57.696 Y48.428 E63.25343
G1 X60 Y48.201 E63.36893
G1 X62.304 Y48.428 E63.48444
G0 F4500 X62.495 Y48.485
G0 X62.35 Y48.963
G0 X62.15 Y49.216
;TYPE:WALL-INNER
G1 F1500 X64.209 Y49.839 E63.59176
G1 X66.1 Y50.853 E63.69881
G1 X67.775 Y52.225 E63.80683
G1 X69.147 Y53.9 E63.91485
G1 X70.161 Y55.791 E64.0219
G1 X70.784 Y57.85 E64.12922
G1 X70.995 Y60 E64.237
G1 X70.784 Y62.15 E64.34478
G1 X70.161 Y64.209 E64.45211
G1 X69.147 Y66.1 E64.55916
G1 X67.775 Y67.775 E64.66718
G1 X66.1 Y69.147 E64.7752
G1 X64.209 Y70.161 E64.88225
G1 X62.15 Y70.784 E64.98957
G1 X60 Y70.995 E65.09735
G1 X57.85 Y70.784 E65.20513
G1 X55.791 Y70.161 E65.31245
G1 X53.9 Y69.147 E65.4195
G1 X52.225 Y67.775 E65.52753
G1 X50.853 Y66.1 E65.63555
G1 X49.839 Y64.209 E65.7426
G1 X49.216 Y62.15 E65.84992
G1 X49.005 Y60 E65.9577
G1 X49.216 Y57.85 E66.06548
G1 X49.839 Y55.791 E66.1728
G1 X50.853 Y53.9 E66.27985
G1 X52.225 Y52.225 E66.38787
G1 X53.9 Y50.853 E66.49589
G1 X55.791 Y49.839 E66.60294
G1 X57.85 Y49.216 E66.71027
G1 X60 Y49.005 E66.81805
G1 X62.15 Y49.216 E66.92583
G0 F4500 X67.735 Y52.462
;TYPE:SKIN
G1 F1500 X67.537 Y52.263 E66.93983
G0 F4500 X65.378 Y50.67
G1 F1500 X69.329 Y54.621 E67.2186
G1 X69.399 Y54.691
G0 F4500 X69.983 Y55.84
G1 F1500 X64.159 Y50.017 E67.62947
G1 X64.089 Y49.947
G0 F4500 X63.34 Y49.764
G1 F1500 X70.236 Y56.659 E68.11599
G1 X70.306 Y56.729
G0 F4500 X70.482 Y57.471
G1 F1500 X62.528 Y49.517 E68.67719
G1 X62.458 Y49.447
G0 F4500 X61.808 Y49.363
G1 F1500 X70.637 Y58.192 E69.30012
G1 X70.707 Y58.262
G0 F4500 X70.698 Y58.819
G1 F1500 X61.181 Y49.301 E69.97163
G1 X61.111 Y49.231
G0 F4500 X60.554 Y49.24
G1 F1500 X70.759 Y59.445 E70.69165
G1 X70.829 Y59.515
G0 F4500 X70.807 Y60.059
G1 F1500 X59.94 Y49.192 E71.45838
G1 X59.87 Y49.122
G0 F4500 X59.425 Y49.242
G1 F1500 X70.757 Y60.575 E72.25794
G1 X70.827 Y60.645
G0 F4500 X70.707 Y61.09
G1 F1500 X58.909 Y49.293 E73.09032
G1 X58.839 Y49.223
G0 F4500 X58.394 Y49.343
G1 F1500 X70.656 Y61.605 E73.95547
G1 X70.726 Y61.675
G0 F4500 X70.606 Y62.12
G1 F1500 X57.879 Y49.394 E74.8534
G1 X57.809 Y49.324
G0 F4500 X57.445 Y49.525
G1 F1500 X70.474 Y62.554 E75.77266
G1 X70.544 Y62.624
G0 F4500 X70.342 Y62.989
G1 F1500 X57.011 Y49.657 E76.71327
G1 X56.941 Y49.587
G0 F4500 X56.577 Y49.788
G1 F1500 X70.211 Y63.423 E77.67526
G1 X70.281 Y63.493
G0 F4500 X70.079 Y63.857
G1 F1500 X56.142 Y49.92 E78.65859
G1 X56.072 Y49.85
G0 F4500 X55.732 Y50.075
G1 F1500 X69.925 Y64.268 E79.65998
G1 X69.995 Y64.338
G0 F4500 X69.727 Y64.636
G1 F1500 X55.363 Y50.272 E80.67344
G1 X55.293 Y50.202
G0 F4500 X54.995 Y50.469
G1 F1500 X69.53 Y65.005 E81.699
G1 X69.6 Y65.075
G0 F4500 X69.332 Y65.372
G1 F1500 X54.627 Y50.667 E82.73652
G1 X54.557 Y50.597
G0 F4500 X54.259 Y50.865
G1 F1500 X69.135 Y65.741 E83.7861
G1 X69.205 Y65.811
G0 F4500 X68.92 Y66.092
G1 F1500 X53.907 Y51.079 E84.84535
G1 X53.837 Y51.009
G0 F4500 X53.597 Y51.334
G1 F1500 X68.665 Y66.402 E85.90847
G1 X68.735 Y66.472
G0 F4500 X68.411 Y66.714
G1 F1500 X53.286 Y51.589 E86.97562
G1 X53.216 Y51.519
G0 F4500 X52.975 Y51.843
G1 F1500 X68.156 Y67.025 E88.04676
G1 X68.226 Y67.095
G0 F4500 X67.902 Y67.336
G1 F1500 X52.663 Y52.098 E89.12192
G1 X52.593 Y52.028
G0 F4500 X52.352 Y52.352
G1 F1500 X67.646 Y67.646 E90.20099
G1 X67.716 Y67.716
G0 F4500 X67.335 Y67.901
G1 F1500 X52.097 Y52.663 E91.27612
G1 X52.027 Y52.593
G0 F4500 X51.842 Y52.974
G1 F1500 X67.024 Y68.155 E92.34725
G1 X67.094 Y68.225
G0 F4500 X66.713 Y68.41
G1 F1500 X51.588 Y53.285 E93.4144
G1 X51.518 Y53.215
G0 F4500 X51.333 Y53.596
G1 F1500 X66.402 Y68.665 E94.4776
G1 X66.472 Y68.735
G0 F4500 X66.091 Y68.92
G1 F1500 X51.078 Y53.906 E95.53689
G1 X51.008 Y53.836
G0 F4500 X50.864 Y54.258
G1 F1500 X65.74 Y69.134 E96.58647
G1 X65.81 Y69.204
G0 F4500 X65.372 Y69.331
G1 F1500 X50.667 Y54.626 E97.62399
G1 X50.597 Y54.556
G0 F4500 X50.469 Y54.994
G1 F1500 X65.004 Y69.529 E98.64951
G1 X65.074 Y69.599
G0 F4500 X64.635 Y69.727
G1 F1500 X50.271 Y55.362 E99.663
G1 X50.201 Y55.292
G0 F4500 X50.074 Y55.731
G1 F1500 X64.267 Y69.924 E100.6644
G1 X64.337 Y69.994
G0 F4500 X63.856 Y70.079
G1 F1500 X49.919 Y56.142 E101.64773
G1 X49.849 Y56.072
G0 F4500 X49.788 Y56.576
G1 F1500 X63.422 Y70.21 E102.60968
G1 X63.492 Y70.28
G0 F4500 X62.988 Y70.342
G1 F1500 X49.656 Y57.01 E103.55032
G1 X49.586 Y56.94
G0 F4500 X49.525 Y57.444
G1 F1500 X62.554 Y70.473 E104.46959
G1 X62.624 Y70.543
G0 F4500 X62.12 Y70.605
G1 F1500 X49.393 Y57.878 E105.36755
G1 X49.323 Y57.808
G0 F4500 X49.342 Y58.393
G1 F1500 X61.605 Y70.656 E106.23277
G1 X61.675 Y70.726
G0 F4500 X61.089 Y70.706
G1 F1500 X49.292 Y58.909 E107.06511
G1 X49.222 Y58.839
G0 F4500 X49.242 Y59.424
G1 F1500 X60.574 Y70.756 E107.86464
G1 X60.644 Y70.826
G0 F4500 X60.058 Y70.806
G1 F1500 X49.192 Y59.94 E108.6313
G1 X49.122 Y59.87
G0 F4500 X49.24 Y60.553
G1 F1500 X59.445 Y70.758 E109.35132
G1 X59.515 Y70.828
G0 F4500 X58.818 Y70.697
G1 F1500 X49.3 Y61.18 E110.02283
G1 X49.23 Y61.11
G0 F4500 X49.362 Y61.807
G1 F1500 X58.191 Y70.636 E110.64576
G1 X58.261 Y70.706
G0 F4500 X57.47 Y70.481
G1 F1500 X49.517 Y62.528 E111.20689
G1 X49.447 Y62.458
G0 F4500 X49.763 Y63.339
G1 F1500 X56.659 Y70.235 E111.69344
G1 X56.729 Y70.305
G0 F4500 X55.84 Y69.982
G1 F1500 X50.016 Y64.158 E112.10435
G1 X49.946 Y64.088
G0 F4500 X50.669 Y65.377
G1 F1500 X54.621 Y69.328 E112.38315
G1 X54.691 Y69.398
G0 F4500 X52.461 Y67.735
G1 F1500 X52.262 Y67.536 E112.39719
G1 F2400 E108.39719
G0 F4500 X68.045 Y68.045
G0 X69.037 Y68.859
G0 X80.046 Y71.647
G0 X80.646 Y70.522
G0 X80.725 Y70.51
G0 X80.627 Y70.524
;TYPE:WALL-INNER
G1 F2400 E112.39719
G1 F1500 X81.033 Y70.254 E112.42152
G1 X80.983 Y69.748 E112.44689
G1 X80.995 Y69.62 E112.4533
G1 X81.032 Y69.499 E112.45961
G1 X81.099 Y69.374 E112.46669
G1 X81.178 Y69.278 E112.47289
G1 X81.274 Y69.199 E112.47909
G1 X81.399 Y69.132 E112.48617
G1 X81.52 Y69.095 E112.49248
G1 X81.65 Y69.083 E112.499
G1 X81.78 Y69.095 E112.50551
G1 X81.901 Y69.132 E112.51182
G1 X82.027 Y69.199 E112.51894
G1 X82.116 Y69.272 E112.52468
G1 X82.215 Y69.398 E112.53268
G1 X82.267 Y69.494 E112.53813
G1 X82.305 Y69.618 E112.5446
G1 X82.317 Y69.749 E112.55116
G1 X82.305 Y69.88 E112.55772
G1 X82.267 Y70.001 E112.56405
G1 X82.21 Y70.108 E112.5701
G1 X82.117 Y70.226 E112.57759
G1 X81.847 Y70.449 E112.59506
G1 X81.877 Y70.599 E112.6027
G1 X81.942 Y70.926 E112.61933
G1 X81.623 Y70.829 E112.62882
G1 X80.924 Y70.615 E112.66358
G1 X80.627 Y70.524 E112.66949
G1 F2400 E108.66949
G0 F4500 X80.725 Y70.51
G0 X82.297 Y69.749
G0 X83.575 Y69.626
G0 X86.424 Y69.626
G0 X87.703 Y69.749
G0 X87.783 Y69.749
G0 X87.683 Y69.749
G1 F2400 E112.66949
G1 F1500 X87.695 Y69.62 E112.67596
G1 X87.733 Y69.499 E112.68228
