;FLAVOR:Marlin
;TIME:1529
;Filament used: 1.03431m
;Layer height: 0.175
;Generated with Cura_SteamEngine 3.0.3
M190 S60
M104 S210
M109 S210
M82 ; absolute extrusion mode
G28 ;Home all axes
G1 Z0.2 F1200 ;Raise nozzle
G92 E0 ;reset extrusion distance
G1 X100 Y0 E12 F600 ;purge nozzle
G92 E0 ;reset extrusion distance
;LAYER_COUNT:55
;LAYER:0
M107
G0 F4500 X26.659 Y46.844 Z0.3
;TYPE:SKIRT
G1 F1500 X28.716 Y45.747 E0.11631
G1 X29.365 Y45.479 E0.15134
G1 X31.613 Y44.797 E0.26854
G1 X32.301 Y44.66 E0.30354
G1 X34.632 Y44.428 E0.4204
G1 X35.327 Y44.426 E0.45508
G1 X39.385 Y44.809 E0.65843
G1 X44.847 Y45.114 E0.93136
G1 X50.307 Y45.11 E1.20376
G1 X55.774 Y44.795 E1.47696
G1 X57.308 Y44.645 E1.55386
G1 X57.326 Y44.643 E1.55476
G1 X59.672 Y44.425 E1.67231
G1 X60.309 Y44.423 E1.70409
G1 X67.123 Y45.001 E2.04526
G1 X72.594 Y45.151 E2.31831
G1 X78.028 Y44.992 E2.58953
G1 X84.739 Y44.425 E2.92554
G1 X85.401 Y44.43 E2.95857
G1 X87.716 Y44.662 E3.07464
G1 X88.402 Y44.799 E3.10954
G1 X90.617 Y45.471 E3.22502
G1 X91.268 Y45.741 E3.26018
G1 X93.363 Y46.86 E3.37868
G1 X93.951 Y47.252 E3.41393
G1 X95.752 Y48.73 E3.53017
G1 X96.248 Y49.226 E3.56516
G1 X97.75 Y51.052 E3.68312
G1 X98.145 Y51.642 E3.71855
G1 X99.25 Y53.71 E3.83552
G1 X99.52 Y54.362 E3.87073
G1 X100.203 Y56.613 E3.98809
G1 X100.34 Y57.301 E4.02309
G1 X100.572 Y59.63 E4.13986
G1 X100.573 Y60.341 E4.17533
G1 X100.339 Y62.71 E4.2941
G1 X100.201 Y63.401 E4.32925
G1 X99.529 Y65.617 E4.44478
G1 X99.26 Y66.267 E4.47987
G1 X98.142 Y68.362 E4.59835
G1 X97.736 Y68.966 E4.63465
G1 X96.192 Y70.826 E4.75526
G1 X95.701 Y71.314 E4.78979
G1 X93.927 Y72.765 E4.90413
G1 X93.344 Y73.154 E4.9391
G1 X91.312 Y74.239 E5.05402
G1 X90.642 Y74.514 E5.09016
G1 X88.272 Y75.219 E5.21352
G1 X87.602 Y75.35 E5.24757
G1 X85.365 Y75.572 E5.35973
G1 X84.67 Y75.574 E5.3944
G1 X80.612 Y75.191 E5.59776
G1 X75.153 Y74.886 E5.87053
G1 X69.693 Y74.89 E6.14293
G1 X64.226 Y75.205 E6.41613
G1 X62.692 Y75.355 E6.49303
G1 X62.675 Y75.356 E6.49388
G1 X60.337 Y75.574 E6.61103
G1 X59.699 Y75.577 E6.64286
G1 X52.877 Y74.999 E6.98443
G1 X47.406 Y74.849 E7.25748
G1 X41.977 Y75.008 E7.52845
G1 X35.301 Y75.577 E7.86273
G1 X34.641 Y75.573 E7.89565
G1 X32.315 Y75.343 E8.01226
G1 X31.619 Y75.204 E8.04767
G1 X29.329 Y74.506 E8.16711
G1 X28.679 Y74.235 E8.20225
G1 X26.633 Y73.139 E8.31804
G1 X26.034 Y72.736 E8.35406
G1 X24.174 Y71.192 E8.47466
G1 X23.684 Y70.698 E8.50938
G1 X22.23 Y68.916 E8.62412
G1 X21.84 Y68.329 E8.65928
G1 X20.73 Y66.239 E8.77735
G1 X20.458 Y65.577 E8.81305
G1 X19.782 Y63.305 E8.93131
G1 X19.65 Y62.628 E8.96572
G1 X19.427 Y60.345 E9.08017
G1 X19.427 Y59.641 E9.11529
G1 X19.657 Y57.314 E9.23195
G1 X19.796 Y56.619 E9.26731
G1 X20.491 Y54.337 E9.38632
G1 X20.761 Y53.687 E9.42144
G1 X21.855 Y51.643 E9.5371
G1 X22.257 Y51.045 E9.57305
G1 X23.806 Y49.176 E9.69416
G1 X24.299 Y48.687 E9.7288
G1 X26.074 Y47.235 E9.84321
G1 X26.659 Y46.844 E9.87831
G0 F4500 X26.847 Y47.197
G1 F1500 X28.904 Y46.1 E9.99462
G1 X29.481 Y45.862 E10.02576
G1 X31.729 Y45.18 E10.14296
G1 X32.341 Y45.058 E10.17409
G1 X34.672 Y44.826 E10.29096
G1 X35.29 Y44.824 E10.32179
G1 X39.354 Y45.208 E10.52545
G1 X44.842 Y45.514 E10.79967
G1 X50.313 Y45.51 E11.07262
G1 X55.811 Y45.194 E11.34737
G1 X57.347 Y45.043 E11.42437
G1 X57.363 Y45.042 E11.42517
G1 X59.709 Y44.824 E11.54272
G1 X60.275 Y44.821 E11.57096
G1 X67.113 Y45.401 E11.91333
G1 X72.578 Y45.55 E12.18608
G1 X78.056 Y45.391 E12.4595
G1 X84.773 Y44.823 E12.7958
G1 X85.361 Y44.828 E12.82514
G1 X87.676 Y45.06 E12.94122
G1 X88.286 Y45.182 E12.97225
G1 X90.501 Y45.854 E13.08773
G1 X91.08 Y46.093 E13.11898
G1 X93.175 Y47.212 E13.23748
G1 X93.697 Y47.561 E13.2688
G1 X95.498 Y49.039 E13.38504
G1 X95.939 Y49.48 E13.41616
G1 X97.441 Y51.306 E13.53411
G1 X97.792 Y51.831 E13.56562
G1 X98.897 Y53.899 E13.6826
G1 X99.137 Y54.478 E13.71387
G1 X99.82 Y56.729 E13.83123
G1 X99.942 Y57.341 E13.86236
G1 X100.174 Y59.67 E13.97913
G1 X100.175 Y60.302 E14.01066
G1 X99.941 Y62.671 E14.12943
G1 X99.818 Y63.285 E14.16067
G1 X99.146 Y65.501 E14.2762
G1 X98.907 Y66.079 E14.3074
G1 X97.789 Y68.174 E14.42587
G1 X97.428 Y68.711 E14.45815
G1 X95.884 Y70.571 E14.57876
G1 X95.448 Y71.004 E14.60941
G1 X93.674 Y72.455 E14.72375
G1 X93.155 Y72.801 E14.75487
G1 X91.123 Y73.886 E14.8698
G1 X90.528 Y74.13 E14.90188
G1 X88.158 Y74.835 E15.02524
G1 X87.562 Y74.952 E15.05554
G1 X85.325 Y75.174 E15.16769
G1 X84.708 Y75.176 E15.19848
G1 X80.646 Y74.792 E15.40203
G1 X75.158 Y74.486 E15.67626
G1 X69.687 Y74.49 E15.94921
G1 X64.189 Y74.806 E16.22395
G1 X62.653 Y74.957 E16.30096
G1 X62.638 Y74.958 E16.30171
G1 X60.3 Y75.176 E16.41885
G1 X59.733 Y75.179 E16.44714
G1 X52.888 Y74.599 E16.78987
G1 X47.422 Y74.45 E17.06267
G1 X41.932 Y74.61 E17.33668
G1 X35.267 Y75.178 E17.6704
G1 X34.68 Y75.174 E17.69969
G1 X32.354 Y74.944 E17.8163
G1 X31.736 Y74.821 E17.84774
G1 X29.446 Y74.123 E17.96717
G1 X28.868 Y73.883 E17.9984
G1 X26.822 Y72.787 E18.1142
G1 X26.289 Y72.428 E18.14626
G1 X24.429 Y70.884 E18.26686
G1 X23.994 Y70.445 E18.29769
G1 X22.54 Y68.663 E18.41244
G1 X22.193 Y68.141 E18.44371
G1 X21.083 Y66.051 E18.56177
G1 X20.842 Y65.463 E18.59348
G1 X20.166 Y63.191 E18.71174
G1 X20.048 Y62.589 E18.74234
G1 X19.825 Y60.306 E18.85678
G1 X19.826 Y59.68 E18.88801
G1 X20.056 Y57.353 E19.00468
G1 X20.179 Y56.736 E19.03606
G1 X20.874 Y54.454 E19.15508
G1 X21.114 Y53.876 E19.1863
G1 X22.208 Y51.832 E19.30196
G1 X22.565 Y51.3 E19.33393
G1 X24.114 Y49.431 E19.45503
G1 X24.552 Y48.996 E19.48583
G1 X26.327 Y47.544 E19.60024
G1 X26.847 Y47.197 E19.63143
G1 F2400 E15.63143
G0 F4500 X28.076 Y49.407
G0 X28.681 Y50.539
G0 X28.725 Y50.606
G0 X28.67 Y50.523
;TYPE:WALL-INNER
G1 F2400 E19.63143
G1 F1500 X30.639 Y49.469 E19.74285
G1 X32.776 Y48.822 E19.85425
G1 X35 Y48.603 E19.96574
G1 X37.224 Y48.822 E20.07723
G1 X39.361 Y49.469 E20.18863
G1 X41.33 Y50.523 E20.30005
G1 X43.059 Y51.941 E20.41161
G1 X44.477 Y53.67 E20.52317
G1 X45.531 Y55.639 E20.63459
G1 X46.178 Y57.776 E20.74598
G1 X46.397 Y60 E20.85748
G1 X46.178 Y62.224 E20.96897
G1 X45.531 Y64.361 E21.08036
G1 X44.477 Y66.33 E21.19179
G1 X43.059 Y68.059 E21.30335
G1 X41.33 Y69.477 E21.41491
G1 X39.361 Y70.531 E21.52633
G1 X37.224 Y71.178 E21.63772
G1 X35 Y71.397 E21.74922
G1 X32.776 Y71.178 E21.86071
G1 X30.639 Y70.531 E21.9721
G1 X28.67 Y69.477 E22.08353
G1 X26.941 Y68.059 E22.19509
G1 X25.523 Y66.33 E22.30665
G1 X24.469 Y64.361 E22.41807
G1 X23.822 Y62.224 E22.52946
G1 X23.603 Y60 E22.64095
G1 X23.822 Y57.776 E22.75245
G1 X24.469 Y55.639 E22.86384
G1 X25.523 Y53.67 E22.97526
G1 X26.941 Y51.941 E23.08682
G1 X28.67 Y50.523 E23.19838
G0 F4500 X28.725 Y50.606
G0 X37.205 Y48.92
G0 X37.304 Y48.428
;TYPE:WALL-OUTER
G1 F1500 X39.516 Y49.098 E23.31369
G1 X41.552 Y50.187 E23.42889
G1 X43.343 Y51.657 E23.54448
G1 X44.813 Y53.448 E23.66008
G1 X45.902 Y55.484 E23.77527
G1 X46.572 Y57.696 E23.89058
G1 X46.799 Y60 E24.00608
G1 X46.572 Y62.304 E24.12159
G1 X45.902 Y64.516 E24.2369
G1 X44.813 Y66.552 E24.35209
G1 X43.343 Y68.343 E24.46769
G1 X41.552 Y69.813 E24.58328
G1 X39.516 Y70.902 E24.69848
G1 X37.304 Y71.572 E24.81379
G1 X35 Y71.799 E24.92929
G1 X32.696 Y71.572 E25.04479
G1 X30.484 Y70.902 E25.1601
G1 X28.448 Y69.813 E25.27529
G1 X26.657 Y68.343 E25.39089
G1 X25.187 Y66.552 E25.50649
G1 X24.098 Y64.516 E25.62168
G1 X23.428 Y62.304 E25.73699
G1 X23.201 Y60 E25.85249
G1 X23.428 Y57.696 E25.968
G1 X24.098 Y55.484 E26.08331
G1 X25.187 Y53.448 E26.1985
G1 X26.657 Y51.657 E26.3141
G1 X28.448 Y50.187 E26.42969
G1 X30.484 Y49.098 E26.54489
G1 X32.696 Y48.428 E26.66019
G1 X35 Y48.201 E26.7757
G1 X37.304 Y48.428 E26.8912
G0 F4500 X37.495 Y48.485
G0 X37.35 Y48.963
G0 X37.15 Y49.216
;TYPE:WALL-INNER
G1 F1500 X39.209 Y49.839 E26.99852
G1 X41.1 Y50.853 E27.10557
G1 X42.775 Y52.225 E27.2136
G1 X44.147 Y53.9 E27.32162
G1 X45.161 Y55.791 E27.42867
G1 X45.784 Y57.85 E27.53599
G1 X45.995 Y60 E27.64377
G1 X45.784 Y62.15 E27.75155
G1 X45.161 Y64.209 E27.85887
G1 X44.147 Y66.1 E27.96592
G1 X42.775 Y67.775 E28.07394
G1 X41.1 Y69.147 E28.18196
G1 X39.209 Y70.161 E28.28901
G1 X37.15 Y70.784 E28.39634
G1 X35 Y70.995 E28.50412
G1 X32.85 Y70.784 E28.6119
G1 X30.791 Y70.161 E28.71922
G1 X28.9 Y69.147 E28.82627
G1 X27.225 Y67.775 E28.93429
G1 X25.853 Y66.1 E29.04231
G1 X24.839 Y64.209 E29.14936
G1 X24.216 Y62.15 E29.25669
G1 X24.005 Y60 E29.36446
G1 X24.216 Y57.85 E29.47224
G1 X24.839 Y55.791 E29.57957
G1 X25.853 Y53.9 E29.68662
G1 X27.225 Y52.225 E29.79464
G1 X28.9 Y50.853 E29.90266
G1 X30.791 Y49.839 E30.00971
G1 X32.85 Y49.216 E30.11703
G1 X35 Y49.005 E30.22481
G1 X37.15 Y49.216 E30.33259
G0 F4500 X44.205 Y54.387
;TYPE:SKIN
G1 F1500 X40.611 Y50.794 E30.58613
G1 X40.541 Y50.724
G0 F4500 X39.393 Y50.141
G1 F1500 X44.858 Y55.606 E30.97172
G1 X44.928 Y55.676
G0 F4500 X45.189 Y56.502
G1 F1500 X38.497 Y49.81 E31.44387
G1 X38.427 Y49.74
G0 F4500 X37.685 Y49.564
G1 F1500 X45.435 Y57.314 E31.99068
G1 X45.505 Y57.384
G0 F4500 X45.625 Y58.07
G1 F1500 X36.929 Y49.374 E32.60423
G1 X36.859 Y49.304
G0 F4500 X36.302 Y49.312
G1 F1500 X45.686 Y58.697 E33.26636
G1 X45.756 Y58.767
G0 F4500 X45.747 Y59.324
G1 F1500 X35.675 Y49.252 E33.97699
G1 X35.605 Y49.182
G0 F4500 X35.048 Y49.19
G1 F1500 X45.809 Y59.951 E34.73624
G1 X45.879 Y60.021
G0 F4500 X45.767 Y60.475
G1 F1500 X34.524 Y49.232 E35.52949
G1 X34.454 Y49.162
G0 F4500 X34.009 Y49.282
G1 F1500 X45.717 Y60.99 E36.35555
G1 X45.787 Y61.06
G0 F4500 X45.667 Y61.506
G1 F1500 X33.493 Y49.332 E37.21449
G1 X33.423 Y49.262
G0 F4500 X32.978 Y49.382
G1 F1500 X45.616 Y62.021 E38.10621
G1 X45.686 Y62.091
G0 F4500 X45.5 Y62.47
G1 F1500 X32.529 Y49.499 E39.02138
G1 X32.459 Y49.429
G0 F4500 X32.094 Y49.631
G1 F1500 X45.368 Y62.904 E39.9579
G1 X45.438 Y62.974
G0 F4500 X45.237 Y63.339
G1 F1500 X31.66 Y49.762 E40.91583
G1 X31.59 Y49.692
G0 F4500 X31.226 Y49.894
G1 F1500 X45.105 Y63.773 E41.89507
G1 X45.175 Y63.843
G0 F4500 X44.963 Y64.196
G1 F1500 X30.802 Y50.036 E42.89417
G1 X30.732 Y49.966
G0 F4500 X30.434 Y50.233
G1 F1500 X44.766 Y64.565 E43.90537
G1 X44.836 Y64.635
G0 F4500 X44.568 Y64.932
G1 F1500 X30.066 Y50.431 E44.92853
G1 X29.996 Y50.361
G0 F4500 X29.698 Y50.628
G1 F1500 X44.37 Y65.301 E45.96375
G1 X44.44 Y65.371
G0 F4500 X44.173 Y65.669
G1 F1500 X29.33 Y50.826 E47.01101
G1 X29.26 Y50.756
G0 F4500 X28.968 Y51.029
G1 F1500 X43.97 Y66.031 E48.06948
G1 X44.04 Y66.101
G0 F4500 X43.715 Y66.342
G1 F1500 X28.656 Y51.284 E49.13194
G1 X28.586 Y51.214
G0 F4500 X28.346 Y51.539
G1 F1500 X43.46 Y66.653 E50.19831
G1 X43.53 Y66.723
G0 F4500 X43.205 Y66.964
G1 F1500 X28.035 Y51.794 E51.26864
G1 X27.965 Y51.724
G0 F4500 X27.724 Y52.048
G1 F1500 X42.951 Y67.275 E52.34298
G1 X43.021 Y67.345
G0 F4500 X42.696 Y67.586
G1 F1500 X27.413 Y52.303 E53.42128
G1 X27.343 Y52.233
G0 F4500 X27.147 Y52.603
G1 F1500 X42.395 Y67.851 E54.49711
G1 X42.465 Y67.921
G0 F4500 X42.084 Y68.106
G1 F1500 X26.891 Y52.913 E55.56906
G1 X26.821 Y52.843
G0 F4500 X26.637 Y53.224
G1 F1500 X41.773 Y68.36 E56.63699
G1 X41.843 Y68.43
G0 F4500 X41.462 Y68.615
G1 F1500 X26.382 Y53.535 E57.70096
G1 X26.312 Y53.465
G0 F4500 X26.128 Y53.846
G1 F1500 X41.151 Y68.87 E58.76095
G1 X41.221 Y68.94
G0 F4500 X40.812 Y69.096
G1 F1500 X25.902 Y54.186 E59.81293
G1 X25.832 Y54.116
G0 F4500 X25.704 Y54.554
G1 F1500 X40.443 Y69.293 E60.85285
G1 X40.513 Y69.363
G0 F4500 X40.075 Y69.49
G1 F1500 X25.507 Y54.923 E61.88066
G1 X25.437 Y54.853
G0 F4500 X25.31 Y55.291
G1 F1500 X39.706 Y69.688 E62.89641
G1 X39.776 Y69.758
G0 F4500 X39.339 Y69.886
G1 F1500 X25.112 Y55.659 E63.90021
G1 X25.042 Y55.589
G0 F4500 X24.944 Y56.057
G1 F1500 X38.941 Y70.053 E64.88773
G1 X39.011 Y70.123
G0 F4500 X38.506 Y70.185
G1 F1500 X24.813 Y56.491 E65.85388
G1 X24.743 Y56.421
G0 F4500 X24.681 Y56.925
G1 F1500 X38.072 Y70.316 E66.79869
G1 X38.142 Y70.386
G0 F4500 X37.638 Y70.448
G1 F1500 X24.55 Y57.359 E67.72216
G1 X24.48 Y57.289
G0 F4500 X24.418 Y57.793
G1 F1500 X37.204 Y70.579 E68.62428
G1 X37.274 Y70.649
G0 F4500 X36.705 Y70.646
G1 F1500 X24.352 Y58.293 E69.49585
G1 X24.282 Y58.223
G0 F4500 X24.301 Y58.808
G1 F1500 X36.189 Y70.696 E70.33461
G1 X36.259 Y70.766
G0 F4500 X35.674 Y70.746
G1 F1500 X24.251 Y59.324 E71.14053
G1 X24.181 Y59.254
G0 F4500 X24.201 Y59.839
G1 F1500 X35.158 Y70.796 E71.91361
G1 X35.228 Y70.866
G0 F4500 X34.566 Y70.77
G1 F1500 X24.227 Y60.431 E72.64308
G1 X24.157 Y60.361
G0 F4500 X24.289 Y61.058
G1 F1500 X33.939 Y70.709 E73.32397
G1 X34.009 Y70.779
G0 F4500 X33.312 Y70.647
G1 F1500 X24.35 Y61.685 E73.95629
G1 X24.28 Y61.615
G0 F4500 X24.47 Y62.371
G1 F1500 X32.627 Y70.528 E74.53181
G1 X32.697 Y70.598
G0 F4500 X31.816 Y70.282
G1 F1500 X24.715 Y63.182 E75.03279
G1 X24.645 Y63.112
G0 F4500 X24.96 Y63.993
G1 F1500 X31.005 Y70.037 E75.45926
G1 X31.075 Y70.107
G0 F4500 X29.858 Y69.456
G1 F1500 X25.542 Y65.14 E75.76378
G1 X25.472 Y65.07
G0 F4500 X26.763 Y66.926
G1 F1500 X28.071 Y68.235 E75.8561
G1 X28.141 Y68.305
G1 F2400 E71.8561
G0 F4500 X46.159 Y62.221
G0 X47.436 Y62.346
G0 X47.539 Y62.086
G0 X48.797 Y61.962
G0 X48.92 Y62.205
G0 X48.822 Y62.224
;TYPE:WALL-INNER
G1 F2400 E75.8561
G1 F1500 X48.603 Y60 E75.96759
G1 X48.822 Y57.776 E76.07909
G1 X49.469 Y55.639 E76.19048
G1 X50.523 Y53.67 E76.3019
G1 X51.941 Y51.941 E76.41346
G1 X53.67 Y50.523 E76.52502
G1 X55.639 Y49.469 E76.63644
G1 X57.776 Y48.822 E76.74784
G1 X60 Y48.603 E76.85933
G1 X62.224 Y48.822 E76.97082
G1 X64.361 Y49.469 E77.08222
G1 X66.33 Y50.523 E77.19364
G1 X68.059 Y51.941 E77.3052
G1 X69.477 Y53.67 E77.41676
G1 X70.531 Y55.639 E77.52818
G1 X71.178 Y57.776 E77.63958
G1 X71.397 Y60 E77.75107
G1 X71.178 Y62.224 E77.86256
G1 X70.531 Y64.361 E77.97396
G1 X69.477 Y66.33 E78.08538
G1 X68.059 Y68.059 E78.19694
G1 X66.33 Y69.477 E78.3085
G1 X64.361 Y70.531 E78.41992
G1 X62.224 Y71.178 E78.53132
G1 X60 Y71.397 E78.64281
G1 X57.776 Y71.178 E78.7543
G1 X55.639 Y70.531 E78.8657
G1 X53.67 Y69.477 E78.97712
G1 X51.941 Y68.059 E79.08868
G1 X50.523 Y66.33 E79.20024
G1 X49.469 Y64.361 E79.31166
G1 X48.822 Y62.224 E79.42306
G0 F4500 X48.92 Y62.205
G0 X62.205 Y48.92
G0 X62.304 Y48.428
;TYPE:WALL-OUTER
G1 F1500 X64.516 Y49.098 E79.53836
G1 X66.552 Y50.188 E79.65358
G1 X68.343 Y51.657 E79.76915
G1 X69.813 Y53.448 E79.88474
G1 X70.902 Y55.484 E79.99994
G1 X71.572 Y57.696 E80.11524
G1 X71.799 Y60 E80.23075
G1 X71.572 Y62.304 E80.34625
G1 X70.902 Y64.516 E80.46156
G1 X69.813 Y66.552 E80.57675
G1 X68.343 Y68.343 E80.69235
G1 X66.552 Y69.813 E80.80795
G1 X64.516 Y70.902 E80.92314
G1 X62.304 Y71.572 E81.03845
G1 X60 Y71.799 E81.15395
G1 X57.696 Y71.572 E81.26946
G1 X55.484 Y70.902 E81.38476
G1 X53.448 Y69.813 E81.49996
G1 X51.657 Y68.343 E81.61555
G1 X50.187 Y66.552 E81.73115
G1 X49.098 Y64.516 E81.84634
G1 X48.428 Y62.304 E81.96165
G1 X48.201 Y60 E82.07716
G1 X48.428 Y57.696 E82.19266
G1 X49.098 Y55.484 E82.30797
G1 X50.187 Y53.448 E82.42316
G1 X51.657 Y51.657 E82.53876
G1 X53.448 Y50.187 E82.65436
G1 X55.484 Y49.098 E82.76955
G1 X57.696 Y48.428 E82.88486
G1 X60 Y48.201 E83.00036
G1 X62.304 Y48.428 E83.11586
G0 F4500 X62.495 Y48.485
G0 X62.35 Y48.963
G0 X62.15 Y49.216
;TYPE:WALL-INNER
G1 F1500 X64.209 Y49.839 E83.22319
G1 X66.1 Y50.853 E83.33024
G1 X67.775 Y52.225 E83.43826
G1 X69.147 Y53.9 E83.54628
G1 X70.161 Y55.791 E83.65333
G1 X70.784 Y57.85 E83.76065
G1 X70.995 Y60 E83.86843
G1 X70.784 Y62.15 E83.97621
G1 X70.161 Y64.209 E84.08354
G1 X69.147 Y66.1 E84.19059
G1 X67.775 Y67.775 E84.29861
G1 X66.1 Y69.147 E84.40663
G1 X64.209 Y70.161 E84.51368
G1 X62.15 Y70.784 E84.621
G1 X60 Y70.995 E84.72878
G1 X57.85 Y70.784 E84.83656
G1 X55.791 Y70.161 E84.94388
G1 X53.9 Y69.147 E85.05093
G1 X52.225 Y67.775 E85.15895
G1 X50.853 Y66.1 E85.26698
G1 X49.839 Y64.209 E85.37403
G1 X49.216 Y62.15 E85.48135
G1 X49.005 Y60 E85.58913
G1 X49.216 Y57.85 E85.69691
G1 X49.839 Y55.791 E85.80423
G1 X50.853 Y53.9 E85.91128
G1 X52.225 Y52.225 E86.0193
G1 X53.9 Y50.853 E86.12732
G1 X55.791 Y49.839 E86.23437
G1 X57.85 Y49.216 E86.3417
G1 X60 Y49.005 E86.44948
G1 X62.15 Y49.216 E86.55725
G0 F4500 X67.735 Y52.462
;TYPE:SKIN
G1 F1500 X67.537 Y52.263 E86.57126
G0 F4500 X65.378 Y50.67
G1 F1500 X69.329 Y54.621 E86.85002
G1 X69.399 Y54.691
G0 F4500 X69.983 Y55.84
G1 F1500 X64.159 Y50.017 E87.2609
