;FLAVOR:Marlin
;TIME:310
;Filament used: 0.137101m
;Layer height: 0.1
;Generated with Cura_SteamEngine 3.0.3
M190 S60
M104 S210
M109 S210
M82 ; absolute extrusion mode
G28 ;Home all axes
G1 Z0.2 F1200 ;Raise nozzle
G92 E0 ;reset extrusion distance
G1 X100 Y0 E12 F600 ;purge nozzle
G92 E0 ;reset extrusion distance
;LAYER_COUNT:28
;LAYER:0
M107
G0 F3600 X53.19 Y53.354 Z0.3
;TYPE:WALL-INNER
G1 F1770 X54.619 Y52.193 E0.09186
G1 X56.27 Y51.319 E0.18506
G1 X58.053 Y50.783 E0.27794
G1 X59.903 Y50.603 E0.37067
G1 X61.753 Y50.783 E0.46341
G1 X63.536 Y51.319 E0.55629
G1 X65.187 Y52.193 E0.64949
G1 X66.616 Y53.354 E0.74135
G1 X67.798 Y54.781 E0.83379
G1 X68.676 Y56.408 E0.92603
G1 X69.215 Y58.165 E1.01772
G1 X69.397 Y60 E1.10972
G1 X69.215 Y61.835 E1.20171
G1 X68.676 Y63.592 E1.2934
G1 X67.798 Y65.219 E1.38564
G1 X66.616 Y66.646 E1.47808
G1 X65.187 Y67.807 E1.56994
G1 X63.536 Y68.681 E1.66314
G1 X61.753 Y69.217 E1.75603
G1 X61.068 Y69.284 E1.79036
G1 X60.719 Y69.317 E1.80785
G1 X60.283 Y69.36 E1.82971
G1 X60.111 Y69.377 E1.83833
G1 X60.28 Y69.331
G1 X60.7 Y69.12 E1.84582
G1 X60.977 Y68.905 E1.85904
G1 X61.072 Y68.832 E1.86502
G1 X61.381 Y68.476 E1.88854
G1 X61.614 Y68.067 E1.91202
G1 X61.764 Y67.621 E1.9355
G1 X61.823 Y67.152 E1.95908
G1 X61.789 Y66.682 E1.98259
G1 X61.665 Y66.228 E2.00607
G1 X61.454 Y65.807 E2.02957
G1 X61.166 Y65.436 E2.053
G1 X60.811 Y65.126 E2.07651
G1 X60.401 Y64.892 E2.10006
G1 X59.981 Y64.753 E2.12213
G1 X57.585 Y64.208 E2.24472
G1 X57.146 Y64.152 E2.2668
G1 X56.676 Y64.186 E2.29031
G1 X56.223 Y64.309 E2.31373
G1 X55.801 Y64.52 E2.33727
G1 X55.429 Y64.809 E2.36077
G1 X55.12 Y65.164 E2.38425
G1 X54.886 Y65.574 E2.40781
G1 X54.738 Y66.02 E2.43125
G1 X54.678 Y66.487 E2.45474
G1 X54.712 Y66.957 E2.47825
G1 X54.836 Y67.413 E2.50183
G1 X54.92 Y67.58 E2.51115
G1 X54.95 Y67.639 E2.51445
G1 X55.047 Y67.833 E2.52528
G1 X55.31 Y68.173 E2.54672
G1 X54.964 Y67.99 E2.54755
G1 X54.619 Y67.807 E2.56152
G1 X54.567 Y67.765 E2.56473
G1 X53.19 Y66.646 E2.65325
G1 X52.008 Y65.219 E2.7457
G1 X51.13 Y63.592 E2.83793
G1 X50.888 Y62.805 E2.87901
G1 X50.81 Y62.548 E2.89241
G1 X51.078 Y62.548 E2.90041
G1 X51.079 Y62.548 E2.90046
G1 X53.713 Y62.538 E3.03187
G1 X53.713 Y57.462 E3.28511
G1 X51.079 Y57.452 E3.41652
G1 X51.078 Y57.452 E3.41657
G1 X50.81 Y57.452 E3.42994
G1 X50.888 Y57.195 E3.43795
G1 X51.13 Y56.408 E3.47903
G1 X52.008 Y54.781 E3.57127
G1 X53.19 Y53.354 E3.66371
G0 F3600 X53.26 Y53.425
G0 X53.741 Y57.434
G0 X53.813 Y62.139
G0 X53.313 Y62.139
;TYPE:WALL-OUTER
G1 F1770 X53.313 Y57.861 E3.87714
G1 X50.539 Y57.85 E4.01554
G1 X50.538 Y57.85 E4.01559
G1 X50.27 Y57.85 E4.02896
G1 X50.348 Y57.593 E4.03697
G1 X50.76 Y56.251 E4.10701
G1 X51.674 Y54.557 E4.20304
G1 X52.906 Y53.07 E4.29938
G1 X54.401 Y51.855 E4.39549
G1 X56.115 Y50.948 E4.49224
G1 X57.975 Y50.389 E4.58914
G1 X59.903 Y50.201 E4.68578
G1 X61.831 Y50.389 E4.78242
G1 X63.691 Y50.948 E4.87932
G1 X65.405 Y51.855 E4.97607
G1 X66.9 Y53.07 E5.07218
G1 X68.132 Y54.557 E5.16852
G1 X69.046 Y56.251 E5.26455
G1 X69.609 Y58.088 E5.36041
G1 X69.799 Y60 E5.45627
G1 X69.609 Y61.912 E5.55213
G1 X69.046 Y63.749 E5.64798
G1 X68.132 Y65.443 E5.74401
G1 X66.9 Y66.93 E5.84035
G1 X65.405 Y68.145 E5.93647
G1 X63.691 Y69.052 E6.03321
G1 X61.831 Y69.611 E6.13011
G1 X59.903 Y69.799 E6.22675
G1 X57.975 Y69.611 E6.3234
G1 X56.115 Y69.052 E6.42029
G1 X54.401 Y68.145 E6.51704
G1 X52.906 Y66.93 E6.61315
G1 X51.674 Y65.443 E6.70949
G1 X50.76 Y63.749 E6.80552
G1 X50.348 Y62.407 E6.87556
G1 X50.27 Y62.15 E6.88896
G1 X50.538 Y62.15 E6.89695
G1 X50.539 Y62.15 E6.897
G1 X53.313 Y62.139 E7.0354
G0 F3600 X53.313 Y61.939
G0 X53.813 Y61.939
G0 X56.708 Y64.084
G0 X56.744 Y64.582
G1 F1770 X56.366 Y64.685 E7.05495
G1 X56.015 Y64.86 E7.07451
G1 X55.705 Y65.101 E7.0941
G1 X55.448 Y65.397 E7.11366
G1 X55.253 Y65.738 E7.13326
G1 X55.13 Y66.109 E7.15276
G1 X55.08 Y66.498 E7.17233
G1 X55.108 Y66.89 E7.19193
G1 X55.211 Y67.269 E7.21153
G1 X55.387 Y67.619 E7.23107
G1 X55.627 Y67.929 E7.25063
G1 X55.924 Y68.187 E7.27026
G1 X56.264 Y68.38 E7.28976
G1 X56.627 Y68.502 E7.30887
G1 X58.986 Y69.039 E7.42957
G1 X59.366 Y69.087 E7.44868
G1 X59.757 Y69.059 E7.46824
G1 X60.136 Y68.956 E7.48783
G1 X60.486 Y68.78 E7.50738
G1 X60.796 Y68.54 E7.52693
G1 X61.053 Y68.244 E7.54649
G1 X61.247 Y67.903 E7.56606
G1 X61.372 Y67.531 E7.58564
G1 X61.421 Y67.141 E7.60525
G1 X61.393 Y66.75 E7.62481
G1 X61.29 Y66.372 E7.64436
G1 X61.114 Y66.021 E7.66395
G1 X60.874 Y65.712 E7.68347
G1 X60.578 Y65.454 E7.70306
G1 X60.237 Y65.259 E7.72265
G1 X59.874 Y65.139 E7.74173
G1 X57.515 Y64.602 E7.86243
G1 X57.135 Y64.554 E7.88154
G1 X56.744 Y64.582 E7.9011
G0 F3600 X56.551 Y64.634
G0 X56.421 Y64.152
G0 X56.079 Y63.933
;TYPE:WALL-INNER
G1 F1770 X55.587 Y64.18 E7.92856
G1 X55.153 Y64.517 E7.95597
G1 X54.792 Y64.932 E7.98342
G1 X54.518 Y65.41 E8.0109
G1 X54.346 Y65.93 E8.03823
G1 X54.276 Y66.475 E8.06564
G1 X54.323 Y67.052 E8.09452
G1 X53.476 Y66.364 E8.14897
G1 X52.34 Y64.993 E8.23779
G1 X51.5 Y63.436 E8.32606
G1 X51.35 Y62.946 E8.35162
G1 X54.113 Y62.936 E8.48947
G1 X54.113 Y57.064 E8.78243
G1 X51.35 Y57.054 E8.92027
G1 X51.5 Y56.564 E8.94584
G1 X52.34 Y55.007 E9.0341
G1 X53.476 Y53.636 E9.12293
G1 X54.835 Y52.533 E9.21025
G1 X56.422 Y51.693 E9.29984
G1 X58.137 Y51.177 E9.38919
G1 X59.903 Y51.005 E9.47771
G1 X61.669 Y51.177 E9.56623
G1 X63.384 Y51.693 E9.65558
G1 X64.971 Y52.533 E9.74517
G1 X66.33 Y53.636 E9.83249
G1 X67.466 Y55.007 E9.92132
G1 X68.306 Y56.564 E10.00958
G1 X68.821 Y58.243 E10.0972
G1 X68.995 Y60 E10.18528
G1 X68.821 Y61.757 E10.27337
G1 X68.306 Y63.436 E10.36099
G1 X67.466 Y64.993 E10.44925
G1 X66.33 Y66.364 E10.53808
G1 X64.971 Y67.467 E10.6254
G1 X63.384 Y68.307 E10.71498
G1 X61.669 Y68.823 E10.80433
G1 X61.603 Y68.83 E10.80764
G1 X61.709 Y68.708 E10.81571
G1 X61.98 Y68.231 E10.84308
G1 X62.156 Y67.711 E10.87047
G1 X62.225 Y67.162 E10.89807
G1 X62.185 Y66.614 E10.92548
G1 X62.041 Y66.084 E10.95288
G1 X61.794 Y65.593 E10.98031
G1 X61.458 Y65.16 E11.00765
G1 X61.044 Y64.798 E11.03509
G1 X60.565 Y64.524 E11.06262
G1 X60.089 Y64.367 E11.08762
G1 X57.655 Y63.814 E11.21215
G1 X57.156 Y63.75 E11.23725
G1 X56.608 Y63.79 E11.26466
G1 X56.079 Y63.933 E11.292
G0 F3600 X54.151 Y66.031
;TYPE:SKIN
G1 F1770 X51.876 Y63.755 E11.45255
G1 X51.806 Y63.685
G0 F3600 X51.809 Y63.123
G1 F1770 X54.27 Y65.584 E11.62619
G1 X54.34 Y65.654
G0 F3600 X54.438 Y65.186
G1 F1770 X52.373 Y63.121 E11.77188
G1 X52.303 Y63.051
G0 F3600 X52.937 Y63.119
G1 F1770 X54.644 Y64.826 E11.89232
G1 X54.714 Y64.896
G0 F3600 X54.907 Y64.524
G1 F1770 X53.501 Y63.117 E11.99156
G1 X53.431 Y63.047
G0 F3600 X54.064 Y63.115
G1 F1770 X55.2 Y64.251 E12.07171
G1 X55.27 Y64.321
G0 F3600 X55.524 Y64.009
G1 F1770 X54.292 Y62.777 E12.15863
G1 X54.222 Y62.707
G0 F3600 X54.292 Y62.211
G1 F1770 X55.9 Y63.819 E12.27209
G1 X55.97 Y63.889
G0 F3600 X56.324 Y63.678
G1 F1770 X54.292 Y61.646 E12.41545
G1 X54.222 Y61.576
G0 F3600 X54.292 Y61.08
G1 F1770 X56.805 Y63.593 E12.59276
G1 X56.875 Y63.663
G0 F3600 X57.372 Y63.595
G1 F1770 X54.292 Y60.514 E12.81011
G1 X54.222 Y60.444
G0 F3600 X54.292 Y59.949
G1 F1770 X58.064 Y63.721 E13.07624
G1 X58.134 Y63.791
G0 F3600 X58.796 Y63.887
G1 F1770 X54.292 Y59.383 E13.39402
G1 X54.222 Y59.313
G0 F3600 X54.292 Y58.817
G1 F1770 X59.529 Y64.054 E13.76352
G1 X59.599 Y64.124
G0 F3600 X60.279 Y64.239
G1 F1770 X54.292 Y58.252 E14.18594
G1 X54.222 Y58.182
G0 F3600 X54.292 Y57.686
G1 F1770 X64.249 Y67.643 E14.88846
G1 X64.319 Y67.713
G0 F3600 X64.619 Y67.448
G1 F1770 X54.292 Y57.12 E15.61712
G1 X54.222 Y57.05
G0 F3600 X54.054 Y56.882
G1 F1770 X52.415 Y55.244 E15.73272
G1 X52.345 Y55.174
G0 F3600 X52.65 Y54.913
G1 F1770 X64.971 Y67.233 E16.602
G1 X65.041 Y67.303
G0 F3600 X65.283 Y66.98
G1 F1770 X52.906 Y54.603 E17.47526
G1 X52.836 Y54.533
G0 F3600 X53.163 Y54.294
G1 F1770 X65.595 Y66.726 E18.35241
G1 X65.665 Y66.796
G0 F3600 X65.908 Y66.473
G1 F1770 X53.419 Y53.985 E19.23354
G1 X53.349 Y53.915
G0 F3600 X53.692 Y53.692
G1 F1770 X66.217 Y66.217 E20.11725
G1 X66.287 Y66.287
G0 F3600 X66.473 Y65.908
G1 F1770 X54.004 Y53.438 E20.99704
G1 X53.934 Y53.368
G0 F3600 X54.316 Y53.185
G1 F1770 X66.73 Y65.599 E21.87291
G1 X66.8 Y65.669
G0 F3600 X66.986 Y65.289
G1 F1770 X54.628 Y52.931 E22.74484
G1 X54.558 Y52.861
G0 F3600 X54.942 Y52.68
G1 F1770 X67.243 Y64.98 E23.6127
G1 X67.313 Y65.05
G0 F3600 X67.457 Y64.629
G1 F1770 X55.312 Y52.484 E24.4696
G1 X55.242 Y52.414
G0 F3600 X55.682 Y52.288
G1 F1770 X67.655 Y64.261 E25.31436
G1 X67.725 Y64.331
G0 F3600 X67.854 Y63.894
G1 F1770 X56.052 Y52.092 E26.14705
G1 X55.982 Y52.022
G0 F3600 X56.422 Y51.896
G1 F1770 X68.052 Y63.527 E26.96765
G1 X68.122 Y63.597
G0 F3600 X68.213 Y63.122
G1 F1770 X56.845 Y51.753 E27.76976
G1 X56.775 Y51.683
G0 F3600 X57.279 Y51.623
G1 F1770 X68.346 Y62.689 E28.55056
G1 X68.416 Y62.759
G0 F3600 X68.479 Y62.257
G1 F1770 X57.714 Y51.492 E29.31009
G1 X57.644 Y51.422
G0 F3600 X58.149 Y51.361
G1 F1770 X68.611 Y61.823 E30.04824
G1 X68.681 Y61.893
G0 F3600 X68.682 Y61.328
G1 F1770 X58.66 Y51.306 E30.75534
G1 X58.59 Y51.236
G0 F3600 X59.176 Y51.256
G1 F1770 X68.733 Y60.814 E31.42968
G1 X68.803 Y60.884
G0 F3600 X68.784 Y60.299
G1 F1770 X59.691 Y51.206 E32.07124
G1 X59.621 Y51.136
G0 F3600 X60.273 Y51.222
G1 F1770 X68.788 Y59.737 E32.67202
G1 X68.858 Y59.807
G0 F3600 X68.725 Y59.109
G1 F1770 X60.9 Y51.283 E33.22415
G1 X60.83 Y51.213
G0 F3600 X61.526 Y51.344
G1 F1770 X68.663 Y58.481 E33.7277
G1 X68.733 Y58.551
G0 F3600 X68.474 Y57.726
G1 F1770 X62.306 Y51.557 E34.16292
G1 X62.236 Y51.487
G0 F3600 X63.114 Y51.801
G1 F1770 X68.223 Y56.91 E34.52339
G1 X68.293 Y56.98
G0 F3600 X67.7 Y55.821
G1 F1770 X64.219 Y52.34 E34.76899
G1 X64.149 Y52.27
G0 F3600 X53.486 Y56.88
G1 F1770 X52.217 Y55.611 E34.85853
G1 X52.147 Y55.541
G0 F3600 X52.019 Y55.978
G1 F1770 X52.918 Y56.878 E34.92199
G1 X52.988 Y56.948
G0 F3600 X52.085 Y56.61
G1 F1770 X51.709 Y56.801 E34.94587
G0 F3600 X51.782 Y56.874
G0 X53.741 Y57.434
G0 X53.741 Y62.566
G0 X52.701 Y65.146
G1 F1770 X54.101 Y66.546 E35.04465
G1 X54.171 Y66.616
G0 F3600 X55.088 Y65.141
G0 X55.402 Y64.78
G0 X55.78 Y64.487
G0 X56.209 Y64.272
G0 X56.67 Y64.147
G0 X57.147 Y64.113
G0 X59.991 Y64.715
G0 X60.417 Y64.856
G0 X60.834 Y65.094
G0 X62.266 Y66.226
G1 F1770 X63.879 Y67.839 E35.15846
G1 X63.949 Y67.909
G0 F3600 X63.509 Y68.034
G1 F1770 X62.387 Y66.912 E35.23762
G1 X62.317 Y66.842
G0 F3600 X62.368 Y67.459
G1 F1770 X63.108 Y68.199 E35.28983
G1 X63.178 Y68.269
G0 F3600 X62.472 Y68.129
G1 F1770 X62.179 Y68.402 E35.30816
G0 F3600 X62.238 Y68.461
G0 X60.352 Y69.296
G0 X60.294 Y69.368
G0 X60.229 Y69.35
G0 X60.209 Y69.36
G0 X59.805 Y69.421
G1 F1770 X59.53 Y69.43 E35.31914
G1 X59.214 Y69.396 E35.32977
G1 X58.881 Y69.346 E35.34123
G1 X58.541 Y69.289 E35.35435
G1 X58.202 Y69.232 E35.36927
G1 X57.862 Y69.176 E35.38612
G1 X57.492 Y69.088 E35.40362
G1 X57.106 Y68.986 E35.42045
G1 X56.716 Y68.878 E35.43595
G1 X56.273 Y68.718 E35.45234
G1 X55.793 Y68.521 E35.47169
G1 X55.428 Y68.439 E35.48414
G0 F3600 X55.234 Y68.109
G0 X55.014 Y67.854
G0 X54.799 Y67.427
G0 X54.673 Y66.963
G0 X54.639 Y66.486
G0 X54.699 Y66.012
G0 X53.26 Y53.425
G0 X53.19 Y53.354
;TIME_ELAPSED:27.862659
;LAYER:1
M140 S60
M106 S255
G0 F5400 X53.19 Y53.354 Z0.4
;TYPE:WALL-INNER
G1 F2655 X54.619 Y52.193 E35.51476
G1 X56.27 Y51.319 E35.54583
G1 X58.053 Y50.783 E35.57679
G1 X59.903 Y50.603 E35.6077
G1 X61.753 Y50.783 E35.63861
G1 X63.536 Y51.319 E35.66958
G1 X65.187 Y52.193 E35.70064
G1 X66.616 Y53.354 E35.73126
G1 X67.798 Y54.781 E35.76208
G1 X68.676 Y56.408 E35.79282
G1 X69.215 Y58.165 E35.82338
G1 X69.397 Y60 E35.85405
G1 X69.215 Y61.835 E35.88472
G1 X68.676 Y63.592 E35.91528
G1 X67.798 Y65.219 E35.94602
G1 X66.616 Y66.646 E35.97684
G1 X65.187 Y67.807 E36.00746
G1 X63.536 Y68.681 E36.03852
G1 X61.753 Y69.217 E36.06949
G1 X61.068 Y69.284 E36.08093
G1 X60.719 Y69.317 E36.08676
G1 X60.283 Y69.36 E36.09405
G1 X60.111 Y69.377 E36.09692
G1 X60.28 Y69.331
G1 X60.7 Y69.12 E36.09942
G1 X60.977 Y68.905 E36.10383
G1 X61.072 Y68.832 E36.10582
G1 X61.381 Y68.476 E36.11366
G1 X61.614 Y68.067 E36.12149
G1 X61.764 Y67.621 E36.12931
G1 X61.823 Y67.152 E36.13717
G1 X61.789 Y66.682 E36.14501
G1 X61.665 Y66.228 E36.15284
G1 X61.454 Y65.807 E36.16067
G1 X61.166 Y65.436 E36.16848
G1 X60.811 Y65.126 E36.17631
G1 X60.401 Y64.892 E36.18417
G1 X59.981 Y64.753 E36.19152
G1 X57.585 Y64.208 E36.23239
G1 X57.146 Y64.152 E36.23975
G1 X56.676 Y64.186 E36.24758
G1 X56.223 Y64.309 E36.25539
G1 X55.801 Y64.52 E36.26323
G1 X55.429 Y64.809 E36.27107
G1 X55.12 Y65.164 E36.2789
G1 X54.886 Y65.574 E36.28675
G1 X54.738 Y66.02 E36.29456
G1 X54.678 Y66.487 E36.30239
G1 X54.712 Y66.957 E36.31023
G1 X54.836 Y67.413 E36.31809
G1 X54.92 Y67.58 E36.3212
G1 X54.95 Y67.639 E36.3223
G1 X55.047 Y67.833 E36.3259
G1 X55.31 Y68.173 E36.33305
G1 X54.964 Y67.99 E36.33333
G1 X54.619 Y67.807 E36.33798
G1 X54.567 Y67.765 E36.33905
G1 X53.19 Y66.646 E36.36856
G1 X52.008 Y65.219 E36.39938
G1 X51.13 Y63.592 E36.43012
G1 X50.888 Y62.805 E36.44382
G1 X50.81 Y62.548 E36.44828
G1 X51.078 Y62.548 E36.45095
G1 X51.079 Y62.548 E36.45096
G1 X53.712 Y62.538 E36.49475
G1 X53.712 Y57.462 E36.57916
G1 X51.079 Y57.452 E36.62295
G1 X51.078 Y57.452 E36.62297
G1 X50.81 Y57.452 E36.62743
G1 X50.888 Y57.195 E36.6301
G1 X51.13 Y56.408 E36.64379
G1 X52.008 Y54.781 E36.67453
G1 X53.19 Y53.354 E36.70535
G0 F5400 X53.26 Y53.425
G0 X53.74 Y57.434
G0 X53.812 Y62.139
G0 X53.312 Y62.139
;TYPE:WALL-OUTER
G1 F1770 X53.312 Y57.861 E36.77649
G1 X50.539 Y57.85 E36.82261
G1 X50.538 Y57.85 E36.82262
G1 X50.27 Y57.85 E36.82708
G1 X50.348 Y57.593 E36.82975
G1 X50.76 Y56.251 E36.8531
G1 X51.674 Y54.557 E36.88511
G1 X52.906 Y53.07 E36.91722
G1 X54.401 Y51.855 E36.94926
G1 X56.115 Y50.948 E36.98151
G1 X57.975 Y50.389 E37.01381
G1 X59.903 Y50.201 E37.04602
G1 X61.831 Y50.389 E37.07824
G1 X63.691 Y50.948 E37.11053
G1 X65.405 Y51.855 E37.14278
G1 X66.9 Y53.07 E37.17482
G1 X68.132 Y54.557 E37.20693
G1 X69.046 Y56.251 E37.23894
G1 X69.609 Y58.088 E37.2709
G1 X69.799 Y60 E37.30285
G1 X69.609 Y61.912 E37.3348
G1 X69.046 Y63.749 E37.36676
G1 X68.132 Y65.443 E37.39877
G1 X66.9 Y66.93 E37.43088
G1 X65.405 Y68.145 E37.46292
G1 X63.691 Y69.052 E37.49517
G1 X61.831 Y69.611 E37.52746
G1 X59.903 Y69.799 E37.55968
G1 X57.975 Y69.611 E37.59189
G1 X56.115 Y69.052 E37.62419
G1 X54.401 Y68.145 E37.65644
G1 X52.906 Y66.93 E37.68848
G1 X51.674 Y65.443 E37.72059
G1 X50.76 Y63.749 E37.7526
G1 X50.348 Y62.407 E37.77595
G1 X50.27 Y62.15 E37.78041
G1 X50.538 Y62.15 E37.78308
G1 X50.539 Y62.15 E37.7831
G1 X53.312 Y62.139 E37.82921
G0 F5400 X53.312 Y61.939
G0 X53.812 Y61.939
G0 X56.708 Y64.084
G0 X56.744 Y64.582
G1 F1770 X56.366 Y64.685 E37.83573
G1 X56.015 Y64.86 E37.84225
G1 X55.705 Y65.101 E37.84878
G1 X55.448 Y65.397 E37.8553
G1 X55.253 Y65.738 E37.86183
G1 X55.13 Y66.109 E37.86833
G1 X55.08 Y66.498 E37.87485
G1 X55.108 Y66.89 E37.88139
G1 X55.211 Y67.269 E37.88792
G1 X55.387 Y67.619 E37.89444
G1 X55.627 Y67.929 E37.90095
G1 X55.924 Y68.187 E37.9075
G1 X56.264 Y68.38 E37.914
G1 X56.627 Y68.502 E37.92037
G1 X58.986 Y69.039 E37.9606
G1 X59.366 Y69.087 E37.96697
G1 X59.757 Y69.059 E37.97349
G1 X60.136 Y68.956 E37.98002
G1 X60.486 Y68.78 E37.98654
G1 X60.796 Y68.54 E37.99306
G1 X61.053 Y68.244 E37.99958
G1 X61.247 Y67.903 E38.0061
G1 X61.372 Y67.531 E38.01263
G1 X61.421 Y67.141 E38.01916
G1 X61.393 Y66.75 E38.02568
G1 X61.29 Y66.372 E38.0322
G1 X61.114 Y66.021 E38.03873
G1 X60.874 Y65.712 E38.04523
G1 X60.578 Y65.454 E38.05176
G1 X60.237 Y65.259 E38.0583
G1 X59.874 Y65.139 E38.06465
G1 X57.515 Y64.602 E38.10489
G1 X57.135 Y64.554 E38.11126
G1 X56.744 Y64.582 E38.11778
G0 F5400 X56.551 Y64.634
G0 X56.421 Y64.152
G0 X56.079 Y63.933
;TYPE:WALL-INNER
G1 F2655 X55.587 Y64.18 E38.12693
G1 X55.153 Y64.517 E38.13607
G1 X54.792 Y64.932 E38.14522
G1 X54.518 Y65.41 E38.15438
G1 X54.346 Y65.93 E38.16349
G1 X54.276 Y66.475 E38.17263
G1 X54.323 Y67.052 E38.18225
G1 X53.476 Y66.364 E38.2004
G1 X52.34 Y64.993 E38.23001
G1 X51.5 Y63.436 E38.25943
G1 X51.35 Y62.946 E38.26795
G1 X54.112 Y62.936 E38.31388
G1 X54.112 Y57.064 E38.41154
G1 X51.35 Y57.054 E38.45747
G1 X51.5 Y56.564 E38.46599
