;FLAVOR:Marlin
;TIME:790
;Filament used: 0.320561m
;Layer height: 0.1
;Generated with Cura_SteamEngine 3.0.3
M190 S60
M104 S210
M109 S210
M82 ; absolute extrusion mode
G28 ;Home all axes
G1 Z0.2 F1200 ;Raise nozzle
G92 E0 ;reset extrusion distance
G1 X100 Y0 E12 F600 ;purge nozzle
G92 E0 ;reset extrusion distance
;LAYER_COUNT:63
;LAYER:0
M107
G0 F3600 X52.09 Y42.281 Z0.3
;TYPE:WALL-INNER
G1 F1770 X53.259 Y40.855 E0.09199
G1 X54.685 Y39.686 E0.18399
G1 X56.308 Y38.817 E0.27583
G1 X58.07 Y38.283 E0.36769
G1 X59.904 Y38.103 E0.45963
G1 X61.738 Y38.283 E0.55157
G1 X63.5 Y38.817 E0.64342
G1 X65.123 Y39.686 E0.73527
G1 X66.549 Y40.855 E0.82726
G1 X67.718 Y42.281 E0.91926
G1 X68.587 Y43.904 E1.0111
G1 X69.121 Y45.666 E1.10296
G1 X69.301 Y47.5 E1.1949
G1 X69.121 Y49.334 E1.28684
G1 X68.587 Y51.096 E1.37869
G1 X67.718 Y52.719 E1.47054
G1 X66.549 Y54.145 E1.56253
G1 X65.123 Y55.314 E1.65453
G1 X63.5 Y56.183 E1.74637
G1 X61.738 Y56.717 E1.83823
G1 X59.904 Y56.897 E1.93017
G1 X58.07 Y56.717 E2.0221
G1 X56.308 Y56.183 E2.11396
G1 X54.685 Y55.314 E2.20581
G1 X53.259 Y54.145 E2.2978
G1 X52.09 Y52.719 E2.38979
G1 X51.221 Y51.096 E2.48164
G1 X50.981 Y50.303 E2.52298
G1 X50.904 Y50.047 E2.53632
G1 X51.171 Y50.047 E2.5443
G1 X51.172 Y50.047 E2.54435
G1 X53.778 Y50.038 E2.67436
G1 X53.779 Y44.962 E2.9276
G1 X51.172 Y44.952 E3.05767
G1 X51.171 Y44.952 E3.05772
G1 X50.904 Y44.952 E3.07104
G1 X50.981 Y44.696 E3.07903
G1 X51.221 Y43.904 E3.12032
G1 X52.09 Y42.281 E3.21217
G0 F3600 X52.173 Y42.336
G0 X53.807 Y44.934
G0 X53.878 Y49.64
G0 X53.378 Y49.639
;TYPE:WALL-OUTER
G1 F1770 X53.379 Y45.361 E3.4256
G1 X50.633 Y45.35 E3.5626
G1 X50.632 Y45.35 E3.56265
G1 X50.365 Y45.35 E3.57597
G1 X50.442 Y45.094 E3.58396
G1 X50.85 Y43.749 E3.65408
G1 X51.754 Y42.059 E3.7497
G1 X52.975 Y40.571 E3.84573
G1 X54.463 Y39.35 E3.94176
G1 X56.153 Y38.446 E4.03738
G1 X57.99 Y37.889 E4.13315
G1 X59.904 Y37.701 E4.2291
G1 X61.818 Y37.889 E4.32505
G1 X63.655 Y38.446 E4.42082
G1 X65.345 Y39.35 E4.51644
G1 X66.833 Y40.571 E4.61247
G1 X68.054 Y42.059 E4.7085
G1 X68.958 Y43.749 E4.80412
G1 X69.515 Y45.586 E4.89988
G1 X69.703 Y47.5 E4.99583
G1 X69.515 Y49.414 E5.09178
G1 X68.958 Y51.251 E5.18755
G1 X68.054 Y52.941 E5.28317
G1 X66.833 Y54.429 E5.3792
G1 X65.345 Y55.65 E5.47523
G1 X63.655 Y56.554 E5.57085
G1 X61.818 Y57.111 E5.66662
G1 X59.904 Y57.299 E5.76257
G1 X57.99 Y57.111 E5.85852
G1 X56.153 Y56.554 E5.95429
G1 X54.463 Y55.65 E6.04991
G1 X52.975 Y54.429 E6.14594
G1 X51.754 Y52.941 E6.24197
G1 X50.85 Y51.251 E6.33759
G1 X50.442 Y49.905 E6.40775
G1 X50.365 Y49.649 E6.42109
G1 X50.632 Y49.649 E6.42907
G1 X50.633 Y49.649 E6.42912
G1 X53.378 Y49.639 E6.56607
G0 F3600 X53.378 Y49.439
G0 X53.878 Y49.44
G0 X54.178 Y50.436
;TYPE:WALL-INNER
G1 F1770 X54.179 Y44.564 E6.85903
G1 X51.441 Y44.554 E6.99563
G1 X51.591 Y44.056 E7.02158
G1 X52.42 Y42.511 E7.10905
G1 X53.543 Y41.139 E7.19751
G1 X54.915 Y40.016 E7.28596
G1 X56.46 Y39.187 E7.37344
G1 X58.145 Y38.677 E7.46127
G1 X59.904 Y38.505 E7.54944
G1 X61.663 Y38.677 E7.63762
G1 X63.348 Y39.187 E7.72545
G1 X64.893 Y40.016 E7.81293
G1 X66.265 Y41.139 E7.90138
G1 X67.388 Y42.511 E7.98984
G1 X68.217 Y44.056 E8.07731
G1 X68.727 Y45.741 E8.16514
G1 X68.899 Y47.5 E8.25332
G1 X68.727 Y49.259 E8.34149
G1 X68.217 Y50.944 E8.42933
G1 X67.388 Y52.489 E8.5168
G1 X66.265 Y53.861 E8.60526
G1 X64.893 Y54.984 E8.69371
G1 X63.348 Y55.813 E8.78119
G1 X61.663 Y56.323 E8.86902
G1 X59.904 Y56.495 E8.95719
G1 X58.145 Y56.323 E9.04537
G1 X56.46 Y55.813 E9.1332
G1 X54.915 Y54.984 E9.22068
G1 X53.543 Y53.861 E9.30913
G1 X52.42 Y52.489 E9.39759
G1 X51.594 Y50.948 E9.48481
G1 X51.442 Y50.445 E9.51103
G1 X54.178 Y50.436 E9.64753
G0 F3600 X53.395 Y53.395
;TYPE:SKIN
G1 F1770 X54.009 Y54.009 E9.69085
G1 X54.079 Y54.079
G0 F3600 X55.844 Y55.278
G1 F1770 X52.122 Y51.557 E9.95342
G1 X52.052 Y51.487
G0 F3600 X52.319 Y50.622
G1 F1770 X57.696 Y55.999 E10.3328
G1 X57.766 Y56.069
G0 F3600 X58.433 Y56.17
G1 F1770 X52.883 Y50.62 E10.72438
G1 X52.813 Y50.55
G0 F3600 X53.447 Y50.618
G1 F1770 X59.059 Y56.231 E11.12037
G1 X59.129 Y56.301
G0 F3600 X59.686 Y56.292
G1 F1770 X54.01 Y50.616 E11.52085
G1 X53.94 Y50.546
G0 F3600 X54.357 Y50.397
G1 F1770 X60.24 Y56.28 E11.93592
G1 X60.31 Y56.35
G0 F3600 X60.756 Y56.23
G1 F1770 X54.357 Y49.831 E12.38741
G1 X54.287 Y49.761
G0 F3600 X54.357 Y49.266
G1 F1770 X61.271 Y56.18 E12.87523
G1 X61.341 Y56.25
G0 F3600 X61.761 Y56.104
G1 F1770 X54.357 Y48.7 E13.39762
G1 X54.287 Y48.63
G0 F3600 X54.357 Y48.134
G1 F1770 X62.195 Y55.973 E13.95067
G1 X62.265 Y56.043
G0 F3600 X62.629 Y55.841
G1 F1770 X54.357 Y47.569 E14.5343
G1 X54.287 Y47.499
G0 F3600 X54.357 Y47.003
G1 F1770 X63.064 Y55.71 E15.14863
G1 X63.134 Y55.78
G0 F3600 X63.464 Y55.544
G1 F1770 X54.357 Y46.437 E15.79118
G1 X54.287 Y46.367
G0 F3600 X54.357 Y45.872
G1 F1770 X63.832 Y55.347 E16.45969
G1 X63.902 Y55.417
G0 F3600 X64.201 Y55.15
G1 F1770 X54.357 Y45.306 E17.15424
G1 X54.287 Y45.236
G0 F3600 X54.357 Y44.74
G1 F1770 X64.569 Y54.952 E17.87475
G1 X64.639 Y55.022
G0 F3600 X64.914 Y54.732
G1 F1770 X52.67 Y42.487 E18.73866
G1 X52.6 Y42.417
G0 F3600 X52.924 Y42.176
G1 F1770 X65.225 Y54.477 E19.60657
G1 X65.295 Y54.547
G0 F3600 X65.536 Y54.223
G1 F1770 X53.179 Y41.865 E20.47845
G1 X53.109 Y41.795
G0 F3600 X53.433 Y41.554
G1 F1770 X65.847 Y53.968 E21.35433
G1 X65.917 Y54.038
G0 F3600 X66.155 Y53.71
G1 F1770 X53.693 Y41.248 E22.23359
G1 X53.623 Y41.178
G0 F3600 X54.004 Y40.993
G1 F1770 X66.41 Y53.399 E23.1089
G1 X66.48 Y53.469
G0 F3600 X66.664 Y53.088
G1 F1770 X54.315 Y40.739 E23.98019
G1 X54.245 Y40.669
G0 F3600 X54.626 Y40.484
G1 F1770 X66.919 Y52.777 E24.84753
G1 X66.989 Y52.847
G0 F3600 X67.174 Y52.466
G1 F1770 X54.937 Y40.229 E25.71091
G1 X54.867 Y40.159
G0 F3600 X55.291 Y40.018
G1 F1770 X67.385 Y52.112 E26.56421
G1 X67.455 Y52.182
G0 F3600 X67.583 Y51.743
G1 F1770 X55.659 Y39.82 E27.40548
G1 X55.589 Y39.75
G0 F3600 X56.028 Y39.623
G1 F1770 X67.78 Y51.375 E28.23465
G1 X67.85 Y51.445
G0 F3600 X67.978 Y51.007
G1 F1770 X56.396 Y39.425 E29.05182
G1 X56.326 Y39.355
G0 F3600 X56.806 Y39.269
G1 F1770 X68.133 Y50.597 E29.85103
G1 X68.203 Y50.667
G0 F3600 X68.265 Y50.163
G1 F1770 X57.24 Y39.138 E30.62891
G1 X57.17 Y39.068
G0 F3600 X57.674 Y39.006
G1 F1770 X68.397 Y49.729 E31.38547
G1 X68.467 Y49.799
G0 F3600 X68.528 Y49.295
G1 F1770 X58.108 Y38.875 E32.12066
G1 X58.038 Y38.805
G0 F3600 X58.611 Y38.812
G1 F1770 X68.591 Y48.792 E32.8248
G1 X68.661 Y48.862
G0 F3600 X68.641 Y48.277
G1 F1770 X59.126 Y38.762 E33.49614
G1 X59.056 Y38.692
G0 F3600 X59.642 Y38.711
G1 F1770 X68.691 Y47.761 E34.13463
G1 X68.761 Y47.831
G0 F3600 X68.687 Y47.191
G1 F1770 X60.212 Y38.716 E34.73259
G1 X60.142 Y38.646
G0 F3600 X60.839 Y38.777
G1 F1770 X68.626 Y46.564 E35.282
G1 X68.696 Y46.634
G0 F3600 X68.565 Y45.937
G1 F1770 X61.465 Y38.838 E35.78291
G1 X61.395 Y38.768
G0 F3600 X62.229 Y39.036
G1 F1770 X68.367 Y45.174 E36.21598
G1 X68.437 Y45.244
G0 F3600 X68.121 Y44.362
G1 F1770 X63.041 Y39.282 E36.5744
G1 X62.971 Y39.212
G0 F3600 X64.141 Y39.817
G1 F1770 X67.586 Y43.262 E36.81746
G1 X67.656 Y43.332
G0 F3600 X54 Y44.383
G1 F1770 X52.449 Y42.832 E36.92689
G1 X52.379 Y42.762
G0 F3600 X52.251 Y43.2
G1 F1770 X53.432 Y44.381 E37.01022
G1 X53.502 Y44.451
G0 F3600 X52.864 Y44.379
G1 F1770 X52.054 Y43.569 E37.06737
G1 X51.984 Y43.499
G0 F3600 X51.857 Y43.937
G1 F1770 X52.296 Y44.377 E37.09838
G0 F3600 X53.807 Y44.934
G0 X53.806 Y50.066
G0 X51.755 Y50.623
G1 F1770 X56.885 Y55.753 E37.46033
G1 X56.955 Y55.823
G1 F1500 E30.96033
G0 F3600 X58.073 Y56.698
G0 X57.949 Y57.975
G0 X58.589 Y61.963
G0 X58.713 Y63.22
G0 X58.089 Y63.381
G0 X58.07 Y63.283
;TYPE:WALL-INNER
G1 F1500 E37.46033
G1 F1770 X59.904 Y63.103 E37.55227
G1 X61.738 Y63.283 E37.6442
G1 X63.5 Y63.817 E37.73606
G1 X65.123 Y64.686 E37.82791
G1 X66.549 Y65.855 E37.9199
G1 X67.718 Y67.281 E38.01189
G1 X68.587 Y68.904 E38.10374
G1 X69.121 Y70.666 E38.1956
G1 X69.301 Y72.5 E38.28754
G1 X69.121 Y74.334 E38.37947
G1 X68.587 Y76.096 E38.47133
G1 X67.718 Y77.719 E38.56318
G1 X66.549 Y79.145 E38.65517
G1 X65.123 Y80.314 E38.74716
G1 X63.5 Y81.183 E38.83901
G1 X61.738 Y81.717 E38.93087
G1 X59.904 Y81.897 E39.02281
G1 X58.07 Y81.717 E39.11474
G1 X56.308 Y81.183 E39.2066
G1 X54.685 Y80.314 E39.29845
G1 X53.259 Y79.145 E39.39044
G1 X52.09 Y77.719 E39.48243
G1 X51.221 Y76.096 E39.57428
G1 X50.988 Y75.33 E39.61423
G1 X50.909 Y75.067 E39.62793
G1 X51.183 Y75.071 E39.63608
G1 X51.184 Y75.072 E39.63615
G1 X51.962 Y75.087 E39.67498
G1 X52.098 Y75.1 E39.68179
G1 X53.227 Y75.1 E39.73812
G1 X53.228 Y70.091 E39.98802
G1 X53.228 Y70.09 E39.98807
G1 X53.228 Y69.888 E39.99815
G1 X53.026 Y69.89 E40.00464
G1 X53.025 Y69.891 E40.00472
G1 X51.184 Y69.928 E40.09658
G1 X51.183 Y69.929 E40.09665
G1 X50.91 Y69.933 E40.11027
G1 X50.989 Y69.671 E40.11841
G1 X51.221 Y68.904 E40.15839
G1 X52.09 Y67.281 E40.25024
G1 X53.259 Y65.855 E40.34223
G1 X54.685 Y64.686 E40.43423
G1 X56.308 Y63.817 E40.52607
G1 X58.07 Y63.283 E40.61793
G0 F3600 X58.089 Y63.381
G0 X53.327 Y70.297
G0 X52.828 Y70.296
;TYPE:WALL-OUTER
G1 F1770 X52.625 Y70.299 E40.62806
G1 X52.624 Y70.3 E40.62813
G1 X50.642 Y70.339 E40.72703
G1 X50.641 Y70.34 E40.7271
G1 X50.367 Y70.344 E40.74077
G1 X50.446 Y70.081 E40.74895
G1 X50.85 Y68.749 E40.81839
G1 X51.754 Y67.059 E40.91401
G1 X52.975 Y65.571 E41.01004
G1 X54.463 Y64.35 E41.10607
G1 X56.153 Y63.446 E41.20169
G1 X57.99 Y62.889 E41.29746
G1 X59.904 Y62.701 E41.39341
G1 X61.818 Y62.889 E41.48936
G1 X63.655 Y63.446 E41.58512
G1 X65.345 Y64.35 E41.68074
G1 X66.833 Y65.571 E41.77677
G1 X68.054 Y67.059 E41.8728
G1 X68.958 Y68.749 E41.96842
G1 X69.515 Y70.586 E42.06419
G1 X69.703 Y72.5 E42.16014
G1 X69.515 Y74.414 E42.25609
G1 X68.958 Y76.251 E42.35186
G1 X68.054 Y77.941 E42.44748
G1 X66.833 Y79.429 E42.54351
G1 X65.345 Y80.65 E42.63954
G1 X63.655 Y81.554 E42.73516
G1 X61.818 Y82.111 E42.83093
G1 X59.904 Y82.299 E42.92688
G1 X57.99 Y82.111 E43.02283
G1 X56.153 Y81.554 E43.11859
G1 X54.463 Y80.65 E43.21421
G1 X52.975 Y79.429 E43.31024
G1 X51.754 Y77.941 E43.40627
G1 X50.85 Y76.251 E43.50189
G1 X50.446 Y74.919 E43.57134
G1 X50.367 Y74.656 E43.58504
G1 X50.641 Y74.66 E43.59319
G1 X50.642 Y74.661 E43.59326
G1 X51.983 Y74.687 E43.66018
G1 X52.117 Y74.7 E43.6669
G1 X52.827 Y74.7 E43.70232
G1 X52.828 Y70.5 E43.91186
G1 X52.828 Y70.499 E43.91191
G1 X52.828 Y70.296 E43.91843
G0 F3600 X52.628 Y70.298
G0 X52.62 Y69.799
G0 X53.628 Y69.48
;TYPE:WALL-INNER
G1 F1770 X51.452 Y69.523 E44.02701
G1 X51.594 Y69.052 E44.05156
G1 X52.42 Y67.511 E44.13878
G1 X53.543 Y66.139 E44.22724
G1 X54.915 Y65.016 E44.3157
G1 X56.46 Y64.187 E44.40317
G1 X58.145 Y63.677 E44.491
G1 X59.904 Y63.505 E44.57918
G1 X61.663 Y63.677 E44.66735
G1 X63.348 Y64.187 E44.75518
G1 X64.893 Y65.016 E44.84266
G1 X66.265 Y66.139 E44.93111
G1 X67.388 Y67.511 E45.01957
G1 X68.217 Y69.056 E45.10704
G1 X68.727 Y70.741 E45.19488
G1 X68.899 Y72.5 E45.28305
G1 X68.727 Y74.259 E45.37123
G1 X68.217 Y75.944 E45.45906
G1 X67.388 Y77.489 E45.54653
G1 X66.265 Y78.861 E45.63499
G1 X64.893 Y79.984 E45.72344
G1 X63.348 Y80.813 E45.81092
G1 X61.663 Y81.323 E45.89875
G1 X59.904 Y81.495 E45.98693
G1 X58.145 Y81.323 E46.0751
G1 X56.46 Y80.813 E46.16293
G1 X54.915 Y79.984 E46.25041
G1 X53.543 Y78.861 E46.33886
G1 X52.42 Y77.489 E46.42732
G1 X51.591 Y75.944 E46.51479
G1 X51.451 Y75.477 E46.53912
G1 X51.942 Y75.487 E46.56362
G1 X52.078 Y75.5 E46.57043
G1 X53.627 Y75.5 E46.64771
G1 X53.628 Y69.48 E46.94805
G0 F3600 X54.611 Y79.502
;TYPE:SKIN
G1 F1770 X52.9 Y77.79 E47.06881
G1 X52.83 Y77.72
G0 F3600 X51.997 Y76.321
G1 F1770 X56.079 Y80.403 E47.35682
G1 X56.149 Y80.473
G0 F3600 X57.042 Y80.801
G1 F1770 X51.907 Y75.666 E47.71912
G1 X51.837 Y75.596
G0 F3600 X52.486 Y75.679
G1 F1770 X57.853 Y81.046 E48.09779
G1 X57.923 Y81.116
G0 F3600 X58.554 Y81.181
G1 F1770 X53.052 Y75.679 E48.48598
G1 X52.982 Y75.609
G0 F3600 X53.617 Y75.679
G1 F1770 X59.181 Y81.243 E48.87855
G1 X59.251 Y81.313
G0 F3600 X59.807 Y81.303
G1 F1770 X53.807 Y75.303 E49.30189
G1 X53.737 Y75.233
G0 F3600 X53.807 Y74.737
G1 F1770 X60.34 Y81.27 E49.76282
G1 X60.41 Y81.34
G0 F3600 X60.855 Y81.22
G1 F1770 X53.807 Y74.171 E50.26013
G1 X53.737 Y74.101
G0 F3600 X53.807 Y73.606
G1 F1770 X61.371 Y81.17 E50.79382
G1 X61.441 Y81.24
G0 F3600 X61.845 Y81.078
G1 F1770 X53.807 Y73.04 E51.36094
G1 X53.737 Y72.97
G0 F3600 X53.807 Y72.474
G1 F1770 X62.279 Y80.947 E51.95872
G1 X62.349 Y81.017
G0 F3600 X62.714 Y80.815
G1 F1770 X53.807 Y71.909 E52.58712
G1 X53.737 Y71.839
G0 F3600 X53.807 Y71.343
G1 F1770 X63.148 Y80.684 E53.24618
G1 X63.218 Y80.754
G0 F3600 X63.536 Y80.506
G1 F1770 X53.807 Y70.777 E53.93261
G1 X53.737 Y70.707
G0 F3600 X53.807 Y70.212
G1 F1770 X63.904 Y80.309 E54.64501
G1 X63.974 Y80.379
G0 F3600 X64.272 Y80.111
G1 F1770 X53.807 Y69.646 E55.38337
G1 X53.737 Y69.576
G0 F3600 X53.462 Y69.301
G1 F1770 X52.291 Y68.13 E55.46599
G1 X52.221 Y68.06
G0 F3600 X52.488 Y67.762
G1 F1770 X64.64 Y79.914 E56.32338
G1 X64.71 Y79.984
G0 F3600 X64.975 Y79.683
G1 F1770 X52.72 Y67.428 E57.18804
G1 X52.65 Y67.358
G0 F3600 X52.974 Y67.116
G1 F1770 X65.286 Y79.428 E58.05672
G1 X65.356 Y79.498
G0 F3600 X65.597 Y79.174
G1 F1770 X53.228 Y66.805 E58.92942
G1 X53.158 Y66.735
G0 F3600 X53.483 Y66.494
G1 F1770 X65.908 Y78.918 E59.80603
G1 X65.978 Y78.988
G0 F3600 X66.204 Y78.65
G1 F1770 X53.753 Y66.198 E60.68455
G1 X53.683 Y66.128
G0 F3600 X54.064 Y65.944
G1 F1770 X66.459 Y78.338 E61.55905
G1 X66.529 Y78.408
G0 F3600 X66.714 Y78.027
G1 F1770 X54.375 Y65.689 E62.4296
G1 X54.305 Y65.619
G0 F3600 X54.686 Y65.434
G1 F1770 X66.969 Y77.717 E63.29623
G1 X67.039 Y77.787
G0 F3600 X67.223 Y77.406
G1 F1770 X54.998 Y65.18 E64.15881
G1 X54.928 Y65.11
G0 F3600 X55.362 Y64.979
G1 F1770 X67.424 Y77.041 E65.00985
G1 X67.494 Y77.111
G0 F3600 X67.622 Y76.673
G1 F1770 X55.73 Y64.781 E65.84889
G1 X55.66 Y64.711
G0 F3600 X56.099 Y64.584
G1 F1770 X67.819 Y76.304 E66.6758
G1 X67.889 Y76.374
G0 F3600 X68.017 Y75.936
G1 F1770 X56.466 Y64.386 E67.49075
G1 X56.396 Y64.316
G0 F3600 X56.889 Y64.243
G1 F1770 X68.16 Y75.514 E68.28598
G1 X68.23 Y75.584
G0 F3600 X68.291 Y75.079
G1 F1770 X57.323 Y64.111 E69.05983
G1 X57.253 Y64.041
G0 F3600 X57.758 Y63.981
G1 F1770 X68.423 Y74.645 E69.81227
G1 X68.493 Y74.715
G0 F3600 X68.552 Y74.209
G1 F1770 X58.194 Y63.851 E70.54308
G1 X58.124 Y63.781
G0 F3600 X58.711 Y63.802
G1 F1770 X68.602 Y73.693 E71.24095
G1 X68.672 Y73.763
G0 F3600 X68.652 Y73.177
G1 F1770 X59.226 Y63.752 E71.90597
G1 X59.156 Y63.682
G0 F3600 X59.742 Y63.701
G1 F1770 X68.702 Y72.662 E72.53818
G1 X68.772 Y72.732
G0 F3600 X68.676 Y72.07
G1 F1770 X60.333 Y63.727 E73.12682
G1 X60.263 Y63.657
G0 F3600 X60.96 Y63.788
G1 F1770 X68.615 Y71.443 E73.66692
G1 X68.685 Y71.513
G0 F3600 X68.554 Y70.816
G1 F1770 X61.586 Y63.849 E74.15852
G1 X61.516 Y63.779
G0 F3600 X62.385 Y64.082
G1 F1770 X68.321 Y70.018 E74.57734
G1 X68.391 Y70.088
G0 F3600 X68.075 Y69.207
G1 F1770 X63.196 Y64.328 E74.92158
G1 X63.126 Y64.258
G0 F3600 X64.376 Y64.942
G1 F1770 X67.462 Y68.027 E75.13927
G1 X67.532 Y68.097
G0 F3600 X52.907 Y69.312
G1 F1770 X52.093 Y68.498 E75.19671
G1 X52.023 Y68.428
G0 F3600 X52.124 Y69.095
G1 F1770 X51.759 Y69.295 E75.21565
G0 F3600 X51.719 Y69.255
G1 F1500 E68.71565
G0 F3600 X52.106 Y67.292
G0 X51.113 Y66.478
G0 X52.459 Y55.123
G0 X53.273 Y54.131
G0 X53.806 Y50.066
G0 X53.807 Y44.934
G0 X52.173 Y42.336
G0 X52.09 Y42.281
;TIME_ELAPSED:56.882921
;LAYER:1
M140 S60
M106 S255
G0 F5400 X52.09 Y42.281 Z0.4
;TYPE:WALL-INNER
G1 F1500 E75.21565
G1 F2655 X53.259 Y40.855 E75.24632
G1 X54.685 Y39.686 E75.27698
G1 X56.308 Y38.817 E75.3076
G1 X58.07 Y38.283 E75.33822
G1 X59.904 Y38.103 E75.36886
G1 X61.738 Y38.283 E75.39951
G1 X63.5 Y38.817 E75.43013
G1 X65.123 Y39.686 E75.46074
G1 X66.549 Y40.855 E75.49141
G1 X67.718 Y42.281 E75.52207
G1 X68.587 Y43.904 E75.55269
G1 X69.121 Y45.666 E75.58331
G1 X69.301 Y47.5 E75.61395
G1 X69.121 Y49.334 E75.6446
G1 X68.587 Y51.096 E75.67522
G1 X67.718 Y52.719 E75.70583
G1 X66.549 Y54.145 E75.7365
G1 X65.123 Y55.314 E75.76716
G1 X63.5 Y56.183 E75.79778
G1 X61.738 Y56.717 E75.8284
G1 X59.904 Y56.897 E75.85904
G1 X58.07 Y56.717 E75.88969
G1 X56.308 Y56.183 E75.92031
